(GCode created using a custom HeeksCNC post processor)
(post processor for OMIOCNC X6)
(Reset all )
G17 G21 G40 G49 G80 G90 G94
(Set Exact path mode )
G61
(---- END OF CUSTOM HEADER ----)
(tool change to 1.5 mm Fraise de Finition)
 ( should be T4 M06 )
( Starting spindle at 17000 )
M03 S17000
( Wait 10s )
G04 P10.0000
 G17
G90
G21
(Esquisse 3)
 G00G90 X10.0000 Y10.7500
 S17000 M03
 G00 Z14.0000
 G01 Z4.0000 F1600
 G01 X8.6875 Y10.7500
 G02 X8.6500 Y10.7875 Z4.0000 I0.0000 J0.0375
 G01 X8.6500 Y11.7325
 G02 X8.6875 Y11.7700 Z4.0000 I0.0375 J0.0000
 G01 X11.3125 Y11.7700
 G02 X11.3500 Y11.7325 Z4.0000 I0.0000 J-0.0375
 G01 X11.3500 Y10.7875
 G02 X11.3125 Y10.7500 Z4.0000 I-0.0375 J0.0000
 G01 X10.0000 Y10.7500
 G01 Z2.0000
 G01 X8.6875 Y10.7500
 G02 X8.6500 Y10.7875 Z2.0000 I0.0000 J0.0375
 G01 X8.6500 Y11.7325
 G02 X8.6875 Y11.7700 Z2.0000 I0.0375 J0.0000
 G01 X11.3125 Y11.7700
 G02 X11.3500 Y11.7325 Z2.0000 I0.0000 J-0.0375
 G01 X11.3500 Y10.7875
 G02 X11.3125 Y10.7500 Z2.0000 I-0.0375 J0.0000
 G01 X10.0000 Y10.7500
 G01 Z0.0000
 G01 X8.6875 Y10.7500
 G02 X8.6500 Y10.7875 Z0.0000 I0.0000 J0.0375
 G01 X8.6500 Y11.7325
 G02 X8.6875 Y11.7700 Z0.0000 I0.0375 J0.0000
 G01 X11.3125 Y11.7700
 G02 X11.3500 Y11.7325 Z0.0000 I0.0000 J-0.0375
 G01 X11.3500 Y10.7875
 G02 X11.3125 Y10.7500 Z0.0000 I-0.0375 J0.0000
 G01 X10.0000 Y10.7500
 G00 Z10.0000
(END_OF_FORM)
(Esquisse 3)
 G00 X30.0000 Y10.7500
 G00 Z14.0000
 G01 Z4.0000
 G01 X28.6875 Y10.7500
 G02 X28.6500 Y10.7875 Z4.0000 I0.0000 J0.0375
 G01 X28.6500 Y11.7325
 G02 X28.6875 Y11.7700 Z4.0000 I0.0375 J0.0000
 G01 X31.3125 Y11.7700
 G02 X31.3500 Y11.7325 Z4.0000 I0.0000 J-0.0375
 G01 X31.3500 Y10.7875
 G02 X31.3125 Y10.7500 Z4.0000 I-0.0375 J0.0000
 G01 X30.0000 Y10.7500
 G01 Z2.0000
 G01 X28.6875 Y10.7500
 G02 X28.6500 Y10.7875 Z2.0000 I0.0000 J0.0375
 G01 X28.6500 Y11.7325
 G02 X28.6875 Y11.7700 Z2.0000 I0.0375 J0.0000
 G01 X31.3125 Y11.7700
 G02 X31.3500 Y11.7325 Z2.0000 I0.0000 J-0.0375
 G01 X31.3500 Y10.7875
 G02 X31.3125 Y10.7500 Z2.0000 I-0.0375 J0.0000
 G01 X30.0000 Y10.7500
 G01 Z0.0000
 G01 X28.6875 Y10.7500
 G02 X28.6500 Y10.7875 Z0.0000 I0.0000 J0.0375
 G01 X28.6500 Y11.7325
 G02 X28.6875 Y11.7700 Z0.0000 I0.0375 J0.0000
 G01 X31.3125 Y11.7700
 G02 X31.3500 Y11.7325 Z0.0000 I0.0000 J-0.0375
 G01 X31.3500 Y10.7875
 G02 X31.3125 Y10.7500 Z0.0000 I-0.0375 J0.0000
 G01 X30.0000 Y10.7500
 G00 Z10.0000
(END_OF_FORM)
(Esquisse 3)
 G00 X50.0000 Y10.7500
 G00 Z14.0000
 G01 Z4.0000
 G01 X48.6875 Y10.7500
 G02 X48.6500 Y10.7875 Z4.0000 I0.0000 J0.0375
 G01 X48.6500 Y11.7325
 G02 X48.6875 Y11.7700 Z4.0000 I0.0375 J0.0000
 G01 X51.3125 Y11.7700
 G02 X51.3500 Y11.7325 Z4.0000 I0.0000 J-0.0375
 G01 X51.3500 Y10.7875
 G02 X51.3125 Y10.7500 Z4.0000 I-0.0375 J0.0000
 G01 X50.0000 Y10.7500
 G01 Z2.0000
 G01 X48.6875 Y10.7500
 G02 X48.6500 Y10.7875 Z2.0000 I0.0000 J0.0375
 G01 X48.6500 Y11.7325
 G02 X48.6875 Y11.7700 Z2.0000 I0.0375 J0.0000
 G01 X51.3125 Y11.7700
 G02 X51.3500 Y11.7325 Z2.0000 I0.0000 J-0.0375
 G01 X51.3500 Y10.7875
 G02 X51.3125 Y10.7500 Z2.0000 I-0.0375 J0.0000
 G01 X50.0000 Y10.7500
 G01 Z0.0000
 G01 X48.6875 Y10.7500
 G02 X48.6500 Y10.7875 Z0.0000 I0.0000 J0.0375
 G01 X48.6500 Y11.7325
 G02 X48.6875 Y11.7700 Z0.0000 I0.0375 J0.0000
 G01 X51.3125 Y11.7700
 G02 X51.3500 Y11.7325 Z0.0000 I0.0000 J-0.0375
 G01 X51.3500 Y10.7875
 G02 X51.3125 Y10.7500 Z0.0000 I-0.0375 J0.0000
 G01 X50.0000 Y10.7500
 G00 Z10.0000
(END_OF_FORM)
(Esquisse 3)
 G00 X70.0000 Y10.7500
 G00 Z14.0000
 G01 Z4.0000
 G01 X68.6875 Y10.7500
 G02 X68.6500 Y10.7875 Z4.0000 I0.0000 J0.0375
 G01 X68.6500 Y11.7325
 G02 X68.6875 Y11.7700 Z4.0000 I0.0375 J0.0000
 G01 X71.3125 Y11.7700
 G02 X71.3500 Y11.7325 Z4.0000 I0.0000 J-0.0375
 G01 X71.3500 Y10.7875
 G02 X71.3125 Y10.7500 Z4.0000 I-0.0375 J0.0000
 G01 X70.0000 Y10.7500
 G01 Z2.0000
 G01 X68.6875 Y10.7500
 G02 X68.6500 Y10.7875 Z2.0000 I0.0000 J0.0375
 G01 X68.6500 Y11.7325
 G02 X68.6875 Y11.7700 Z2.0000 I0.0375 J0.0000
 G01 X71.3125 Y11.7700
 G02 X71.3500 Y11.7325 Z2.0000 I0.0000 J-0.0375
 G01 X71.3500 Y10.7875
 G02 X71.3125 Y10.7500 Z2.0000 I-0.0375 J0.0000
 G01 X70.0000 Y10.7500
 G01 Z0.0000
 G01 X68.6875 Y10.7500
 G02 X68.6500 Y10.7875 Z0.0000 I0.0000 J0.0375
 G01 X68.6500 Y11.7325
 G02 X68.6875 Y11.7700 Z0.0000 I0.0375 J0.0000
 G01 X71.3125 Y11.7700
 G02 X71.3500 Y11.7325 Z0.0000 I0.0000 J-0.0375
 G01 X71.3500 Y10.7875
 G02 X71.3125 Y10.7500 Z0.0000 I-0.0375 J0.0000
 G01 X70.0000 Y10.7500
 G00 Z10.0000
(END_OF_FORM)
(Esquisse 3)
 G00 X90.0000 Y10.7500
 G00 Z14.0000
 G01 Z4.0000
 G01 X88.6875 Y10.7500
 G02 X88.6500 Y10.7875 Z4.0000 I0.0000 J0.0375
 G01 X88.6500 Y11.7325
 G02 X88.6875 Y11.7700 Z4.0000 I0.0375 J0.0000
 G01 X91.3125 Y11.7700
 G02 X91.3500 Y11.7325 Z4.0000 I0.0000 J-0.0375
 G01 X91.3500 Y10.7875
 G02 X91.3125 Y10.7500 Z4.0000 I-0.0375 J0.0000
 G01 X90.0000 Y10.7500
 G01 Z2.0000
 G01 X88.6875 Y10.7500
 G02 X88.6500 Y10.7875 Z2.0000 I0.0000 J0.0375
 G01 X88.6500 Y11.7325
 G02 X88.6875 Y11.7700 Z2.0000 I0.0375 J0.0000
 G01 X91.3125 Y11.7700
 G02 X91.3500 Y11.7325 Z2.0000 I0.0000 J-0.0375
 G01 X91.3500 Y10.7875
 G02 X91.3125 Y10.7500 Z2.0000 I-0.0375 J0.0000
 G01 X90.0000 Y10.7500
 G01 Z0.0000
 G01 X88.6875 Y10.7500
 G02 X88.6500 Y10.7875 Z0.0000 I0.0000 J0.0375
 G01 X88.6500 Y11.7325
 G02 X88.6875 Y11.7700 Z0.0000 I0.0375 J0.0000
 G01 X91.3125 Y11.7700
 G02 X91.3500 Y11.7325 Z0.0000 I0.0000 J-0.0375
 G01 X91.3500 Y10.7875
 G02 X91.3125 Y10.7500 Z0.0000 I-0.0375 J0.0000
 G01 X90.0000 Y10.7500
 G00 Z10.0000
(END_OF_FORM)
(Esquisse 3)
 G00 X110.0000 Y10.7500
 G00 Z14.0000
 G01 Z4.0000
 G01 X108.6875 Y10.7500
 G02 X108.6500 Y10.7875 Z4.0000 I0.0000 J0.0375
 G01 X108.6500 Y11.7325
 G02 X108.6875 Y11.7700 Z4.0000 I0.0375 J0.0000
 G01 X111.3125 Y11.7700
 G02 X111.3500 Y11.7325 Z4.0000 I0.0000 J-0.0375
 G01 X111.3500 Y10.7875
 G02 X111.3125 Y10.7500 Z4.0000 I-0.0375 J0.0000
 G01 X110.0000 Y10.7500
 G01 Z2.0000
 G01 X108.6875 Y10.7500
 G02 X108.6500 Y10.7875 Z2.0000 I0.0000 J0.0375
 G01 X108.6500 Y11.7325
 G02 X108.6875 Y11.7700 Z2.0000 I0.0375 J0.0000
 G01 X111.3125 Y11.7700
 G02 X111.3500 Y11.7325 Z2.0000 I0.0000 J-0.0375
 G01 X111.3500 Y10.7875
 G02 X111.3125 Y10.7500 Z2.0000 I-0.0375 J0.0000
 G01 X110.0000 Y10.7500
 G01 Z0.0000
 G01 X108.6875 Y10.7500
 G02 X108.6500 Y10.7875 Z0.0000 I0.0000 J0.0375
 G01 X108.6500 Y11.7325
 G02 X108.6875 Y11.7700 Z0.0000 I0.0375 J0.0000
 G01 X111.3125 Y11.7700
 G02 X111.3500 Y11.7325 Z0.0000 I0.0000 J-0.0375
 G01 X111.3500 Y10.7875
 G02 X111.3125 Y10.7500 Z0.0000 I-0.0375 J0.0000
 G01 X110.0000 Y10.7500
 G00 Z10.0000
(END_OF_FORM)
(Esquisse 3)
 G00 X10.0000 Y30.7500
 G00 Z14.0000
 G01 Z4.0000
 G01 X8.6875 Y30.7500
 G02 X8.6500 Y30.7875 Z4.0000 I0.0000 J0.0375
 G01 X8.6500 Y31.7325
 G02 X8.6875 Y31.7700 Z4.0000 I0.0375 J0.0000
 G01 X11.3125 Y31.7700
 G02 X11.3500 Y31.7325 Z4.0000 I0.0000 J-0.0375
 G01 X11.3500 Y30.7875
 G02 X11.3125 Y30.7500 Z4.0000 I-0.0375 J0.0000
 G01 X10.0000 Y30.7500
 G01 Z2.0000
 G01 X8.6875 Y30.7500
 G02 X8.6500 Y30.7875 Z2.0000 I0.0000 J0.0375
 G01 X8.6500 Y31.7325
 G02 X8.6875 Y31.7700 Z2.0000 I0.0375 J0.0000
 G01 X11.3125 Y31.7700
 G02 X11.3500 Y31.7325 Z2.0000 I0.0000 J-0.0375
 G01 X11.3500 Y30.7875
 G02 X11.3125 Y30.7500 Z2.0000 I-0.0375 J0.0000
 G01 X10.0000 Y30.7500
 G01 Z0.0000
 G01 X8.6875 Y30.7500
 G02 X8.6500 Y30.7875 Z0.0000 I0.0000 J0.0375
 G01 X8.6500 Y31.7325
 G02 X8.6875 Y31.7700 Z0.0000 I0.0375 J0.0000
 G01 X11.3125 Y31.7700
 G02 X11.3500 Y31.7325 Z0.0000 I0.0000 J-0.0375
 G01 X11.3500 Y30.7875
 G02 X11.3125 Y30.7500 Z0.0000 I-0.0375 J0.0000
 G01 X10.0000 Y30.7500
 G00 Z10.0000
(END_OF_FORM)
(Esquisse 3)
 G00 X30.0000 Y30.7500
 G00 Z14.0000
 G01 Z4.0000
 G01 X28.6875 Y30.7500
 G02 X28.6500 Y30.7875 Z4.0000 I0.0000 J0.0375
 G01 X28.6500 Y31.7325
 G02 X28.6875 Y31.7700 Z4.0000 I0.0375 J0.0000
 G01 X31.3125 Y31.7700
 G02 X31.3500 Y31.7325 Z4.0000 I0.0000 J-0.0375
 G01 X31.3500 Y30.7875
 G02 X31.3125 Y30.7500 Z4.0000 I-0.0375 J0.0000
 G01 X30.0000 Y30.7500
 G01 Z2.0000
 G01 X28.6875 Y30.7500
 G02 X28.6500 Y30.7875 Z2.0000 I0.0000 J0.0375
 G01 X28.6500 Y31.7325
 G02 X28.6875 Y31.7700 Z2.0000 I0.0375 J0.0000
 G01 X31.3125 Y31.7700
 G02 X31.3500 Y31.7325 Z2.0000 I0.0000 J-0.0375
 G01 X31.3500 Y30.7875
 G02 X31.3125 Y30.7500 Z2.0000 I-0.0375 J0.0000
 G01 X30.0000 Y30.7500
 G01 Z0.0000
 G01 X28.6875 Y30.7500
 G02 X28.6500 Y30.7875 Z0.0000 I0.0000 J0.0375
 G01 X28.6500 Y31.7325
 G02 X28.6875 Y31.7700 Z0.0000 I0.0375 J0.0000
 G01 X31.3125 Y31.7700
 G02 X31.3500 Y31.7325 Z0.0000 I0.0000 J-0.0375
 G01 X31.3500 Y30.7875
 G02 X31.3125 Y30.7500 Z0.0000 I-0.0375 J0.0000
 G01 X30.0000 Y30.7500
 G00 Z10.0000
(END_OF_FORM)
(Esquisse 3)
 G00 X50.0000 Y30.7500
 G00 Z14.0000
 G01 Z4.0000
 G01 X48.6875 Y30.7500
 G02 X48.6500 Y30.7875 Z4.0000 I0.0000 J0.0375
 G01 X48.6500 Y31.7325
 G02 X48.6875 Y31.7700 Z4.0000 I0.0375 J0.0000
 G01 X51.3125 Y31.7700
 G02 X51.3500 Y31.7325 Z4.0000 I0.0000 J-0.0375
 G01 X51.3500 Y30.7875
 G02 X51.3125 Y30.7500 Z4.0000 I-0.0375 J0.0000
 G01 X50.0000 Y30.7500
 G01 Z2.0000
 G01 X48.6875 Y30.7500
 G02 X48.6500 Y30.7875 Z2.0000 I0.0000 J0.0375
 G01 X48.6500 Y31.7325
 G02 X48.6875 Y31.7700 Z2.0000 I0.0375 J0.0000
 G01 X51.3125 Y31.7700
 G02 X51.3500 Y31.7325 Z2.0000 I0.0000 J-0.0375
 G01 X51.3500 Y30.7875
 G02 X51.3125 Y30.7500 Z2.0000 I-0.0375 J0.0000
 G01 X50.0000 Y30.7500
 G01 Z0.0000
 G01 X48.6875 Y30.7500
 G02 X48.6500 Y30.7875 Z0.0000 I0.0000 J0.0375
 G01 X48.6500 Y31.7325
 G02 X48.6875 Y31.7700 Z0.0000 I0.0375 J0.0000
 G01 X51.3125 Y31.7700
 G02 X51.3500 Y31.7325 Z0.0000 I0.0000 J-0.0375
 G01 X51.3500 Y30.7875
 G02 X51.3125 Y30.7500 Z0.0000 I-0.0375 J0.0000
 G01 X50.0000 Y30.7500
 G00 Z10.0000
(END_OF_FORM)
(Esquisse 3)
 G00 X70.0000 Y30.7500
 G00 Z14.0000
 G01 Z4.0000
 G01 X68.6875 Y30.7500
 G02 X68.6500 Y30.7875 Z4.0000 I0.0000 J0.0375
 G01 X68.6500 Y31.7325
 G02 X68.6875 Y31.7700 Z4.0000 I0.0375 J0.0000
 G01 X71.3125 Y31.7700
 G02 X71.3500 Y31.7325 Z4.0000 I0.0000 J-0.0375
 G01 X71.3500 Y30.7875
 G02 X71.3125 Y30.7500 Z4.0000 I-0.0375 J0.0000
 G01 X70.0000 Y30.7500
 G01 Z2.0000
 G01 X68.6875 Y30.7500
 G02 X68.6500 Y30.7875 Z2.0000 I0.0000 J0.0375
 G01 X68.6500 Y31.7325
 G02 X68.6875 Y31.7700 Z2.0000 I0.0375 J0.0000
 G01 X71.3125 Y31.7700
 G02 X71.3500 Y31.7325 Z2.0000 I0.0000 J-0.0375
 G01 X71.3500 Y30.7875
 G02 X71.3125 Y30.7500 Z2.0000 I-0.0375 J0.0000
 G01 X70.0000 Y30.7500
 G01 Z0.0000
 G01 X68.6875 Y30.7500
 G02 X68.6500 Y30.7875 Z0.0000 I0.0000 J0.0375
 G01 X68.6500 Y31.7325
 G02 X68.6875 Y31.7700 Z0.0000 I0.0375 J0.0000
 G01 X71.3125 Y31.7700
 G02 X71.3500 Y31.7325 Z0.0000 I0.0000 J-0.0375
 G01 X71.3500 Y30.7875
 G02 X71.3125 Y30.7500 Z0.0000 I-0.0375 J0.0000
 G01 X70.0000 Y30.7500
 G00 Z10.0000
(END_OF_FORM)
(Esquisse 3)
 G00 X90.0000 Y30.7500
 G00 Z14.0000
 G01 Z4.0000
 G01 X88.6875 Y30.7500
 G02 X88.6500 Y30.7875 Z4.0000 I0.0000 J0.0375
 G01 X88.6500 Y31.7325
 G02 X88.6875 Y31.7700 Z4.0000 I0.0375 J0.0000
 G01 X91.3125 Y31.7700
 G02 X91.3500 Y31.7325 Z4.0000 I0.0000 J-0.0375
 G01 X91.3500 Y30.7875
 G02 X91.3125 Y30.7500 Z4.0000 I-0.0375 J0.0000
 G01 X90.0000 Y30.7500
 G01 Z2.0000
 G01 X88.6875 Y30.7500
 G02 X88.6500 Y30.7875 Z2.0000 I0.0000 J0.0375
 G01 X88.6500 Y31.7325
 G02 X88.6875 Y31.7700 Z2.0000 I0.0375 J0.0000
 G01 X91.3125 Y31.7700
 G02 X91.3500 Y31.7325 Z2.0000 I0.0000 J-0.0375
 G01 X91.3500 Y30.7875
 G02 X91.3125 Y30.7500 Z2.0000 I-0.0375 J0.0000
 G01 X90.0000 Y30.7500
 G01 Z0.0000
 G01 X88.6875 Y30.7500
 G02 X88.6500 Y30.7875 Z0.0000 I0.0000 J0.0375
 G01 X88.6500 Y31.7325
 G02 X88.6875 Y31.7700 Z0.0000 I0.0375 J0.0000
 G01 X91.3125 Y31.7700
 G02 X91.3500 Y31.7325 Z0.0000 I0.0000 J-0.0375
 G01 X91.3500 Y30.7875
 G02 X91.3125 Y30.7500 Z0.0000 I-0.0375 J0.0000
 G01 X90.0000 Y30.7500
 G00 Z10.0000
(END_OF_FORM)
(Esquisse 3)
 G00 X110.0000 Y30.7500
 G00 Z14.0000
 G01 Z4.0000
 G01 X108.6875 Y30.7500
 G02 X108.6500 Y30.7875 Z4.0000 I0.0000 J0.0375
 G01 X108.6500 Y31.7325
 G02 X108.6875 Y31.7700 Z4.0000 I0.0375 J0.0000
 G01 X111.3125 Y31.7700
 G02 X111.3500 Y31.7325 Z4.0000 I0.0000 J-0.0375
 G01 X111.3500 Y30.7875
 G02 X111.3125 Y30.7500 Z4.0000 I-0.0375 J0.0000
 G01 X110.0000 Y30.7500
 G01 Z2.0000
 G01 X108.6875 Y30.7500
 G02 X108.6500 Y30.7875 Z2.0000 I0.0000 J0.0375
 G01 X108.6500 Y31.7325
 G02 X108.6875 Y31.7700 Z2.0000 I0.0375 J0.0000
 G01 X111.3125 Y31.7700
 G02 X111.3500 Y31.7325 Z2.0000 I0.0000 J-0.0375
 G01 X111.3500 Y30.7875
 G02 X111.3125 Y30.7500 Z2.0000 I-0.0375 J0.0000
 G01 X110.0000 Y30.7500
 G01 Z0.0000
 G01 X108.6875 Y30.7500
 G02 X108.6500 Y30.7875 Z0.0000 I0.0000 J0.0375
 G01 X108.6500 Y31.7325
 G02 X108.6875 Y31.7700 Z0.0000 I0.0375 J0.0000
 G01 X111.3125 Y31.7700
 G02 X111.3500 Y31.7325 Z0.0000 I0.0000 J-0.0375
 G01 X111.3500 Y30.7875
 G02 X111.3125 Y30.7500 Z0.0000 I-0.0375 J0.0000
 G01 X110.0000 Y30.7500
 G00 Z10.0000
(END_OF_FORM)
(Esquisse 3)
 G00 X10.0000 Y50.7500
 G00 Z14.0000
 G01 Z4.0000
 G01 X8.6875 Y50.7500
 G02 X8.6500 Y50.7875 Z4.0000 I0.0000 J0.0375
 G01 X8.6500 Y51.7325
 G02 X8.6875 Y51.7700 Z4.0000 I0.0375 J0.0000
 G01 X11.3125 Y51.7700
 G02 X11.3500 Y51.7325 Z4.0000 I0.0000 J-0.0375
 G01 X11.3500 Y50.7875
 G02 X11.3125 Y50.7500 Z4.0000 I-0.0375 J0.0000
 G01 X10.0000 Y50.7500
 G01 Z2.0000
 G01 X8.6875 Y50.7500
 G02 X8.6500 Y50.7875 Z2.0000 I0.0000 J0.0375
 G01 X8.6500 Y51.7325
 G02 X8.6875 Y51.7700 Z2.0000 I0.0375 J0.0000
 G01 X11.3125 Y51.7700
 G02 X11.3500 Y51.7325 Z2.0000 I0.0000 J-0.0375
 G01 X11.3500 Y50.7875
 G02 X11.3125 Y50.7500 Z2.0000 I-0.0375 J0.0000
 G01 X10.0000 Y50.7500
 G01 Z0.0000
 G01 X8.6875 Y50.7500
 G02 X8.6500 Y50.7875 Z0.0000 I0.0000 J0.0375
 G01 X8.6500 Y51.7325
 G02 X8.6875 Y51.7700 Z0.0000 I0.0375 J0.0000
 G01 X11.3125 Y51.7700
 G02 X11.3500 Y51.7325 Z0.0000 I0.0000 J-0.0375
 G01 X11.3500 Y50.7875
 G02 X11.3125 Y50.7500 Z0.0000 I-0.0375 J0.0000
 G01 X10.0000 Y50.7500
 G00 Z10.0000
(END_OF_FORM)
(Esquisse 3)
 G00 X30.0000 Y50.7500
 G00 Z14.0000
 G01 Z4.0000
 G01 X28.6875 Y50.7500
 G02 X28.6500 Y50.7875 Z4.0000 I0.0000 J0.0375
 G01 X28.6500 Y51.7325
 G02 X28.6875 Y51.7700 Z4.0000 I0.0375 J0.0000
 G01 X31.3125 Y51.7700
 G02 X31.3500 Y51.7325 Z4.0000 I0.0000 J-0.0375
 G01 X31.3500 Y50.7875
 G02 X31.3125 Y50.7500 Z4.0000 I-0.0375 J0.0000
 G01 X30.0000 Y50.7500
 G01 Z2.0000
 G01 X28.6875 Y50.7500
 G02 X28.6500 Y50.7875 Z2.0000 I0.0000 J0.0375
 G01 X28.6500 Y51.7325
 G02 X28.6875 Y51.7700 Z2.0000 I0.0375 J0.0000
 G01 X31.3125 Y51.7700
 G02 X31.3500 Y51.7325 Z2.0000 I0.0000 J-0.0375
 G01 X31.3500 Y50.7875
 G02 X31.3125 Y50.7500 Z2.0000 I-0.0375 J0.0000
 G01 X30.0000 Y50.7500
 G01 Z0.0000
 G01 X28.6875 Y50.7500
 G02 X28.6500 Y50.7875 Z0.0000 I0.0000 J0.0375
 G01 X28.6500 Y51.7325
 G02 X28.6875 Y51.7700 Z0.0000 I0.0375 J0.0000
 G01 X31.3125 Y51.7700
 G02 X31.3500 Y51.7325 Z0.0000 I0.0000 J-0.0375
 G01 X31.3500 Y50.7875
 G02 X31.3125 Y50.7500 Z0.0000 I-0.0375 J0.0000
 G01 X30.0000 Y50.7500
 G00 Z10.0000
(END_OF_FORM)
(Esquisse 3)
 G00 X50.0000 Y50.7500
 G00 Z14.0000
 G01 Z4.0000
 G01 X48.6875 Y50.7500
 G02 X48.6500 Y50.7875 Z4.0000 I0.0000 J0.0375
 G01 X48.6500 Y51.7325
 G02 X48.6875 Y51.7700 Z4.0000 I0.0375 J0.0000
 G01 X51.3125 Y51.7700
 G02 X51.3500 Y51.7325 Z4.0000 I0.0000 J-0.0375
 G01 X51.3500 Y50.7875
 G02 X51.3125 Y50.7500 Z4.0000 I-0.0375 J0.0000
 G01 X50.0000 Y50.7500
 G01 Z2.0000
 G01 X48.6875 Y50.7500
 G02 X48.6500 Y50.7875 Z2.0000 I0.0000 J0.0375
 G01 X48.6500 Y51.7325
 G02 X48.6875 Y51.7700 Z2.0000 I0.0375 J0.0000
 G01 X51.3125 Y51.7700
 G02 X51.3500 Y51.7325 Z2.0000 I0.0000 J-0.0375
 G01 X51.3500 Y50.7875
 G02 X51.3125 Y50.7500 Z2.0000 I-0.0375 J0.0000
 G01 X50.0000 Y50.7500
 G01 Z0.0000
 G01 X48.6875 Y50.7500
 G02 X48.6500 Y50.7875 Z0.0000 I0.0000 J0.0375
 G01 X48.6500 Y51.7325
 G02 X48.6875 Y51.7700 Z0.0000 I0.0375 J0.0000
 G01 X51.3125 Y51.7700
 G02 X51.3500 Y51.7325 Z0.0000 I0.0000 J-0.0375
 G01 X51.3500 Y50.7875
 G02 X51.3125 Y50.7500 Z0.0000 I-0.0375 J0.0000
 G01 X50.0000 Y50.7500
 G00 Z10.0000
(END_OF_FORM)
(Esquisse 3)
 G00 X70.0000 Y50.7500
 G00 Z14.0000
 G01 Z4.0000
 G01 X68.6875 Y50.7500
 G02 X68.6500 Y50.7875 Z4.0000 I0.0000 J0.0375
 G01 X68.6500 Y51.7325
 G02 X68.6875 Y51.7700 Z4.0000 I0.0375 J0.0000
 G01 X71.3125 Y51.7700
 G02 X71.3500 Y51.7325 Z4.0000 I0.0000 J-0.0375
 G01 X71.3500 Y50.7875
 G02 X71.3125 Y50.7500 Z4.0000 I-0.0375 J0.0000
 G01 X70.0000 Y50.7500
 G01 Z2.0000
 G01 X68.6875 Y50.7500
 G02 X68.6500 Y50.7875 Z2.0000 I0.0000 J0.0375
 G01 X68.6500 Y51.7325
 G02 X68.6875 Y51.7700 Z2.0000 I0.0375 J0.0000
 G01 X71.3125 Y51.7700
 G02 X71.3500 Y51.7325 Z2.0000 I0.0000 J-0.0375
 G01 X71.3500 Y50.7875
 G02 X71.3125 Y50.7500 Z2.0000 I-0.0375 J0.0000
 G01 X70.0000 Y50.7500
 G01 Z0.0000
 G01 X68.6875 Y50.7500
 G02 X68.6500 Y50.7875 Z0.0000 I0.0000 J0.0375
 G01 X68.6500 Y51.7325
 G02 X68.6875 Y51.7700 Z0.0000 I0.0375 J0.0000
 G01 X71.3125 Y51.7700
 G02 X71.3500 Y51.7325 Z0.0000 I0.0000 J-0.0375
 G01 X71.3500 Y50.7875
 G02 X71.3125 Y50.7500 Z0.0000 I-0.0375 J0.0000
 G01 X70.0000 Y50.7500
 G00 Z10.0000
(END_OF_FORM)
(Esquisse 3)
 G00 X90.0000 Y50.7500
 G00 Z14.0000
 G01 Z4.0000
 G01 X88.6875 Y50.7500
 G02 X88.6500 Y50.7875 Z4.0000 I0.0000 J0.0375
 G01 X88.6500 Y51.7325
 G02 X88.6875 Y51.7700 Z4.0000 I0.0375 J0.0000
 G01 X91.3125 Y51.7700
 G02 X91.3500 Y51.7325 Z4.0000 I0.0000 J-0.0375
 G01 X91.3500 Y50.7875
 G02 X91.3125 Y50.7500 Z4.0000 I-0.0375 J0.0000
 G01 X90.0000 Y50.7500
 G01 Z2.0000
 G01 X88.6875 Y50.7500
 G02 X88.6500 Y50.7875 Z2.0000 I0.0000 J0.0375
 G01 X88.6500 Y51.7325
 G02 X88.6875 Y51.7700 Z2.0000 I0.0375 J0.0000
 G01 X91.3125 Y51.7700
 G02 X91.3500 Y51.7325 Z2.0000 I0.0000 J-0.0375
 G01 X91.3500 Y50.7875
 G02 X91.3125 Y50.7500 Z2.0000 I-0.0375 J0.0000
 G01 X90.0000 Y50.7500
 G01 Z0.0000
 G01 X88.6875 Y50.7500
 G02 X88.6500 Y50.7875 Z0.0000 I0.0000 J0.0375
 G01 X88.6500 Y51.7325
 G02 X88.6875 Y51.7700 Z0.0000 I0.0375 J0.0000
 G01 X91.3125 Y51.7700
 G02 X91.3500 Y51.7325 Z0.0000 I0.0000 J-0.0375
 G01 X91.3500 Y50.7875
 G02 X91.3125 Y50.7500 Z0.0000 I-0.0375 J0.0000
 G01 X90.0000 Y50.7500
 G00 Z10.0000
(END_OF_FORM)
(Esquisse 3)
 G00 X110.0000 Y50.7500
 G00 Z14.0000
 G01 Z4.0000
 G01 X108.6875 Y50.7500
 G02 X108.6500 Y50.7875 Z4.0000 I0.0000 J0.0375
 G01 X108.6500 Y51.7325
 G02 X108.6875 Y51.7700 Z4.0000 I0.0375 J0.0000
 G01 X111.3125 Y51.7700
 G02 X111.3500 Y51.7325 Z4.0000 I0.0000 J-0.0375
 G01 X111.3500 Y50.7875
 G02 X111.3125 Y50.7500 Z4.0000 I-0.0375 J0.0000
 G01 X110.0000 Y50.7500
 G01 Z2.0000
 G01 X108.6875 Y50.7500
 G02 X108.6500 Y50.7875 Z2.0000 I0.0000 J0.0375
 G01 X108.6500 Y51.7325
 G02 X108.6875 Y51.7700 Z2.0000 I0.0375 J0.0000
 G01 X111.3125 Y51.7700
 G02 X111.3500 Y51.7325 Z2.0000 I0.0000 J-0.0375
 G01 X111.3500 Y50.7875
 G02 X111.3125 Y50.7500 Z2.0000 I-0.0375 J0.0000
 G01 X110.0000 Y50.7500
 G01 Z0.0000
 G01 X108.6875 Y50.7500
 G02 X108.6500 Y50.7875 Z0.0000 I0.0000 J0.0375
 G01 X108.6500 Y51.7325
 G02 X108.6875 Y51.7700 Z0.0000 I0.0375 J0.0000
 G01 X111.3125 Y51.7700
 G02 X111.3500 Y51.7325 Z0.0000 I0.0000 J-0.0375
 G01 X111.3500 Y50.7875
 G02 X111.3125 Y50.7500 Z0.0000 I-0.0375 J0.0000
 G01 X110.0000 Y50.7500
 G00 Z10.0000
(END_OF_FORM)
(Esquisse 3)
 G00 X10.0000 Y70.7500
 G00 Z14.0000
 G01 Z4.0000
 G01 X8.6875 Y70.7500
 G02 X8.6500 Y70.7875 Z4.0000 I0.0000 J0.0375
 G01 X8.6500 Y71.7325
 G02 X8.6875 Y71.7700 Z4.0000 I0.0375 J0.0000
 G01 X11.3125 Y71.7700
 G02 X11.3500 Y71.7325 Z4.0000 I0.0000 J-0.0375
 G01 X11.3500 Y70.7875
 G02 X11.3125 Y70.7500 Z4.0000 I-0.0375 J0.0000
 G01 X10.0000 Y70.7500
 G01 Z2.0000
 G01 X8.6875 Y70.7500
 G02 X8.6500 Y70.7875 Z2.0000 I0.0000 J0.0375
 G01 X8.6500 Y71.7325
 G02 X8.6875 Y71.7700 Z2.0000 I0.0375 J0.0000
 G01 X11.3125 Y71.7700
 G02 X11.3500 Y71.7325 Z2.0000 I0.0000 J-0.0375
 G01 X11.3500 Y70.7875
 G02 X11.3125 Y70.7500 Z2.0000 I-0.0375 J0.0000
 G01 X10.0000 Y70.7500
 G01 Z0.0000
 G01 X8.6875 Y70.7500
 G02 X8.6500 Y70.7875 Z0.0000 I0.0000 J0.0375
 G01 X8.6500 Y71.7325
 G02 X8.6875 Y71.7700 Z0.0000 I0.0375 J0.0000
 G01 X11.3125 Y71.7700
 G02 X11.3500 Y71.7325 Z0.0000 I0.0000 J-0.0375
 G01 X11.3500 Y70.7875
 G02 X11.3125 Y70.7500 Z0.0000 I-0.0375 J0.0000
 G01 X10.0000 Y70.7500
 G00 Z10.0000
(END_OF_FORM)
(Esquisse 3)
 G00 X30.0000 Y70.7500
 G00 Z14.0000
 G01 Z4.0000
 G01 X28.6875 Y70.7500
 G02 X28.6500 Y70.7875 Z4.0000 I0.0000 J0.0375
 G01 X28.6500 Y71.7325
 G02 X28.6875 Y71.7700 Z4.0000 I0.0375 J0.0000
 G01 X31.3125 Y71.7700
 G02 X31.3500 Y71.7325 Z4.0000 I0.0000 J-0.0375
 G01 X31.3500 Y70.7875
 G02 X31.3125 Y70.7500 Z4.0000 I-0.0375 J0.0000
 G01 X30.0000 Y70.7500
 G01 Z2.0000
 G01 X28.6875 Y70.7500
 G02 X28.6500 Y70.7875 Z2.0000 I0.0000 J0.0375
 G01 X28.6500 Y71.7325
 G02 X28.6875 Y71.7700 Z2.0000 I0.0375 J0.0000
 G01 X31.3125 Y71.7700
 G02 X31.3500 Y71.7325 Z2.0000 I0.0000 J-0.0375
 G01 X31.3500 Y70.7875
 G02 X31.3125 Y70.7500 Z2.0000 I-0.0375 J0.0000
 G01 X30.0000 Y70.7500
 G01 Z0.0000
 G01 X28.6875 Y70.7500
 G02 X28.6500 Y70.7875 Z0.0000 I0.0000 J0.0375
 G01 X28.6500 Y71.7325
 G02 X28.6875 Y71.7700 Z0.0000 I0.0375 J0.0000
 G01 X31.3125 Y71.7700
 G02 X31.3500 Y71.7325 Z0.0000 I0.0000 J-0.0375
 G01 X31.3500 Y70.7875
 G02 X31.3125 Y70.7500 Z0.0000 I-0.0375 J0.0000
 G01 X30.0000 Y70.7500
 G00 Z10.0000
(END_OF_FORM)
(Esquisse 3)
 G00 X50.0000 Y70.7500
 G00 Z14.0000
 G01 Z4.0000
 G01 X48.6875 Y70.7500
 G02 X48.6500 Y70.7875 Z4.0000 I0.0000 J0.0375
 G01 X48.6500 Y71.7325
 G02 X48.6875 Y71.7700 Z4.0000 I0.0375 J0.0000
 G01 X51.3125 Y71.7700
 G02 X51.3500 Y71.7325 Z4.0000 I0.0000 J-0.0375
 G01 X51.3500 Y70.7875
 G02 X51.3125 Y70.7500 Z4.0000 I-0.0375 J0.0000
 G01 X50.0000 Y70.7500
 G01 Z2.0000
 G01 X48.6875 Y70.7500
 G02 X48.6500 Y70.7875 Z2.0000 I0.0000 J0.0375
 G01 X48.6500 Y71.7325
 G02 X48.6875 Y71.7700 Z2.0000 I0.0375 J0.0000
 G01 X51.3125 Y71.7700
 G02 X51.3500 Y71.7325 Z2.0000 I0.0000 J-0.0375
 G01 X51.3500 Y70.7875
 G02 X51.3125 Y70.7500 Z2.0000 I-0.0375 J0.0000
 G01 X50.0000 Y70.7500
 G01 Z0.0000
 G01 X48.6875 Y70.7500
 G02 X48.6500 Y70.7875 Z0.0000 I0.0000 J0.0375
 G01 X48.6500 Y71.7325
 G02 X48.6875 Y71.7700 Z0.0000 I0.0375 J0.0000
 G01 X51.3125 Y71.7700
 G02 X51.3500 Y71.7325 Z0.0000 I0.0000 J-0.0375
 G01 X51.3500 Y70.7875
 G02 X51.3125 Y70.7500 Z0.0000 I-0.0375 J0.0000
 G01 X50.0000 Y70.7500
 G00 Z10.0000
(END_OF_FORM)
(Esquisse 3)
 G00 X70.0000 Y70.7500
 G00 Z14.0000
 G01 Z4.0000
 G01 X68.6875 Y70.7500
 G02 X68.6500 Y70.7875 Z4.0000 I0.0000 J0.0375
 G01 X68.6500 Y71.7325
 G02 X68.6875 Y71.7700 Z4.0000 I0.0375 J0.0000
 G01 X71.3125 Y71.7700
 G02 X71.3500 Y71.7325 Z4.0000 I0.0000 J-0.0375
 G01 X71.3500 Y70.7875
 G02 X71.3125 Y70.7500 Z4.0000 I-0.0375 J0.0000
 G01 X70.0000 Y70.7500
 G01 Z2.0000
 G01 X68.6875 Y70.7500
 G02 X68.6500 Y70.7875 Z2.0000 I0.0000 J0.0375
 G01 X68.6500 Y71.7325
 G02 X68.6875 Y71.7700 Z2.0000 I0.0375 J0.0000
 G01 X71.3125 Y71.7700
 G02 X71.3500 Y71.7325 Z2.0000 I0.0000 J-0.0375
 G01 X71.3500 Y70.7875
 G02 X71.3125 Y70.7500 Z2.0000 I-0.0375 J0.0000
 G01 X70.0000 Y70.7500
 G01 Z0.0000
 G01 X68.6875 Y70.7500
 G02 X68.6500 Y70.7875 Z0.0000 I0.0000 J0.0375
 G01 X68.6500 Y71.7325
 G02 X68.6875 Y71.7700 Z0.0000 I0.0375 J0.0000
 G01 X71.3125 Y71.7700
 G02 X71.3500 Y71.7325 Z0.0000 I0.0000 J-0.0375
 G01 X71.3500 Y70.7875
 G02 X71.3125 Y70.7500 Z0.0000 I-0.0375 J0.0000
 G01 X70.0000 Y70.7500
 G00 Z10.0000
(END_OF_FORM)
(Esquisse 3)
 G00 X90.0000 Y70.7500
 G00 Z14.0000
 G01 Z4.0000
 G01 X88.6875 Y70.7500
 G02 X88.6500 Y70.7875 Z4.0000 I0.0000 J0.0375
 G01 X88.6500 Y71.7325
 G02 X88.6875 Y71.7700 Z4.0000 I0.0375 J0.0000
 G01 X91.3125 Y71.7700
 G02 X91.3500 Y71.7325 Z4.0000 I0.0000 J-0.0375
 G01 X91.3500 Y70.7875
 G02 X91.3125 Y70.7500 Z4.0000 I-0.0375 J0.0000
 G01 X90.0000 Y70.7500
 G01 Z2.0000
 G01 X88.6875 Y70.7500
 G02 X88.6500 Y70.7875 Z2.0000 I0.0000 J0.0375
 G01 X88.6500 Y71.7325
 G02 X88.6875 Y71.7700 Z2.0000 I0.0375 J0.0000
 G01 X91.3125 Y71.7700
 G02 X91.3500 Y71.7325 Z2.0000 I0.0000 J-0.0375
 G01 X91.3500 Y70.7875
 G02 X91.3125 Y70.7500 Z2.0000 I-0.0375 J0.0000
 G01 X90.0000 Y70.7500
 G01 Z0.0000
 G01 X88.6875 Y70.7500
 G02 X88.6500 Y70.7875 Z0.0000 I0.0000 J0.0375
 G01 X88.6500 Y71.7325
 G02 X88.6875 Y71.7700 Z0.0000 I0.0375 J0.0000
 G01 X91.3125 Y71.7700
 G02 X91.3500 Y71.7325 Z0.0000 I0.0000 J-0.0375
 G01 X91.3500 Y70.7875
 G02 X91.3125 Y70.7500 Z0.0000 I-0.0375 J0.0000
 G01 X90.0000 Y70.7500
 G00 Z10.0000
(END_OF_FORM)
(Esquisse 3)
 G00 X110.0000 Y70.7500
 G00 Z14.0000
 G01 Z4.0000
 G01 X108.6875 Y70.7500
 G02 X108.6500 Y70.7875 Z4.0000 I0.0000 J0.0375
 G01 X108.6500 Y71.7325
 G02 X108.6875 Y71.7700 Z4.0000 I0.0375 J0.0000
 G01 X111.3125 Y71.7700
 G02 X111.3500 Y71.7325 Z4.0000 I0.0000 J-0.0375
 G01 X111.3500 Y70.7875
 G02 X111.3125 Y70.7500 Z4.0000 I-0.0375 J0.0000
 G01 X110.0000 Y70.7500
 G01 Z2.0000
 G01 X108.6875 Y70.7500
 G02 X108.6500 Y70.7875 Z2.0000 I0.0000 J0.0375
 G01 X108.6500 Y71.7325
 G02 X108.6875 Y71.7700 Z2.0000 I0.0375 J0.0000
 G01 X111.3125 Y71.7700
 G02 X111.3500 Y71.7325 Z2.0000 I0.0000 J-0.0375
 G01 X111.3500 Y70.7875
 G02 X111.3125 Y70.7500 Z2.0000 I-0.0375 J0.0000
 G01 X110.0000 Y70.7500
 G01 Z0.0000
 G01 X108.6875 Y70.7500
 G02 X108.6500 Y70.7875 Z0.0000 I0.0000 J0.0375
 G01 X108.6500 Y71.7325
 G02 X108.6875 Y71.7700 Z0.0000 I0.0375 J0.0000
 G01 X111.3125 Y71.7700
 G02 X111.3500 Y71.7325 Z0.0000 I0.0000 J-0.0375
 G01 X111.3500 Y70.7875
 G02 X111.3125 Y70.7500 Z0.0000 I-0.0375 J0.0000
 G01 X110.0000 Y70.7500
 G00 Z10.0000
(END_OF_FORM)
(Esquisse 27)
 G00G90 X18.7500 Y7.0000
 S17000 M03
 G00 Z14.0000
 G01 Z4.0000
 G01 X18.7500 Y12.0000 Z4.0000
 G03 X18.5303 Y12.5303 Z4.0000 I-0.7500 J0.0000
 G01 X14.5303 Y16.5303 Z4.0000
 G03 X14.0000 Y16.7500 Z4.0000 I-0.5303 J-0.5303
 G01 X6.0000 Y16.7500 Z4.0000
 G03 X5.4696 Y16.5303 Z4.0000 I0.0000 J-0.7500
 G01 X1.4696 Y12.5303 Z4.0000
 G03 X1.2500 Y12.0000 Z4.0000 I0.5303 J-0.5303
 G01 X1.2500 Y2.0000 Z4.0000
 G03 X1.4696 Y1.4696 Z4.0000 I0.7500 J0.0000
 G01 X3.4696 Y-0.5303 Z4.0000
 G03 X4.0000 Y-0.7500 Z4.0000 I0.5303 J0.5303
 G01 X6.0000 Y-0.7500 Z4.0000
 G03 X7.7500 Y1.0000 Z4.0000 I0.0000 J1.7500
 G01 X7.7500 Y5.2500 Z4.0000
 G01 X12.2500 Y5.2500 Z4.0000
 G01 X12.2500 Y1.0000 Z4.0000
 G03 X14.0000 Y-0.7500 Z4.0000 I1.7500 J0.0000
 G01 X16.0000 Y-0.7500 Z4.0000
 G03 X16.5303 Y-0.5303 Z4.0000 I0.0000 J0.7500
 G01 X18.5303 Y1.4696 Z4.0000
 G03 X18.7500 Y2.0000 Z4.0000 I-0.5303 J0.5303
 G01 X18.7500 Y7.0000 Z4.0000
 G01 Z3.0000
 G01 X18.7500 Y8.7887 Z3.0000
 G01 X18.7500 Y8.9651 Z2.0000
 G01 X18.7500 Y12.0000 Z2.0000
 G03 X18.5303 Y12.5303 Z2.0000 I-0.7500 J0.0000
 G01 X14.5303 Y16.5303 Z2.0000
 G03 X14.0000 Y16.7500 Z2.0000 I-0.5303 J-0.5303
 G01 X11.9389 Y16.7500 Z2.0000
 G01 X11.7626 Y16.7500 Z3.0000
 G01 X8.2626 Y16.7500 Z3.0000
 G01 X8.0863 Y16.7500 Z2.0000
 G01 X6.0000 Y16.7500 Z2.0000
 G03 X5.4696 Y16.5303 Z2.0000 I0.0000 J-0.7500
 G01 X1.4696 Y12.5303 Z2.0000
 G03 X1.2500 Y12.0000 Z2.0000 I0.5303 J-0.5303
 G01 X1.2500 Y8.9943 Z2.0000
 G01 X1.2500 Y8.8180 Z3.0000
 G01 X1.2500 Y5.3180 Z3.0000
 G01 X1.2500 Y5.1417 Z2.0000
 G01 X1.2500 Y2.0000 Z2.0000
 G03 X1.4696 Y1.4696 Z2.0000 I0.7500 J0.0000
 G01 X3.4696 Y-0.5303 Z2.0000
 G03 X4.0000 Y-0.7500 Z2.0000 I0.5303 J0.5303
 G01 X6.0000 Y-0.7500 Z2.0000
 G03 X7.7500 Y1.0000 Z2.0000 I0.0000 J1.7500
 G01 X7.7500 Y5.2500 Z2.0000
 G01 X12.2500 Y5.2500 Z2.0000
 G01 X12.2500 Y1.0000 Z2.0000
 G03 X14.0000 Y-0.7500 Z2.0000 I1.7500 J0.0000
 G01 X16.0000 Y-0.7500 Z2.0000
 G03 X16.5303 Y-0.5303 Z2.0000 I0.0000 J0.7500
 G01 X18.5303 Y1.4696 Z2.0000
 G03 X18.7500 Y2.0000 Z2.0000 I-0.5303 J0.5303
 G01 X18.7500 Y5.1124 Z2.0000
 G01 X18.7500 Y5.2887 Z3.0000
 G01 X18.7500 Y7.0000 Z3.0000
 G01 X18.7500 Y8.7887 Z3.0000
 G01 X18.7500 Y9.3177 Z0.0000
 G01 X18.7500 Y12.0000 Z0.0000
 G03 X18.5303 Y12.5303 Z0.0000 I-0.7500 J0.0000
 G01 X14.5303 Y16.5303 Z0.0000
 G03 X14.0000 Y16.7500 Z0.0000 I-0.5303 J-0.5303
 G01 X12.2916 Y16.7500 Z0.0000
 G01 X11.7626 Y16.7500 Z3.0000
 G01 X8.2626 Y16.7500 Z3.0000
 G01 X7.7336 Y16.7500 Z0.0000
 G01 X6.0000 Y16.7500 Z0.0000
 G03 X5.4696 Y16.5303 Z0.0000 I0.0000 J-0.7500
 G01 X1.4696 Y12.5303 Z0.0000
 G03 X1.2500 Y12.0000 Z0.0000 I0.5303 J-0.5303
 G01 X1.2500 Y9.3470 Z0.0000
 G01 X1.2500 Y8.8180 Z3.0000
 G01 X1.2500 Y5.3180 Z3.0000
 G01 X1.2500 Y4.7890 Z0.0000
 G01 X1.2500 Y2.0000 Z0.0000
 G03 X1.4696 Y1.4696 Z0.0000 I0.7500 J0.0000
 G01 X3.4696 Y-0.5303 Z0.0000
 G03 X4.0000 Y-0.7500 Z0.0000 I0.5303 J0.5303
 G01 X6.0000 Y-0.7500 Z0.0000
 G03 X7.7500 Y1.0000 Z0.0000 I0.0000 J1.7500
 G01 X7.7500 Y5.2500 Z0.0000
 G01 X12.2500 Y5.2500 Z0.0000
 G01 X12.2500 Y1.0000 Z0.0000
 G03 X14.0000 Y-0.7500 Z0.0000 I1.7500 J0.0000
 G01 X16.0000 Y-0.7500 Z0.0000
 G03 X16.5303 Y-0.5303 Z0.0000 I0.0000 J0.7500
 G01 X18.5303 Y1.4696 Z0.0000
 G03 X18.7500 Y2.0000 Z0.0000 I-0.5303 J0.5303
 G01 X18.7500 Y4.7597 Z0.0000
 G01 X18.7500 Y5.2887 Z3.0000
 G01 X18.7500 Y7.0000 Z3.0000
 G00 Z10.0000
(END_OF_FORM)
(Esquisse 27)
 G00 X38.7500 Y7.0000
 G00 Z14.0000
 G01 Z4.0000
 G01 X38.7500 Y12.0000 Z4.0000
 G03 X38.5303 Y12.5303 Z4.0000 I-0.7500 J0.0000
 G01 X34.5303 Y16.5303 Z4.0000
 G03 X34.0000 Y16.7500 Z4.0000 I-0.5303 J-0.5303
 G01 X26.0000 Y16.7500 Z4.0000
 G03 X25.4696 Y16.5303 Z4.0000 I0.0000 J-0.7500
 G01 X21.4696 Y12.5303 Z4.0000
 G03 X21.2500 Y12.0000 Z4.0000 I0.5303 J-0.5303
 G01 X21.2500 Y2.0000 Z4.0000
 G03 X21.4696 Y1.4696 Z4.0000 I0.7500 J0.0000
 G01 X23.4696 Y-0.5303 Z4.0000
 G03 X24.0000 Y-0.7500 Z4.0000 I0.5303 J0.5303
 G01 X26.0000 Y-0.7500 Z4.0000
 G03 X27.7500 Y1.0000 Z4.0000 I0.0000 J1.7500
 G01 X27.7500 Y5.2500 Z4.0000
 G01 X32.2500 Y5.2500 Z4.0000
 G01 X32.2500 Y1.0000 Z4.0000
 G03 X34.0000 Y-0.7500 Z4.0000 I1.7500 J0.0000
 G01 X36.0000 Y-0.7500 Z4.0000
 G03 X36.5303 Y-0.5303 Z4.0000 I0.0000 J0.7500
 G01 X38.5303 Y1.4696 Z4.0000
 G03 X38.7500 Y2.0000 Z4.0000 I-0.5303 J0.5303
 G01 X38.7500 Y7.0000 Z4.0000
 G01 Z3.0000
 G01 X38.7500 Y8.7887 Z3.0000
 G01 X38.7500 Y8.9651 Z2.0000
 G01 X38.7500 Y12.0000 Z2.0000
 G03 X38.5303 Y12.5303 Z2.0000 I-0.7500 J0.0000
 G01 X34.5303 Y16.5303 Z2.0000
 G03 X34.0000 Y16.7500 Z2.0000 I-0.5303 J-0.5303
 G01 X31.9389 Y16.7500 Z2.0000
 G01 X31.7626 Y16.7500 Z3.0000
 G01 X28.2626 Y16.7500 Z3.0000
 G01 X28.0863 Y16.7500 Z2.0000
 G01 X26.0000 Y16.7500 Z2.0000
 G03 X25.4696 Y16.5303 Z2.0000 I0.0000 J-0.7500
 G01 X21.4696 Y12.5303 Z2.0000
 G03 X21.2500 Y12.0000 Z2.0000 I0.5303 J-0.5303
 G01 X21.2500 Y8.9943 Z2.0000
 G01 X21.2500 Y8.8180 Z3.0000
 G01 X21.2500 Y5.3180 Z3.0000
 G01 X21.2500 Y5.1417 Z2.0000
 G01 X21.2500 Y2.0000 Z2.0000
 G03 X21.4696 Y1.4696 Z2.0000 I0.7500 J0.0000
 G01 X23.4696 Y-0.5303 Z2.0000
 G03 X24.0000 Y-0.7500 Z2.0000 I0.5303 J0.5303
 G01 X26.0000 Y-0.7500 Z2.0000
 G03 X27.7500 Y1.0000 Z2.0000 I0.0000 J1.7500
 G01 X27.7500 Y5.2500 Z2.0000
 G01 X32.2500 Y5.2500 Z2.0000
 G01 X32.2500 Y1.0000 Z2.0000
 G03 X34.0000 Y-0.7500 Z2.0000 I1.7500 J0.0000
 G01 X36.0000 Y-0.7500 Z2.0000
 G03 X36.5303 Y-0.5303 Z2.0000 I0.0000 J0.7500
 G01 X38.5303 Y1.4696 Z2.0000
 G03 X38.7500 Y2.0000 Z2.0000 I-0.5303 J0.5303
 G01 X38.7500 Y5.1124 Z2.0000
 G01 X38.7500 Y5.2887 Z3.0000
 G01 X38.7500 Y7.0000 Z3.0000
 G01 X38.7500 Y8.7887 Z3.0000
 G01 X38.7500 Y9.3177 Z0.0000
 G01 X38.7500 Y12.0000 Z0.0000
 G03 X38.5303 Y12.5303 Z0.0000 I-0.7500 J0.0000
 G01 X34.5303 Y16.5303 Z0.0000
 G03 X34.0000 Y16.7500 Z0.0000 I-0.5303 J-0.5303
 G01 X32.2916 Y16.7500 Z0.0000
 G01 X31.7626 Y16.7500 Z3.0000
 G01 X28.2626 Y16.7500 Z3.0000
 G01 X27.7336 Y16.7500 Z0.0000
 G01 X26.0000 Y16.7500 Z0.0000
 G03 X25.4696 Y16.5303 Z0.0000 I0.0000 J-0.7500
 G01 X21.4696 Y12.5303 Z0.0000
 G03 X21.2500 Y12.0000 Z0.0000 I0.5303 J-0.5303
 G01 X21.2500 Y9.3470 Z0.0000
 G01 X21.2500 Y8.8180 Z3.0000
 G01 X21.2500 Y5.3180 Z3.0000
 G01 X21.2500 Y4.7890 Z0.0000
 G01 X21.2500 Y2.0000 Z0.0000
 G03 X21.4696 Y1.4696 Z0.0000 I0.7500 J0.0000
 G01 X23.4696 Y-0.5303 Z0.0000
 G03 X24.0000 Y-0.7500 Z0.0000 I0.5303 J0.5303
 G01 X26.0000 Y-0.7500 Z0.0000
 G03 X27.7500 Y1.0000 Z0.0000 I0.0000 J1.7500
 G01 X27.7500 Y5.2500 Z0.0000
 G01 X32.2500 Y5.2500 Z0.0000
 G01 X32.2500 Y1.0000 Z0.0000
 G03 X34.0000 Y-0.7500 Z0.0000 I1.7500 J0.0000
 G01 X36.0000 Y-0.7500 Z0.0000
 G03 X36.5303 Y-0.5303 Z0.0000 I0.0000 J0.7500
 G01 X38.5303 Y1.4696 Z0.0000
 G03 X38.7500 Y2.0000 Z0.0000 I-0.5303 J0.5303
 G01 X38.7500 Y4.7597 Z0.0000
 G01 X38.7500 Y5.2887 Z3.0000
 G01 X38.7500 Y7.0000 Z3.0000
 G00 Z10.0000
(END_OF_FORM)
(Esquisse 27)
 G00 X58.7500 Y7.0000
 G00 Z14.0000
 G01 Z4.0000
 G01 X58.7500 Y12.0000 Z4.0000
 G03 X58.5303 Y12.5303 Z4.0000 I-0.7500 J0.0000
 G01 X54.5303 Y16.5303 Z4.0000
 G03 X54.0000 Y16.7500 Z4.0000 I-0.5303 J-0.5303
 G01 X46.0000 Y16.7500 Z4.0000
 G03 X45.4696 Y16.5303 Z4.0000 I0.0000 J-0.7500
 G01 X41.4696 Y12.5303 Z4.0000
 G03 X41.2500 Y12.0000 Z4.0000 I0.5303 J-0.5303
 G01 X41.2500 Y2.0000 Z4.0000
 G03 X41.4696 Y1.4696 Z4.0000 I0.7500 J0.0000
 G01 X43.4696 Y-0.5303 Z4.0000
 G03 X44.0000 Y-0.7500 Z4.0000 I0.5303 J0.5303
 G01 X46.0000 Y-0.7500 Z4.0000
 G03 X47.7500 Y1.0000 Z4.0000 I0.0000 J1.7500
 G01 X47.7500 Y5.2500 Z4.0000
 G01 X52.2500 Y5.2500 Z4.0000
 G01 X52.2500 Y1.0000 Z4.0000
 G03 X54.0000 Y-0.7500 Z4.0000 I1.7500 J0.0000
 G01 X56.0000 Y-0.7500 Z4.0000
 G03 X56.5303 Y-0.5303 Z4.0000 I0.0000 J0.7500
 G01 X58.5303 Y1.4696 Z4.0000
 G03 X58.7500 Y2.0000 Z4.0000 I-0.5303 J0.5303
 G01 X58.7500 Y7.0000 Z4.0000
 G01 Z3.0000
 G01 X58.7500 Y8.7887 Z3.0000
 G01 X58.7500 Y8.9651 Z2.0000
 G01 X58.7500 Y12.0000 Z2.0000
 G03 X58.5303 Y12.5303 Z2.0000 I-0.7500 J0.0000
 G01 X54.5303 Y16.5303 Z2.0000
 G03 X54.0000 Y16.7500 Z2.0000 I-0.5303 J-0.5303
 G01 X51.9389 Y16.7500 Z2.0000
 G01 X51.7626 Y16.7500 Z3.0000
 G01 X48.2626 Y16.7500 Z3.0000
 G01 X48.0863 Y16.7500 Z2.0000
 G01 X46.0000 Y16.7500 Z2.0000
 G03 X45.4696 Y16.5303 Z2.0000 I0.0000 J-0.7500
 G01 X41.4696 Y12.5303 Z2.0000
 G03 X41.2500 Y12.0000 Z2.0000 I0.5303 J-0.5303
 G01 X41.2500 Y8.9943 Z2.0000
 G01 X41.2500 Y8.8180 Z3.0000
 G01 X41.2500 Y5.3180 Z3.0000
 G01 X41.2500 Y5.1417 Z2.0000
 G01 X41.2500 Y2.0000 Z2.0000
 G03 X41.4696 Y1.4696 Z2.0000 I0.7500 J0.0000
 G01 X43.4696 Y-0.5303 Z2.0000
 G03 X44.0000 Y-0.7500 Z2.0000 I0.5303 J0.5303
 G01 X46.0000 Y-0.7500 Z2.0000
 G03 X47.7500 Y1.0000 Z2.0000 I0.0000 J1.7500
 G01 X47.7500 Y5.2500 Z2.0000
 G01 X52.2500 Y5.2500 Z2.0000
 G01 X52.2500 Y1.0000 Z2.0000
 G03 X54.0000 Y-0.7500 Z2.0000 I1.7500 J0.0000
 G01 X56.0000 Y-0.7500 Z2.0000
 G03 X56.5303 Y-0.5303 Z2.0000 I0.0000 J0.7500
 G01 X58.5303 Y1.4696 Z2.0000
 G03 X58.7500 Y2.0000 Z2.0000 I-0.5303 J0.5303
 G01 X58.7500 Y5.1124 Z2.0000
 G01 X58.7500 Y5.2887 Z3.0000
 G01 X58.7500 Y7.0000 Z3.0000
 G01 X58.7500 Y8.7887 Z3.0000
 G01 X58.7500 Y9.3177 Z0.0000
 G01 X58.7500 Y12.0000 Z0.0000
 G03 X58.5303 Y12.5303 Z0.0000 I-0.7500 J0.0000
 G01 X54.5303 Y16.5303 Z0.0000
 G03 X54.0000 Y16.7500 Z0.0000 I-0.5303 J-0.5303
 G01 X52.2916 Y16.7500 Z0.0000
 G01 X51.7626 Y16.7500 Z3.0000
 G01 X48.2626 Y16.7500 Z3.0000
 G01 X47.7336 Y16.7500 Z0.0000
 G01 X46.0000 Y16.7500 Z0.0000
 G03 X45.4696 Y16.5303 Z0.0000 I0.0000 J-0.7500
 G01 X41.4696 Y12.5303 Z0.0000
 G03 X41.2500 Y12.0000 Z0.0000 I0.5303 J-0.5303
 G01 X41.2500 Y9.3470 Z0.0000
 G01 X41.2500 Y8.8180 Z3.0000
 G01 X41.2500 Y5.3180 Z3.0000
 G01 X41.2500 Y4.7890 Z0.0000
 G01 X41.2500 Y2.0000 Z0.0000
 G03 X41.4696 Y1.4696 Z0.0000 I0.7500 J0.0000
 G01 X43.4696 Y-0.5303 Z0.0000
 G03 X44.0000 Y-0.7500 Z0.0000 I0.5303 J0.5303
 G01 X46.0000 Y-0.7500 Z0.0000
 G03 X47.7500 Y1.0000 Z0.0000 I0.0000 J1.7500
 G01 X47.7500 Y5.2500 Z0.0000
 G01 X52.2500 Y5.2500 Z0.0000
 G01 X52.2500 Y1.0000 Z0.0000
 G03 X54.0000 Y-0.7500 Z0.0000 I1.7500 J0.0000
 G01 X56.0000 Y-0.7500 Z0.0000
 G03 X56.5303 Y-0.5303 Z0.0000 I0.0000 J0.7500
 G01 X58.5303 Y1.4696 Z0.0000
 G03 X58.7500 Y2.0000 Z0.0000 I-0.5303 J0.5303
 G01 X58.7500 Y4.7597 Z0.0000
 G01 X58.7500 Y5.2887 Z3.0000
 G01 X58.7500 Y7.0000 Z3.0000
 G00 Z10.0000
(END_OF_FORM)
(Esquisse 27)
 G00 X78.7500 Y7.0000
 G00 Z14.0000
 G01 Z4.0000
 G01 X78.7500 Y12.0000 Z4.0000
 G03 X78.5303 Y12.5303 Z4.0000 I-0.7500 J0.0000
 G01 X74.5303 Y16.5303 Z4.0000
 G03 X74.0000 Y16.7500 Z4.0000 I-0.5303 J-0.5303
 G01 X66.0000 Y16.7500 Z4.0000
 G03 X65.4696 Y16.5303 Z4.0000 I0.0000 J-0.7500
 G01 X61.4696 Y12.5303 Z4.0000
 G03 X61.2500 Y12.0000 Z4.0000 I0.5303 J-0.5303
 G01 X61.2500 Y2.0000 Z4.0000
 G03 X61.4696 Y1.4696 Z4.0000 I0.7500 J0.0000
 G01 X63.4696 Y-0.5303 Z4.0000
 G03 X64.0000 Y-0.7500 Z4.0000 I0.5303 J0.5303
 G01 X66.0000 Y-0.7500 Z4.0000
 G03 X67.7500 Y1.0000 Z4.0000 I0.0000 J1.7500
 G01 X67.7500 Y5.2500 Z4.0000
 G01 X72.2500 Y5.2500 Z4.0000
 G01 X72.2500 Y1.0000 Z4.0000
 G03 X74.0000 Y-0.7500 Z4.0000 I1.7500 J0.0000
 G01 X76.0000 Y-0.7500 Z4.0000
 G03 X76.5303 Y-0.5303 Z4.0000 I0.0000 J0.7500
 G01 X78.5303 Y1.4696 Z4.0000
 G03 X78.7500 Y2.0000 Z4.0000 I-0.5303 J0.5303
 G01 X78.7500 Y7.0000 Z4.0000
 G01 Z3.0000
 G01 X78.7500 Y8.7887 Z3.0000
 G01 X78.7500 Y8.9651 Z2.0000
 G01 X78.7500 Y12.0000 Z2.0000
 G03 X78.5303 Y12.5303 Z2.0000 I-0.7500 J0.0000
 G01 X74.5303 Y16.5303 Z2.0000
 G03 X74.0000 Y16.7500 Z2.0000 I-0.5303 J-0.5303
 G01 X71.9389 Y16.7500 Z2.0000
 G01 X71.7626 Y16.7500 Z3.0000
 G01 X68.2626 Y16.7500 Z3.0000
 G01 X68.0863 Y16.7500 Z2.0000
 G01 X66.0000 Y16.7500 Z2.0000
 G03 X65.4696 Y16.5303 Z2.0000 I0.0000 J-0.7500
 G01 X61.4696 Y12.5303 Z2.0000
 G03 X61.2500 Y12.0000 Z2.0000 I0.5303 J-0.5303
 G01 X61.2500 Y8.9943 Z2.0000
 G01 X61.2500 Y8.8180 Z3.0000
 G01 X61.2500 Y5.3180 Z3.0000
 G01 X61.2500 Y5.1417 Z2.0000
 G01 X61.2500 Y2.0000 Z2.0000
 G03 X61.4696 Y1.4696 Z2.0000 I0.7500 J0.0000
 G01 X63.4696 Y-0.5303 Z2.0000
 G03 X64.0000 Y-0.7500 Z2.0000 I0.5303 J0.5303
 G01 X66.0000 Y-0.7500 Z2.0000
 G03 X67.7500 Y1.0000 Z2.0000 I0.0000 J1.7500
 G01 X67.7500 Y5.2500 Z2.0000
 G01 X72.2500 Y5.2500 Z2.0000
 G01 X72.2500 Y1.0000 Z2.0000
 G03 X74.0000 Y-0.7500 Z2.0000 I1.7500 J0.0000
 G01 X76.0000 Y-0.7500 Z2.0000
 G03 X76.5303 Y-0.5303 Z2.0000 I0.0000 J0.7500
 G01 X78.5303 Y1.4696 Z2.0000
 G03 X78.7500 Y2.0000 Z2.0000 I-0.5303 J0.5303
 G01 X78.7500 Y5.1124 Z2.0000
 G01 X78.7500 Y5.2887 Z3.0000
 G01 X78.7500 Y7.0000 Z3.0000
 G01 X78.7500 Y8.7887 Z3.0000
 G01 X78.7500 Y9.3177 Z0.0000
 G01 X78.7500 Y12.0000 Z0.0000
 G03 X78.5303 Y12.5303 Z0.0000 I-0.7500 J0.0000
 G01 X74.5303 Y16.5303 Z0.0000
 G03 X74.0000 Y16.7500 Z0.0000 I-0.5303 J-0.5303
 G01 X72.2916 Y16.7500 Z0.0000
 G01 X71.7626 Y16.7500 Z3.0000
 G01 X68.2626 Y16.7500 Z3.0000
 G01 X67.7336 Y16.7500 Z0.0000
 G01 X66.0000 Y16.7500 Z0.0000
 G03 X65.4696 Y16.5303 Z0.0000 I0.0000 J-0.7500
 G01 X61.4696 Y12.5303 Z0.0000
 G03 X61.2500 Y12.0000 Z0.0000 I0.5303 J-0.5303
 G01 X61.2500 Y9.3470 Z0.0000
 G01 X61.2500 Y8.8180 Z3.0000
 G01 X61.2500 Y5.3180 Z3.0000
 G01 X61.2500 Y4.7890 Z0.0000
 G01 X61.2500 Y2.0000 Z0.0000
 G03 X61.4696 Y1.4696 Z0.0000 I0.7500 J0.0000
 G01 X63.4696 Y-0.5303 Z0.0000
 G03 X64.0000 Y-0.7500 Z0.0000 I0.5303 J0.5303
 G01 X66.0000 Y-0.7500 Z0.0000
 G03 X67.7500 Y1.0000 Z0.0000 I0.0000 J1.7500
 G01 X67.7500 Y5.2500 Z0.0000
 G01 X72.2500 Y5.2500 Z0.0000
 G01 X72.2500 Y1.0000 Z0.0000
 G03 X74.0000 Y-0.7500 Z0.0000 I1.7500 J0.0000
 G01 X76.0000 Y-0.7500 Z0.0000
 G03 X76.5303 Y-0.5303 Z0.0000 I0.0000 J0.7500
 G01 X78.5303 Y1.4696 Z0.0000
 G03 X78.7500 Y2.0000 Z0.0000 I-0.5303 J0.5303
 G01 X78.7500 Y4.7597 Z0.0000
 G01 X78.7500 Y5.2887 Z3.0000
 G01 X78.7500 Y7.0000 Z3.0000
 G00 Z10.0000
(END_OF_FORM)
(Esquisse 27)
 G00 X98.7500 Y7.0000
 G00 Z14.0000
 G01 Z4.0000
 G01 X98.7500 Y12.0000 Z4.0000
 G03 X98.5303 Y12.5303 Z4.0000 I-0.7500 J0.0000
 G01 X94.5303 Y16.5303 Z4.0000
 G03 X94.0000 Y16.7500 Z4.0000 I-0.5303 J-0.5303
 G01 X86.0000 Y16.7500 Z4.0000
 G03 X85.4696 Y16.5303 Z4.0000 I0.0000 J-0.7500
 G01 X81.4696 Y12.5303 Z4.0000
 G03 X81.2500 Y12.0000 Z4.0000 I0.5303 J-0.5303
 G01 X81.2500 Y2.0000 Z4.0000
 G03 X81.4696 Y1.4696 Z4.0000 I0.7500 J0.0000
 G01 X83.4696 Y-0.5303 Z4.0000
 G03 X84.0000 Y-0.7500 Z4.0000 I0.5303 J0.5303
 G01 X86.0000 Y-0.7500 Z4.0000
 G03 X87.7500 Y1.0000 Z4.0000 I0.0000 J1.7500
 G01 X87.7500 Y5.2500 Z4.0000
 G01 X92.2500 Y5.2500 Z4.0000
 G01 X92.2500 Y1.0000 Z4.0000
 G03 X94.0000 Y-0.7500 Z4.0000 I1.7500 J0.0000
 G01 X96.0000 Y-0.7500 Z4.0000
 G03 X96.5303 Y-0.5303 Z4.0000 I0.0000 J0.7500
 G01 X98.5303 Y1.4696 Z4.0000
 G03 X98.7500 Y2.0000 Z4.0000 I-0.5303 J0.5303
 G01 X98.7500 Y7.0000 Z4.0000
 G01 Z3.0000
 G01 X98.7500 Y8.7887 Z3.0000
 G01 X98.7500 Y8.9651 Z2.0000
 G01 X98.7500 Y12.0000 Z2.0000
 G03 X98.5303 Y12.5303 Z2.0000 I-0.7500 J0.0000
 G01 X94.5303 Y16.5303 Z2.0000
 G03 X94.0000 Y16.7500 Z2.0000 I-0.5303 J-0.5303
 G01 X91.9389 Y16.7500 Z2.0000
 G01 X91.7626 Y16.7500 Z3.0000
 G01 X88.2626 Y16.7500 Z3.0000
 G01 X88.0863 Y16.7500 Z2.0000
 G01 X86.0000 Y16.7500 Z2.0000
 G03 X85.4696 Y16.5303 Z2.0000 I0.0000 J-0.7500
 G01 X81.4696 Y12.5303 Z2.0000
 G03 X81.2500 Y12.0000 Z2.0000 I0.5303 J-0.5303
 G01 X81.2500 Y8.9943 Z2.0000
 G01 X81.2500 Y8.8180 Z3.0000
 G01 X81.2500 Y5.3180 Z3.0000
 G01 X81.2500 Y5.1417 Z2.0000
 G01 X81.2500 Y2.0000 Z2.0000
 G03 X81.4696 Y1.4696 Z2.0000 I0.7500 J0.0000
 G01 X83.4696 Y-0.5303 Z2.0000
 G03 X84.0000 Y-0.7500 Z2.0000 I0.5303 J0.5303
 G01 X86.0000 Y-0.7500 Z2.0000
 G03 X87.7500 Y1.0000 Z2.0000 I0.0000 J1.7500
 G01 X87.7500 Y5.2500 Z2.0000
 G01 X92.2500 Y5.2500 Z2.0000
 G01 X92.2500 Y1.0000 Z2.0000
 G03 X94.0000 Y-0.7500 Z2.0000 I1.7500 J0.0000
 G01 X96.0000 Y-0.7500 Z2.0000
 G03 X96.5303 Y-0.5303 Z2.0000 I0.0000 J0.7500
 G01 X98.5303 Y1.4696 Z2.0000
 G03 X98.7500 Y2.0000 Z2.0000 I-0.5303 J0.5303
 G01 X98.7500 Y5.1124 Z2.0000
 G01 X98.7500 Y5.2887 Z3.0000
 G01 X98.7500 Y7.0000 Z3.0000
 G01 X98.7500 Y8.7887 Z3.0000
 G01 X98.7500 Y9.3177 Z0.0000
 G01 X98.7500 Y12.0000 Z0.0000
 G03 X98.5303 Y12.5303 Z0.0000 I-0.7500 J0.0000
 G01 X94.5303 Y16.5303 Z0.0000
 G03 X94.0000 Y16.7500 Z0.0000 I-0.5303 J-0.5303
 G01 X92.2916 Y16.7500 Z0.0000
 G01 X91.7626 Y16.7500 Z3.0000
 G01 X88.2626 Y16.7500 Z3.0000
 G01 X87.7336 Y16.7500 Z0.0000
 G01 X86.0000 Y16.7500 Z0.0000
 G03 X85.4696 Y16.5303 Z0.0000 I0.0000 J-0.7500
 G01 X81.4696 Y12.5303 Z0.0000
 G03 X81.2500 Y12.0000 Z0.0000 I0.5303 J-0.5303
 G01 X81.2500 Y9.3470 Z0.0000
 G01 X81.2500 Y8.8180 Z3.0000
 G01 X81.2500 Y5.3180 Z3.0000
 G01 X81.2500 Y4.7890 Z0.0000
 G01 X81.2500 Y2.0000 Z0.0000
 G03 X81.4696 Y1.4696 Z0.0000 I0.7500 J0.0000
 G01 X83.4696 Y-0.5303 Z0.0000
 G03 X84.0000 Y-0.7500 Z0.0000 I0.5303 J0.5303
 G01 X86.0000 Y-0.7500 Z0.0000
 G03 X87.7500 Y1.0000 Z0.0000 I0.0000 J1.7500
 G01 X87.7500 Y5.2500 Z0.0000
 G01 X92.2500 Y5.2500 Z0.0000
 G01 X92.2500 Y1.0000 Z0.0000
 G03 X94.0000 Y-0.7500 Z0.0000 I1.7500 J0.0000
 G01 X96.0000 Y-0.7500 Z0.0000
 G03 X96.5303 Y-0.5303 Z0.0000 I0.0000 J0.7500
 G01 X98.5303 Y1.4696 Z0.0000
 G03 X98.7500 Y2.0000 Z0.0000 I-0.5303 J0.5303
 G01 X98.7500 Y4.7597 Z0.0000
 G01 X98.7500 Y5.2887 Z3.0000
 G01 X98.7500 Y7.0000 Z3.0000
 G00 Z10.0000
(END_OF_FORM)
(Esquisse 27)
 G00 X118.7500 Y7.0000
 G00 Z14.0000
 G01 Z4.0000
 G01 X118.7500 Y12.0000 Z4.0000
 G03 X118.5303 Y12.5303 Z4.0000 I-0.7500 J0.0000
 G01 X114.5303 Y16.5303 Z4.0000
 G03 X114.0000 Y16.7500 Z4.0000 I-0.5303 J-0.5303
 G01 X106.0000 Y16.7500 Z4.0000
 G03 X105.4696 Y16.5303 Z4.0000 I0.0000 J-0.7500
 G01 X101.4696 Y12.5303 Z4.0000
 G03 X101.2500 Y12.0000 Z4.0000 I0.5303 J-0.5303
 G01 X101.2500 Y2.0000 Z4.0000
 G03 X101.4696 Y1.4696 Z4.0000 I0.7500 J0.0000
 G01 X103.4696 Y-0.5303 Z4.0000
 G03 X104.0000 Y-0.7500 Z4.0000 I0.5303 J0.5303
 G01 X106.0000 Y-0.7500 Z4.0000
 G03 X107.7500 Y1.0000 Z4.0000 I0.0000 J1.7500
 G01 X107.7500 Y5.2500 Z4.0000
 G01 X112.2500 Y5.2500 Z4.0000
 G01 X112.2500 Y1.0000 Z4.0000
 G03 X114.0000 Y-0.7500 Z4.0000 I1.7500 J0.0000
 G01 X116.0000 Y-0.7500 Z4.0000
 G03 X116.5303 Y-0.5303 Z4.0000 I0.0000 J0.7500
 G01 X118.5303 Y1.4696 Z4.0000
 G03 X118.7500 Y2.0000 Z4.0000 I-0.5303 J0.5303
 G01 X118.7500 Y7.0000 Z4.0000
 G01 Z3.0000
 G01 X118.7500 Y8.7887 Z3.0000
 G01 X118.7500 Y8.9651 Z2.0000
 G01 X118.7500 Y12.0000 Z2.0000
 G03 X118.5303 Y12.5303 Z2.0000 I-0.7500 J0.0000
 G01 X114.5303 Y16.5303 Z2.0000
 G03 X114.0000 Y16.7500 Z2.0000 I-0.5303 J-0.5303
 G01 X111.9389 Y16.7500 Z2.0000
 G01 X111.7626 Y16.7500 Z3.0000
 G01 X108.2626 Y16.7500 Z3.0000
 G01 X108.0863 Y16.7500 Z2.0000
 G01 X106.0000 Y16.7500 Z2.0000
 G03 X105.4696 Y16.5303 Z2.0000 I0.0000 J-0.7500
 G01 X101.4696 Y12.5303 Z2.0000
 G03 X101.2500 Y12.0000 Z2.0000 I0.5303 J-0.5303
 G01 X101.2500 Y8.9943 Z2.0000
 G01 X101.2500 Y8.8180 Z3.0000
 G01 X101.2500 Y5.3180 Z3.0000
 G01 X101.2500 Y5.1417 Z2.0000
 G01 X101.2500 Y2.0000 Z2.0000
 G03 X101.4696 Y1.4696 Z2.0000 I0.7500 J0.0000
 G01 X103.4696 Y-0.5303 Z2.0000
 G03 X104.0000 Y-0.7500 Z2.0000 I0.5303 J0.5303
 G01 X106.0000 Y-0.7500 Z2.0000
 G03 X107.7500 Y1.0000 Z2.0000 I0.0000 J1.7500
 G01 X107.7500 Y5.2500 Z2.0000
 G01 X112.2500 Y5.2500 Z2.0000
 G01 X112.2500 Y1.0000 Z2.0000
 G03 X114.0000 Y-0.7500 Z2.0000 I1.7500 J0.0000
 G01 X116.0000 Y-0.7500 Z2.0000
 G03 X116.5303 Y-0.5303 Z2.0000 I0.0000 J0.7500
 G01 X118.5303 Y1.4696 Z2.0000
 G03 X118.7500 Y2.0000 Z2.0000 I-0.5303 J0.5303
 G01 X118.7500 Y5.1124 Z2.0000
 G01 X118.7500 Y5.2887 Z3.0000
 G01 X118.7500 Y7.0000 Z3.0000
 G01 X118.7500 Y8.7887 Z3.0000
 G01 X118.7500 Y9.3177 Z0.0000
 G01 X118.7500 Y12.0000 Z0.0000
 G03 X118.5303 Y12.5303 Z0.0000 I-0.7500 J0.0000
 G01 X114.5303 Y16.5303 Z0.0000
 G03 X114.0000 Y16.7500 Z0.0000 I-0.5303 J-0.5303
 G01 X112.2916 Y16.7500 Z0.0000
 G01 X111.7626 Y16.7500 Z3.0000
 G01 X108.2626 Y16.7500 Z3.0000
 G01 X107.7336 Y16.7500 Z0.0000
 G01 X106.0000 Y16.7500 Z0.0000
 G03 X105.4696 Y16.5303 Z0.0000 I0.0000 J-0.7500
 G01 X101.4696 Y12.5303 Z0.0000
 G03 X101.2500 Y12.0000 Z0.0000 I0.5303 J-0.5303
 G01 X101.2500 Y9.3470 Z0.0000
 G01 X101.2500 Y8.8180 Z3.0000
 G01 X101.2500 Y5.3180 Z3.0000
 G01 X101.2500 Y4.7890 Z0.0000
 G01 X101.2500 Y2.0000 Z0.0000
 G03 X101.4696 Y1.4696 Z0.0000 I0.7500 J0.0000
 G01 X103.4696 Y-0.5303 Z0.0000
 G03 X104.0000 Y-0.7500 Z0.0000 I0.5303 J0.5303
 G01 X106.0000 Y-0.7500 Z0.0000
 G03 X107.7500 Y1.0000 Z0.0000 I0.0000 J1.7500
 G01 X107.7500 Y5.2500 Z0.0000
 G01 X112.2500 Y5.2500 Z0.0000
 G01 X112.2500 Y1.0000 Z0.0000
 G03 X114.0000 Y-0.7500 Z0.0000 I1.7500 J0.0000
 G01 X116.0000 Y-0.7500 Z0.0000
 G03 X116.5303 Y-0.5303 Z0.0000 I0.0000 J0.7500
 G01 X118.5303 Y1.4696 Z0.0000
 G03 X118.7500 Y2.0000 Z0.0000 I-0.5303 J0.5303
 G01 X118.7500 Y4.7597 Z0.0000
 G01 X118.7500 Y5.2887 Z3.0000
 G01 X118.7500 Y7.0000 Z3.0000
 G00 Z10.0000
(END_OF_FORM)
(Esquisse 27)
 G00 X18.7500 Y27.0000
 G00 Z14.0000
 G01 Z4.0000
 G01 X18.7500 Y32.0000 Z4.0000
 G03 X18.5303 Y32.5303 Z4.0000 I-0.7500 J0.0000
 G01 X14.5303 Y36.5303 Z4.0000
 G03 X14.0000 Y36.7500 Z4.0000 I-0.5303 J-0.5303
 G01 X6.0000 Y36.7500 Z4.0000
 G03 X5.4696 Y36.5303 Z4.0000 I0.0000 J-0.7500
 G01 X1.4696 Y32.5303 Z4.0000
 G03 X1.2500 Y32.0000 Z4.0000 I0.5303 J-0.5303
 G01 X1.2500 Y22.0000 Z4.0000
 G03 X1.4696 Y21.4696 Z4.0000 I0.7500 J0.0000
 G01 X3.4696 Y19.4696 Z4.0000
 G03 X4.0000 Y19.2500 Z4.0000 I0.5303 J0.5303
 G01 X6.0000 Y19.2500 Z4.0000
 G03 X7.7500 Y21.0000 Z4.0000 I0.0000 J1.7500
 G01 X7.7500 Y25.2500 Z4.0000
 G01 X12.2500 Y25.2500 Z4.0000
 G01 X12.2500 Y21.0000 Z4.0000
 G03 X14.0000 Y19.2500 Z4.0000 I1.7500 J0.0000
 G01 X16.0000 Y19.2500 Z4.0000
 G03 X16.5303 Y19.4696 Z4.0000 I0.0000 J0.7500
 G01 X18.5303 Y21.4696 Z4.0000
 G03 X18.7500 Y22.0000 Z4.0000 I-0.5303 J0.5303
 G01 X18.7500 Y27.0000 Z4.0000
 G01 Z3.0000
 G01 X18.7500 Y28.7887 Z3.0000
 G01 X18.7500 Y28.9651 Z2.0000
 G01 X18.7500 Y32.0000 Z2.0000
 G03 X18.5303 Y32.5303 Z2.0000 I-0.7500 J0.0000
 G01 X14.5303 Y36.5303 Z2.0000
 G03 X14.0000 Y36.7500 Z2.0000 I-0.5303 J-0.5303
 G01 X11.9389 Y36.7500 Z2.0000
 G01 X11.7626 Y36.7500 Z3.0000
 G01 X8.2626 Y36.7500 Z3.0000
 G01 X8.0863 Y36.7500 Z2.0000
 G01 X6.0000 Y36.7500 Z2.0000
 G03 X5.4696 Y36.5303 Z2.0000 I0.0000 J-0.7500
 G01 X1.4696 Y32.5303 Z2.0000
 G03 X1.2500 Y32.0000 Z2.0000 I0.5303 J-0.5303
 G01 X1.2500 Y28.9943 Z2.0000
 G01 X1.2500 Y28.8180 Z3.0000
 G01 X1.2500 Y25.3180 Z3.0000
 G01 X1.2500 Y25.1417 Z2.0000
 G01 X1.2500 Y22.0000 Z2.0000
 G03 X1.4696 Y21.4696 Z2.0000 I0.7500 J0.0000
 G01 X3.4696 Y19.4696 Z2.0000
 G03 X4.0000 Y19.2500 Z2.0000 I0.5303 J0.5303
 G01 X6.0000 Y19.2500 Z2.0000
 G03 X7.7500 Y21.0000 Z2.0000 I0.0000 J1.7500
 G01 X7.7500 Y25.2500 Z2.0000
 G01 X12.2500 Y25.2500 Z2.0000
 G01 X12.2500 Y21.0000 Z2.0000
 G03 X14.0000 Y19.2500 Z2.0000 I1.7500 J0.0000
 G01 X16.0000 Y19.2500 Z2.0000
 G03 X16.5303 Y19.4696 Z2.0000 I0.0000 J0.7500
 G01 X18.5303 Y21.4696 Z2.0000
 G03 X18.7500 Y22.0000 Z2.0000 I-0.5303 J0.5303
 G01 X18.7500 Y25.1124 Z2.0000
 G01 X18.7500 Y25.2887 Z3.0000
 G01 X18.7500 Y27.0000 Z3.0000
 G01 X18.7500 Y28.7887 Z3.0000
 G01 X18.7500 Y29.3177 Z0.0000
 G01 X18.7500 Y32.0000 Z0.0000
 G03 X18.5303 Y32.5303 Z0.0000 I-0.7500 J0.0000
 G01 X14.5303 Y36.5303 Z0.0000
 G03 X14.0000 Y36.7500 Z0.0000 I-0.5303 J-0.5303
 G01 X12.2916 Y36.7500 Z0.0000
 G01 X11.7626 Y36.7500 Z3.0000
 G01 X8.2626 Y36.7500 Z3.0000
 G01 X7.7336 Y36.7500 Z0.0000
 G01 X6.0000 Y36.7500 Z0.0000
 G03 X5.4696 Y36.5303 Z0.0000 I0.0000 J-0.7500
 G01 X1.4696 Y32.5303 Z0.0000
 G03 X1.2500 Y32.0000 Z0.0000 I0.5303 J-0.5303
 G01 X1.2500 Y29.3470 Z0.0000
 G01 X1.2500 Y28.8180 Z3.0000
 G01 X1.2500 Y25.3180 Z3.0000
 G01 X1.2500 Y24.7890 Z0.0000
 G01 X1.2500 Y22.0000 Z0.0000
 G03 X1.4696 Y21.4696 Z0.0000 I0.7500 J0.0000
 G01 X3.4696 Y19.4696 Z0.0000
 G03 X4.0000 Y19.2500 Z0.0000 I0.5303 J0.5303
 G01 X6.0000 Y19.2500 Z0.0000
 G03 X7.7500 Y21.0000 Z0.0000 I0.0000 J1.7500
 G01 X7.7500 Y25.2500 Z0.0000
 G01 X12.2500 Y25.2500 Z0.0000
 G01 X12.2500 Y21.0000 Z0.0000
 G03 X14.0000 Y19.2500 Z0.0000 I1.7500 J0.0000
 G01 X16.0000 Y19.2500 Z0.0000
 G03 X16.5303 Y19.4696 Z0.0000 I0.0000 J0.7500
 G01 X18.5303 Y21.4696 Z0.0000
 G03 X18.7500 Y22.0000 Z0.0000 I-0.5303 J0.5303
 G01 X18.7500 Y24.7597 Z0.0000
 G01 X18.7500 Y25.2887 Z3.0000
 G01 X18.7500 Y27.0000 Z3.0000
 G00 Z10.0000
(END_OF_FORM)
(Esquisse 27)
 G00 X38.7500 Y27.0000
 G00 Z14.0000
 G01 Z4.0000
 G01 X38.7500 Y32.0000 Z4.0000
 G03 X38.5303 Y32.5303 Z4.0000 I-0.7500 J0.0000
 G01 X34.5303 Y36.5303 Z4.0000
 G03 X34.0000 Y36.7500 Z4.0000 I-0.5303 J-0.5303
 G01 X26.0000 Y36.7500 Z4.0000
 G03 X25.4696 Y36.5303 Z4.0000 I0.0000 J-0.7500
 G01 X21.4696 Y32.5303 Z4.0000
 G03 X21.2500 Y32.0000 Z4.0000 I0.5303 J-0.5303
 G01 X21.2500 Y22.0000 Z4.0000
 G03 X21.4696 Y21.4696 Z4.0000 I0.7500 J0.0000
 G01 X23.4696 Y19.4696 Z4.0000
 G03 X24.0000 Y19.2500 Z4.0000 I0.5303 J0.5303
 G01 X26.0000 Y19.2500 Z4.0000
 G03 X27.7500 Y21.0000 Z4.0000 I0.0000 J1.7500
 G01 X27.7500 Y25.2500 Z4.0000
 G01 X32.2500 Y25.2500 Z4.0000
 G01 X32.2500 Y21.0000 Z4.0000
 G03 X34.0000 Y19.2500 Z4.0000 I1.7500 J0.0000
 G01 X36.0000 Y19.2500 Z4.0000
 G03 X36.5303 Y19.4696 Z4.0000 I0.0000 J0.7500
 G01 X38.5303 Y21.4696 Z4.0000
 G03 X38.7500 Y22.0000 Z4.0000 I-0.5303 J0.5303
 G01 X38.7500 Y27.0000 Z4.0000
 G01 Z3.0000
 G01 X38.7500 Y28.7887 Z3.0000
 G01 X38.7500 Y28.9651 Z2.0000
 G01 X38.7500 Y32.0000 Z2.0000
 G03 X38.5303 Y32.5303 Z2.0000 I-0.7500 J0.0000
 G01 X34.5303 Y36.5303 Z2.0000
 G03 X34.0000 Y36.7500 Z2.0000 I-0.5303 J-0.5303
 G01 X31.9389 Y36.7500 Z2.0000
 G01 X31.7626 Y36.7500 Z3.0000
 G01 X28.2626 Y36.7500 Z3.0000
 G01 X28.0863 Y36.7500 Z2.0000
 G01 X26.0000 Y36.7500 Z2.0000
 G03 X25.4696 Y36.5303 Z2.0000 I0.0000 J-0.7500
 G01 X21.4696 Y32.5303 Z2.0000
 G03 X21.2500 Y32.0000 Z2.0000 I0.5303 J-0.5303
 G01 X21.2500 Y28.9943 Z2.0000
 G01 X21.2500 Y28.8180 Z3.0000
 G01 X21.2500 Y25.3180 Z3.0000
 G01 X21.2500 Y25.1417 Z2.0000
 G01 X21.2500 Y22.0000 Z2.0000
 G03 X21.4696 Y21.4696 Z2.0000 I0.7500 J0.0000
 G01 X23.4696 Y19.4696 Z2.0000
 G03 X24.0000 Y19.2500 Z2.0000 I0.5303 J0.5303
 G01 X26.0000 Y19.2500 Z2.0000
 G03 X27.7500 Y21.0000 Z2.0000 I0.0000 J1.7500
 G01 X27.7500 Y25.2500 Z2.0000
 G01 X32.2500 Y25.2500 Z2.0000
 G01 X32.2500 Y21.0000 Z2.0000
 G03 X34.0000 Y19.2500 Z2.0000 I1.7500 J0.0000
 G01 X36.0000 Y19.2500 Z2.0000
 G03 X36.5303 Y19.4696 Z2.0000 I0.0000 J0.7500
 G01 X38.5303 Y21.4696 Z2.0000
 G03 X38.7500 Y22.0000 Z2.0000 I-0.5303 J0.5303
 G01 X38.7500 Y25.1124 Z2.0000
 G01 X38.7500 Y25.2887 Z3.0000
 G01 X38.7500 Y27.0000 Z3.0000
 G01 X38.7500 Y28.7887 Z3.0000
 G01 X38.7500 Y29.3177 Z0.0000
 G01 X38.7500 Y32.0000 Z0.0000
 G03 X38.5303 Y32.5303 Z0.0000 I-0.7500 J0.0000
 G01 X34.5303 Y36.5303 Z0.0000
 G03 X34.0000 Y36.7500 Z0.0000 I-0.5303 J-0.5303
 G01 X32.2916 Y36.7500 Z0.0000
 G01 X31.7626 Y36.7500 Z3.0000
 G01 X28.2626 Y36.7500 Z3.0000
 G01 X27.7336 Y36.7500 Z0.0000
 G01 X26.0000 Y36.7500 Z0.0000
 G03 X25.4696 Y36.5303 Z0.0000 I0.0000 J-0.7500
 G01 X21.4696 Y32.5303 Z0.0000
 G03 X21.2500 Y32.0000 Z0.0000 I0.5303 J-0.5303
 G01 X21.2500 Y29.3470 Z0.0000
 G01 X21.2500 Y28.8180 Z3.0000
 G01 X21.2500 Y25.3180 Z3.0000
 G01 X21.2500 Y24.7890 Z0.0000
 G01 X21.2500 Y22.0000 Z0.0000
 G03 X21.4696 Y21.4696 Z0.0000 I0.7500 J0.0000
 G01 X23.4696 Y19.4696 Z0.0000
 G03 X24.0000 Y19.2500 Z0.0000 I0.5303 J0.5303
 G01 X26.0000 Y19.2500 Z0.0000
 G03 X27.7500 Y21.0000 Z0.0000 I0.0000 J1.7500
 G01 X27.7500 Y25.2500 Z0.0000
 G01 X32.2500 Y25.2500 Z0.0000
 G01 X32.2500 Y21.0000 Z0.0000
 G03 X34.0000 Y19.2500 Z0.0000 I1.7500 J0.0000
 G01 X36.0000 Y19.2500 Z0.0000
 G03 X36.5303 Y19.4696 Z0.0000 I0.0000 J0.7500
 G01 X38.5303 Y21.4696 Z0.0000
 G03 X38.7500 Y22.0000 Z0.0000 I-0.5303 J0.5303
 G01 X38.7500 Y24.7597 Z0.0000
 G01 X38.7500 Y25.2887 Z3.0000
 G01 X38.7500 Y27.0000 Z3.0000
 G00 Z10.0000
(END_OF_FORM)
(Esquisse 27)
 G00 X58.7500 Y27.0000
 G00 Z14.0000
 G01 Z4.0000
 G01 X58.7500 Y32.0000 Z4.0000
 G03 X58.5303 Y32.5303 Z4.0000 I-0.7500 J0.0000
 G01 X54.5303 Y36.5303 Z4.0000
 G03 X54.0000 Y36.7500 Z4.0000 I-0.5303 J-0.5303
 G01 X46.0000 Y36.7500 Z4.0000
 G03 X45.4696 Y36.5303 Z4.0000 I0.0000 J-0.7500
 G01 X41.4696 Y32.5303 Z4.0000
 G03 X41.2500 Y32.0000 Z4.0000 I0.5303 J-0.5303
 G01 X41.2500 Y22.0000 Z4.0000
 G03 X41.4696 Y21.4696 Z4.0000 I0.7500 J0.0000
 G01 X43.4696 Y19.4696 Z4.0000
 G03 X44.0000 Y19.2500 Z4.0000 I0.5303 J0.5303
 G01 X46.0000 Y19.2500 Z4.0000
 G03 X47.7500 Y21.0000 Z4.0000 I0.0000 J1.7500
 G01 X47.7500 Y25.2500 Z4.0000
 G01 X52.2500 Y25.2500 Z4.0000
 G01 X52.2500 Y21.0000 Z4.0000
 G03 X54.0000 Y19.2500 Z4.0000 I1.7500 J0.0000
 G01 X56.0000 Y19.2500 Z4.0000
 G03 X56.5303 Y19.4696 Z4.0000 I0.0000 J0.7500
 G01 X58.5303 Y21.4696 Z4.0000
 G03 X58.7500 Y22.0000 Z4.0000 I-0.5303 J0.5303
 G01 X58.7500 Y27.0000 Z4.0000
 G01 Z3.0000
 G01 X58.7500 Y28.7887 Z3.0000
 G01 X58.7500 Y28.9651 Z2.0000
 G01 X58.7500 Y32.0000 Z2.0000
 G03 X58.5303 Y32.5303 Z2.0000 I-0.7500 J0.0000
 G01 X54.5303 Y36.5303 Z2.0000
 G03 X54.0000 Y36.7500 Z2.0000 I-0.5303 J-0.5303
 G01 X51.9389 Y36.7500 Z2.0000
 G01 X51.7626 Y36.7500 Z3.0000
 G01 X48.2626 Y36.7500 Z3.0000
 G01 X48.0863 Y36.7500 Z2.0000
 G01 X46.0000 Y36.7500 Z2.0000
 G03 X45.4696 Y36.5303 Z2.0000 I0.0000 J-0.7500
 G01 X41.4696 Y32.5303 Z2.0000
 G03 X41.2500 Y32.0000 Z2.0000 I0.5303 J-0.5303
 G01 X41.2500 Y28.9943 Z2.0000
 G01 X41.2500 Y28.8180 Z3.0000
 G01 X41.2500 Y25.3180 Z3.0000
 G01 X41.2500 Y25.1417 Z2.0000
 G01 X41.2500 Y22.0000 Z2.0000
 G03 X41.4696 Y21.4696 Z2.0000 I0.7500 J0.0000
 G01 X43.4696 Y19.4696 Z2.0000
 G03 X44.0000 Y19.2500 Z2.0000 I0.5303 J0.5303
 G01 X46.0000 Y19.2500 Z2.0000
 G03 X47.7500 Y21.0000 Z2.0000 I0.0000 J1.7500
 G01 X47.7500 Y25.2500 Z2.0000
 G01 X52.2500 Y25.2500 Z2.0000
 G01 X52.2500 Y21.0000 Z2.0000
 G03 X54.0000 Y19.2500 Z2.0000 I1.7500 J0.0000
 G01 X56.0000 Y19.2500 Z2.0000
 G03 X56.5303 Y19.4696 Z2.0000 I0.0000 J0.7500
 G01 X58.5303 Y21.4696 Z2.0000
 G03 X58.7500 Y22.0000 Z2.0000 I-0.5303 J0.5303
 G01 X58.7500 Y25.1124 Z2.0000
 G01 X58.7500 Y25.2887 Z3.0000
 G01 X58.7500 Y27.0000 Z3.0000
 G01 X58.7500 Y28.7887 Z3.0000
 G01 X58.7500 Y29.3177 Z0.0000
 G01 X58.7500 Y32.0000 Z0.0000
 G03 X58.5303 Y32.5303 Z0.0000 I-0.7500 J0.0000
 G01 X54.5303 Y36.5303 Z0.0000
 G03 X54.0000 Y36.7500 Z0.0000 I-0.5303 J-0.5303
 G01 X52.2916 Y36.7500 Z0.0000
 G01 X51.7626 Y36.7500 Z3.0000
 G01 X48.2626 Y36.7500 Z3.0000
 G01 X47.7336 Y36.7500 Z0.0000
 G01 X46.0000 Y36.7500 Z0.0000
 G03 X45.4696 Y36.5303 Z0.0000 I0.0000 J-0.7500
 G01 X41.4696 Y32.5303 Z0.0000
 G03 X41.2500 Y32.0000 Z0.0000 I0.5303 J-0.5303
 G01 X41.2500 Y29.3470 Z0.0000
 G01 X41.2500 Y28.8180 Z3.0000
 G01 X41.2500 Y25.3180 Z3.0000
 G01 X41.2500 Y24.7890 Z0.0000
 G01 X41.2500 Y22.0000 Z0.0000
 G03 X41.4696 Y21.4696 Z0.0000 I0.7500 J0.0000
 G01 X43.4696 Y19.4696 Z0.0000
 G03 X44.0000 Y19.2500 Z0.0000 I0.5303 J0.5303
 G01 X46.0000 Y19.2500 Z0.0000
 G03 X47.7500 Y21.0000 Z0.0000 I0.0000 J1.7500
 G01 X47.7500 Y25.2500 Z0.0000
 G01 X52.2500 Y25.2500 Z0.0000
 G01 X52.2500 Y21.0000 Z0.0000
 G03 X54.0000 Y19.2500 Z0.0000 I1.7500 J0.0000
 G01 X56.0000 Y19.2500 Z0.0000
 G03 X56.5303 Y19.4696 Z0.0000 I0.0000 J0.7500
 G01 X58.5303 Y21.4696 Z0.0000
 G03 X58.7500 Y22.0000 Z0.0000 I-0.5303 J0.5303
 G01 X58.7500 Y24.7597 Z0.0000
 G01 X58.7500 Y25.2887 Z3.0000
 G01 X58.7500 Y27.0000 Z3.0000
 G00 Z10.0000
(END_OF_FORM)
(Esquisse 27)
 G00 X78.7500 Y27.0000
 G00 Z14.0000
 G01 Z4.0000
 G01 X78.7500 Y32.0000 Z4.0000
 G03 X78.5303 Y32.5303 Z4.0000 I-0.7500 J0.0000
 G01 X74.5303 Y36.5303 Z4.0000
 G03 X74.0000 Y36.7500 Z4.0000 I-0.5303 J-0.5303
 G01 X66.0000 Y36.7500 Z4.0000
 G03 X65.4696 Y36.5303 Z4.0000 I0.0000 J-0.7500
 G01 X61.4696 Y32.5303 Z4.0000
 G03 X61.2500 Y32.0000 Z4.0000 I0.5303 J-0.5303
 G01 X61.2500 Y22.0000 Z4.0000
 G03 X61.4696 Y21.4696 Z4.0000 I0.7500 J0.0000
 G01 X63.4696 Y19.4696 Z4.0000
 G03 X64.0000 Y19.2500 Z4.0000 I0.5303 J0.5303
 G01 X66.0000 Y19.2500 Z4.0000
 G03 X67.7500 Y21.0000 Z4.0000 I0.0000 J1.7500
 G01 X67.7500 Y25.2500 Z4.0000
 G01 X72.2500 Y25.2500 Z4.0000
 G01 X72.2500 Y21.0000 Z4.0000
 G03 X74.0000 Y19.2500 Z4.0000 I1.7500 J0.0000
 G01 X76.0000 Y19.2500 Z4.0000
 G03 X76.5303 Y19.4696 Z4.0000 I0.0000 J0.7500
 G01 X78.5303 Y21.4696 Z4.0000
 G03 X78.7500 Y22.0000 Z4.0000 I-0.5303 J0.5303
 G01 X78.7500 Y27.0000 Z4.0000
 G01 Z3.0000
 G01 X78.7500 Y28.7887 Z3.0000
 G01 X78.7500 Y28.9651 Z2.0000
 G01 X78.7500 Y32.0000 Z2.0000
 G03 X78.5303 Y32.5303 Z2.0000 I-0.7500 J0.0000
 G01 X74.5303 Y36.5303 Z2.0000
 G03 X74.0000 Y36.7500 Z2.0000 I-0.5303 J-0.5303
 G01 X71.9389 Y36.7500 Z2.0000
 G01 X71.7626 Y36.7500 Z3.0000
 G01 X68.2626 Y36.7500 Z3.0000
 G01 X68.0863 Y36.7500 Z2.0000
 G01 X66.0000 Y36.7500 Z2.0000
 G03 X65.4696 Y36.5303 Z2.0000 I0.0000 J-0.7500
 G01 X61.4696 Y32.5303 Z2.0000
 G03 X61.2500 Y32.0000 Z2.0000 I0.5303 J-0.5303
 G01 X61.2500 Y28.9943 Z2.0000
 G01 X61.2500 Y28.8180 Z3.0000
 G01 X61.2500 Y25.3180 Z3.0000
 G01 X61.2500 Y25.1417 Z2.0000
 G01 X61.2500 Y22.0000 Z2.0000
 G03 X61.4696 Y21.4696 Z2.0000 I0.7500 J0.0000
 G01 X63.4696 Y19.4696 Z2.0000
 G03 X64.0000 Y19.2500 Z2.0000 I0.5303 J0.5303
 G01 X66.0000 Y19.2500 Z2.0000
 G03 X67.7500 Y21.0000 Z2.0000 I0.0000 J1.7500
 G01 X67.7500 Y25.2500 Z2.0000
 G01 X72.2500 Y25.2500 Z2.0000
 G01 X72.2500 Y21.0000 Z2.0000
 G03 X74.0000 Y19.2500 Z2.0000 I1.7500 J0.0000
 G01 X76.0000 Y19.2500 Z2.0000
 G03 X76.5303 Y19.4696 Z2.0000 I0.0000 J0.7500
 G01 X78.5303 Y21.4696 Z2.0000
 G03 X78.7500 Y22.0000 Z2.0000 I-0.5303 J0.5303
 G01 X78.7500 Y25.1124 Z2.0000
 G01 X78.7500 Y25.2887 Z3.0000
 G01 X78.7500 Y27.0000 Z3.0000
 G01 X78.7500 Y28.7887 Z3.0000
 G01 X78.7500 Y29.3177 Z0.0000
 G01 X78.7500 Y32.0000 Z0.0000
 G03 X78.5303 Y32.5303 Z0.0000 I-0.7500 J0.0000
 G01 X74.5303 Y36.5303 Z0.0000
 G03 X74.0000 Y36.7500 Z0.0000 I-0.5303 J-0.5303
 G01 X72.2916 Y36.7500 Z0.0000
 G01 X71.7626 Y36.7500 Z3.0000
 G01 X68.2626 Y36.7500 Z3.0000
 G01 X67.7336 Y36.7500 Z0.0000
 G01 X66.0000 Y36.7500 Z0.0000
 G03 X65.4696 Y36.5303 Z0.0000 I0.0000 J-0.7500
 G01 X61.4696 Y32.5303 Z0.0000
 G03 X61.2500 Y32.0000 Z0.0000 I0.5303 J-0.5303
 G01 X61.2500 Y29.3470 Z0.0000
 G01 X61.2500 Y28.8180 Z3.0000
 G01 X61.2500 Y25.3180 Z3.0000
 G01 X61.2500 Y24.7890 Z0.0000
 G01 X61.2500 Y22.0000 Z0.0000
 G03 X61.4696 Y21.4696 Z0.0000 I0.7500 J0.0000
 G01 X63.4696 Y19.4696 Z0.0000
 G03 X64.0000 Y19.2500 Z0.0000 I0.5303 J0.5303
 G01 X66.0000 Y19.2500 Z0.0000
 G03 X67.7500 Y21.0000 Z0.0000 I0.0000 J1.7500
 G01 X67.7500 Y25.2500 Z0.0000
 G01 X72.2500 Y25.2500 Z0.0000
 G01 X72.2500 Y21.0000 Z0.0000
 G03 X74.0000 Y19.2500 Z0.0000 I1.7500 J0.0000
 G01 X76.0000 Y19.2500 Z0.0000
 G03 X76.5303 Y19.4696 Z0.0000 I0.0000 J0.7500
 G01 X78.5303 Y21.4696 Z0.0000
 G03 X78.7500 Y22.0000 Z0.0000 I-0.5303 J0.5303
 G01 X78.7500 Y24.7597 Z0.0000
 G01 X78.7500 Y25.2887 Z3.0000
 G01 X78.7500 Y27.0000 Z3.0000
 G00 Z10.0000
(END_OF_FORM)
(Esquisse 27)
 G00 X98.7500 Y27.0000
 G00 Z14.0000
 G01 Z4.0000
 G01 X98.7500 Y32.0000 Z4.0000
 G03 X98.5303 Y32.5303 Z4.0000 I-0.7500 J0.0000
 G01 X94.5303 Y36.5303 Z4.0000
 G03 X94.0000 Y36.7500 Z4.0000 I-0.5303 J-0.5303
 G01 X86.0000 Y36.7500 Z4.0000
 G03 X85.4696 Y36.5303 Z4.0000 I0.0000 J-0.7500
 G01 X81.4696 Y32.5303 Z4.0000
 G03 X81.2500 Y32.0000 Z4.0000 I0.5303 J-0.5303
 G01 X81.2500 Y22.0000 Z4.0000
 G03 X81.4696 Y21.4696 Z4.0000 I0.7500 J0.0000
 G01 X83.4696 Y19.4696 Z4.0000
 G03 X84.0000 Y19.2500 Z4.0000 I0.5303 J0.5303
 G01 X86.0000 Y19.2500 Z4.0000
 G03 X87.7500 Y21.0000 Z4.0000 I0.0000 J1.7500
 G01 X87.7500 Y25.2500 Z4.0000
 G01 X92.2500 Y25.2500 Z4.0000
 G01 X92.2500 Y21.0000 Z4.0000
 G03 X94.0000 Y19.2500 Z4.0000 I1.7500 J0.0000
 G01 X96.0000 Y19.2500 Z4.0000
 G03 X96.5303 Y19.4696 Z4.0000 I0.0000 J0.7500
 G01 X98.5303 Y21.4696 Z4.0000
 G03 X98.7500 Y22.0000 Z4.0000 I-0.5303 J0.5303
 G01 X98.7500 Y27.0000 Z4.0000
 G01 Z3.0000
 G01 X98.7500 Y28.7887 Z3.0000
 G01 X98.7500 Y28.9651 Z2.0000
 G01 X98.7500 Y32.0000 Z2.0000
 G03 X98.5303 Y32.5303 Z2.0000 I-0.7500 J0.0000
 G01 X94.5303 Y36.5303 Z2.0000
 G03 X94.0000 Y36.7500 Z2.0000 I-0.5303 J-0.5303
 G01 X91.9389 Y36.7500 Z2.0000
 G01 X91.7626 Y36.7500 Z3.0000
 G01 X88.2626 Y36.7500 Z3.0000
 G01 X88.0863 Y36.7500 Z2.0000
 G01 X86.0000 Y36.7500 Z2.0000
 G03 X85.4696 Y36.5303 Z2.0000 I0.0000 J-0.7500
 G01 X81.4696 Y32.5303 Z2.0000
 G03 X81.2500 Y32.0000 Z2.0000 I0.5303 J-0.5303
 G01 X81.2500 Y28.9943 Z2.0000
 G01 X81.2500 Y28.8180 Z3.0000
 G01 X81.2500 Y25.3180 Z3.0000
 G01 X81.2500 Y25.1417 Z2.0000
 G01 X81.2500 Y22.0000 Z2.0000
 G03 X81.4696 Y21.4696 Z2.0000 I0.7500 J0.0000
 G01 X83.4696 Y19.4696 Z2.0000
 G03 X84.0000 Y19.2500 Z2.0000 I0.5303 J0.5303
 G01 X86.0000 Y19.2500 Z2.0000
 G03 X87.7500 Y21.0000 Z2.0000 I0.0000 J1.7500
 G01 X87.7500 Y25.2500 Z2.0000
 G01 X92.2500 Y25.2500 Z2.0000
 G01 X92.2500 Y21.0000 Z2.0000
 G03 X94.0000 Y19.2500 Z2.0000 I1.7500 J0.0000
 G01 X96.0000 Y19.2500 Z2.0000
 G03 X96.5303 Y19.4696 Z2.0000 I0.0000 J0.7500
 G01 X98.5303 Y21.4696 Z2.0000
 G03 X98.7500 Y22.0000 Z2.0000 I-0.5303 J0.5303
 G01 X98.7500 Y25.1124 Z2.0000
 G01 X98.7500 Y25.2887 Z3.0000
 G01 X98.7500 Y27.0000 Z3.0000
 G01 X98.7500 Y28.7887 Z3.0000
 G01 X98.7500 Y29.3177 Z0.0000
 G01 X98.7500 Y32.0000 Z0.0000
 G03 X98.5303 Y32.5303 Z0.0000 I-0.7500 J0.0000
 G01 X94.5303 Y36.5303 Z0.0000
 G03 X94.0000 Y36.7500 Z0.0000 I-0.5303 J-0.5303
 G01 X92.2916 Y36.7500 Z0.0000
 G01 X91.7626 Y36.7500 Z3.0000
 G01 X88.2626 Y36.7500 Z3.0000
 G01 X87.7336 Y36.7500 Z0.0000
 G01 X86.0000 Y36.7500 Z0.0000
 G03 X85.4696 Y36.5303 Z0.0000 I0.0000 J-0.7500
 G01 X81.4696 Y32.5303 Z0.0000
 G03 X81.2500 Y32.0000 Z0.0000 I0.5303 J-0.5303
 G01 X81.2500 Y29.3470 Z0.0000
 G01 X81.2500 Y28.8180 Z3.0000
 G01 X81.2500 Y25.3180 Z3.0000
 G01 X81.2500 Y24.7890 Z0.0000
 G01 X81.2500 Y22.0000 Z0.0000
 G03 X81.4696 Y21.4696 Z0.0000 I0.7500 J0.0000
 G01 X83.4696 Y19.4696 Z0.0000
 G03 X84.0000 Y19.2500 Z0.0000 I0.5303 J0.5303
 G01 X86.0000 Y19.2500 Z0.0000
 G03 X87.7500 Y21.0000 Z0.0000 I0.0000 J1.7500
 G01 X87.7500 Y25.2500 Z0.0000
 G01 X92.2500 Y25.2500 Z0.0000
 G01 X92.2500 Y21.0000 Z0.0000
 G03 X94.0000 Y19.2500 Z0.0000 I1.7500 J0.0000
 G01 X96.0000 Y19.2500 Z0.0000
 G03 X96.5303 Y19.4696 Z0.0000 I0.0000 J0.7500
 G01 X98.5303 Y21.4696 Z0.0000
 G03 X98.7500 Y22.0000 Z0.0000 I-0.5303 J0.5303
 G01 X98.7500 Y24.7597 Z0.0000
 G01 X98.7500 Y25.2887 Z3.0000
 G01 X98.7500 Y27.0000 Z3.0000
 G00 Z10.0000
(END_OF_FORM)
(Esquisse 27)
 G00 X118.7500 Y27.0000
 G00 Z14.0000
 G01 Z4.0000
 G01 X118.7500 Y32.0000 Z4.0000
 G03 X118.5303 Y32.5303 Z4.0000 I-0.7500 J0.0000
 G01 X114.5303 Y36.5303 Z4.0000
 G03 X114.0000 Y36.7500 Z4.0000 I-0.5303 J-0.5303
 G01 X106.0000 Y36.7500 Z4.0000
 G03 X105.4696 Y36.5303 Z4.0000 I0.0000 J-0.7500
 G01 X101.4696 Y32.5303 Z4.0000
 G03 X101.2500 Y32.0000 Z4.0000 I0.5303 J-0.5303
 G01 X101.2500 Y22.0000 Z4.0000
 G03 X101.4696 Y21.4696 Z4.0000 I0.7500 J0.0000
 G01 X103.4696 Y19.4696 Z4.0000
 G03 X104.0000 Y19.2500 Z4.0000 I0.5303 J0.5303
 G01 X106.0000 Y19.2500 Z4.0000
 G03 X107.7500 Y21.0000 Z4.0000 I0.0000 J1.7500
 G01 X107.7500 Y25.2500 Z4.0000
 G01 X112.2500 Y25.2500 Z4.0000
 G01 X112.2500 Y21.0000 Z4.0000
 G03 X114.0000 Y19.2500 Z4.0000 I1.7500 J0.0000
 G01 X116.0000 Y19.2500 Z4.0000
 G03 X116.5303 Y19.4696 Z4.0000 I0.0000 J0.7500
 G01 X118.5303 Y21.4696 Z4.0000
 G03 X118.7500 Y22.0000 Z4.0000 I-0.5303 J0.5303
 G01 X118.7500 Y27.0000 Z4.0000
 G01 Z3.0000
 G01 X118.7500 Y28.7887 Z3.0000
 G01 X118.7500 Y28.9651 Z2.0000
 G01 X118.7500 Y32.0000 Z2.0000
 G03 X118.5303 Y32.5303 Z2.0000 I-0.7500 J0.0000
 G01 X114.5303 Y36.5303 Z2.0000
 G03 X114.0000 Y36.7500 Z2.0000 I-0.5303 J-0.5303
 G01 X111.9389 Y36.7500 Z2.0000
 G01 X111.7626 Y36.7500 Z3.0000
 G01 X108.2626 Y36.7500 Z3.0000
 G01 X108.0863 Y36.7500 Z2.0000
 G01 X106.0000 Y36.7500 Z2.0000
 G03 X105.4696 Y36.5303 Z2.0000 I0.0000 J-0.7500
 G01 X101.4696 Y32.5303 Z2.0000
 G03 X101.2500 Y32.0000 Z2.0000 I0.5303 J-0.5303
 G01 X101.2500 Y28.9943 Z2.0000
 G01 X101.2500 Y28.8180 Z3.0000
 G01 X101.2500 Y25.3180 Z3.0000
 G01 X101.2500 Y25.1417 Z2.0000
 G01 X101.2500 Y22.0000 Z2.0000
 G03 X101.4696 Y21.4696 Z2.0000 I0.7500 J0.0000
 G01 X103.4696 Y19.4696 Z2.0000
 G03 X104.0000 Y19.2500 Z2.0000 I0.5303 J0.5303
 G01 X106.0000 Y19.2500 Z2.0000
 G03 X107.7500 Y21.0000 Z2.0000 I0.0000 J1.7500
 G01 X107.7500 Y25.2500 Z2.0000
 G01 X112.2500 Y25.2500 Z2.0000
 G01 X112.2500 Y21.0000 Z2.0000
 G03 X114.0000 Y19.2500 Z2.0000 I1.7500 J0.0000
 G01 X116.0000 Y19.2500 Z2.0000
 G03 X116.5303 Y19.4696 Z2.0000 I0.0000 J0.7500
 G01 X118.5303 Y21.4696 Z2.0000
 G03 X118.7500 Y22.0000 Z2.0000 I-0.5303 J0.5303
 G01 X118.7500 Y25.1124 Z2.0000
 G01 X118.7500 Y25.2887 Z3.0000
 G01 X118.7500 Y27.0000 Z3.0000
 G01 X118.7500 Y28.7887 Z3.0000
 G01 X118.7500 Y29.3177 Z0.0000
 G01 X118.7500 Y32.0000 Z0.0000
 G03 X118.5303 Y32.5303 Z0.0000 I-0.7500 J0.0000
 G01 X114.5303 Y36.5303 Z0.0000
 G03 X114.0000 Y36.7500 Z0.0000 I-0.5303 J-0.5303
 G01 X112.2916 Y36.7500 Z0.0000
 G01 X111.7626 Y36.7500 Z3.0000
 G01 X108.2626 Y36.7500 Z3.0000
 G01 X107.7336 Y36.7500 Z0.0000
 G01 X106.0000 Y36.7500 Z0.0000
 G03 X105.4696 Y36.5303 Z0.0000 I0.0000 J-0.7500
 G01 X101.4696 Y32.5303 Z0.0000
 G03 X101.2500 Y32.0000 Z0.0000 I0.5303 J-0.5303
 G01 X101.2500 Y29.3470 Z0.0000
 G01 X101.2500 Y28.8180 Z3.0000
 G01 X101.2500 Y25.3180 Z3.0000
 G01 X101.2500 Y24.7890 Z0.0000
 G01 X101.2500 Y22.0000 Z0.0000
 G03 X101.4696 Y21.4696 Z0.0000 I0.7500 J0.0000
 G01 X103.4696 Y19.4696 Z0.0000
 G03 X104.0000 Y19.2500 Z0.0000 I0.5303 J0.5303
 G01 X106.0000 Y19.2500 Z0.0000
 G03 X107.7500 Y21.0000 Z0.0000 I0.0000 J1.7500
 G01 X107.7500 Y25.2500 Z0.0000
 G01 X112.2500 Y25.2500 Z0.0000
 G01 X112.2500 Y21.0000 Z0.0000
 G03 X114.0000 Y19.2500 Z0.0000 I1.7500 J0.0000
 G01 X116.0000 Y19.2500 Z0.0000
 G03 X116.5303 Y19.4696 Z0.0000 I0.0000 J0.7500
 G01 X118.5303 Y21.4696 Z0.0000
 G03 X118.7500 Y22.0000 Z0.0000 I-0.5303 J0.5303
 G01 X118.7500 Y24.7597 Z0.0000
 G01 X118.7500 Y25.2887 Z3.0000
 G01 X118.7500 Y27.0000 Z3.0000
 G00 Z10.0000
(END_OF_FORM)
(Esquisse 27)
 G00 X18.7500 Y47.0000
 G00 Z14.0000
 G01 Z4.0000
 G01 X18.7500 Y52.0000 Z4.0000
 G03 X18.5303 Y52.5303 Z4.0000 I-0.7500 J0.0000
 G01 X14.5303 Y56.5303 Z4.0000
 G03 X14.0000 Y56.7500 Z4.0000 I-0.5303 J-0.5303
 G01 X6.0000 Y56.7500 Z4.0000
 G03 X5.4696 Y56.5303 Z4.0000 I0.0000 J-0.7500
 G01 X1.4696 Y52.5303 Z4.0000
 G03 X1.2500 Y52.0000 Z4.0000 I0.5303 J-0.5303
 G01 X1.2500 Y42.0000 Z4.0000
 G03 X1.4696 Y41.4696 Z4.0000 I0.7500 J0.0000
 G01 X3.4696 Y39.4696 Z4.0000
 G03 X4.0000 Y39.2500 Z4.0000 I0.5303 J0.5303
 G01 X6.0000 Y39.2500 Z4.0000
 G03 X7.7500 Y41.0000 Z4.0000 I0.0000 J1.7500
 G01 X7.7500 Y45.2500 Z4.0000
 G01 X12.2500 Y45.2500 Z4.0000
 G01 X12.2500 Y41.0000 Z4.0000
 G03 X14.0000 Y39.2500 Z4.0000 I1.7500 J0.0000
 G01 X16.0000 Y39.2500 Z4.0000
 G03 X16.5303 Y39.4696 Z4.0000 I0.0000 J0.7500
 G01 X18.5303 Y41.4696 Z4.0000
 G03 X18.7500 Y42.0000 Z4.0000 I-0.5303 J0.5303
 G01 X18.7500 Y47.0000 Z4.0000
 G01 Z3.0000
 G01 X18.7500 Y48.7887 Z3.0000
 G01 X18.7500 Y48.9651 Z2.0000
 G01 X18.7500 Y52.0000 Z2.0000
 G03 X18.5303 Y52.5303 Z2.0000 I-0.7500 J0.0000
 G01 X14.5303 Y56.5303 Z2.0000
 G03 X14.0000 Y56.7500 Z2.0000 I-0.5303 J-0.5303
 G01 X11.9389 Y56.7500 Z2.0000
 G01 X11.7626 Y56.7500 Z3.0000
 G01 X8.2626 Y56.7500 Z3.0000
 G01 X8.0863 Y56.7500 Z2.0000
 G01 X6.0000 Y56.7500 Z2.0000
 G03 X5.4696 Y56.5303 Z2.0000 I0.0000 J-0.7500
 G01 X1.4696 Y52.5303 Z2.0000
 G03 X1.2500 Y52.0000 Z2.0000 I0.5303 J-0.5303
 G01 X1.2500 Y48.9943 Z2.0000
 G01 X1.2500 Y48.8180 Z3.0000
 G01 X1.2500 Y45.3180 Z3.0000
 G01 X1.2500 Y45.1417 Z2.0000
 G01 X1.2500 Y42.0000 Z2.0000
 G03 X1.4696 Y41.4696 Z2.0000 I0.7500 J0.0000
 G01 X3.4696 Y39.4696 Z2.0000
 G03 X4.0000 Y39.2500 Z2.0000 I0.5303 J0.5303
 G01 X6.0000 Y39.2500 Z2.0000
 G03 X7.7500 Y41.0000 Z2.0000 I0.0000 J1.7500
 G01 X7.7500 Y45.2500 Z2.0000
 G01 X12.2500 Y45.2500 Z2.0000
 G01 X12.2500 Y41.0000 Z2.0000
 G03 X14.0000 Y39.2500 Z2.0000 I1.7500 J0.0000
 G01 X16.0000 Y39.2500 Z2.0000
 G03 X16.5303 Y39.4696 Z2.0000 I0.0000 J0.7500
 G01 X18.5303 Y41.4696 Z2.0000
 G03 X18.7500 Y42.0000 Z2.0000 I-0.5303 J0.5303
 G01 X18.7500 Y45.1124 Z2.0000
 G01 X18.7500 Y45.2887 Z3.0000
 G01 X18.7500 Y47.0000 Z3.0000
 G01 X18.7500 Y48.7887 Z3.0000
 G01 X18.7500 Y49.3177 Z0.0000
 G01 X18.7500 Y52.0000 Z0.0000
 G03 X18.5303 Y52.5303 Z0.0000 I-0.7500 J0.0000
 G01 X14.5303 Y56.5303 Z0.0000
 G03 X14.0000 Y56.7500 Z0.0000 I-0.5303 J-0.5303
 G01 X12.2916 Y56.7500 Z0.0000
 G01 X11.7626 Y56.7500 Z3.0000
 G01 X8.2626 Y56.7500 Z3.0000
 G01 X7.7336 Y56.7500 Z0.0000
 G01 X6.0000 Y56.7500 Z0.0000
 G03 X5.4696 Y56.5303 Z0.0000 I0.0000 J-0.7500
 G01 X1.4696 Y52.5303 Z0.0000
 G03 X1.2500 Y52.0000 Z0.0000 I0.5303 J-0.5303
 G01 X1.2500 Y49.3470 Z0.0000
 G01 X1.2500 Y48.8180 Z3.0000
 G01 X1.2500 Y45.3180 Z3.0000
 G01 X1.2500 Y44.7890 Z0.0000
 G01 X1.2500 Y42.0000 Z0.0000
 G03 X1.4696 Y41.4696 Z0.0000 I0.7500 J0.0000
 G01 X3.4696 Y39.4696 Z0.0000
 G03 X4.0000 Y39.2500 Z0.0000 I0.5303 J0.5303
 G01 X6.0000 Y39.2500 Z0.0000
 G03 X7.7500 Y41.0000 Z0.0000 I0.0000 J1.7500
 G01 X7.7500 Y45.2500 Z0.0000
 G01 X12.2500 Y45.2500 Z0.0000
 G01 X12.2500 Y41.0000 Z0.0000
 G03 X14.0000 Y39.2500 Z0.0000 I1.7500 J0.0000
 G01 X16.0000 Y39.2500 Z0.0000
 G03 X16.5303 Y39.4696 Z0.0000 I0.0000 J0.7500
 G01 X18.5303 Y41.4696 Z0.0000
 G03 X18.7500 Y42.0000 Z0.0000 I-0.5303 J0.5303
 G01 X18.7500 Y44.7597 Z0.0000
 G01 X18.7500 Y45.2887 Z3.0000
 G01 X18.7500 Y47.0000 Z3.0000
 G00 Z10.0000
(END_OF_FORM)
(Esquisse 27)
 G00 X38.7500 Y47.0000
 G00 Z14.0000
 G01 Z4.0000
 G01 X38.7500 Y52.0000 Z4.0000
 G03 X38.5303 Y52.5303 Z4.0000 I-0.7500 J0.0000
 G01 X34.5303 Y56.5303 Z4.0000
 G03 X34.0000 Y56.7500 Z4.0000 I-0.5303 J-0.5303
 G01 X26.0000 Y56.7500 Z4.0000
 G03 X25.4696 Y56.5303 Z4.0000 I0.0000 J-0.7500
 G01 X21.4696 Y52.5303 Z4.0000
 G03 X21.2500 Y52.0000 Z4.0000 I0.5303 J-0.5303
 G01 X21.2500 Y42.0000 Z4.0000
 G03 X21.4696 Y41.4696 Z4.0000 I0.7500 J0.0000
 G01 X23.4696 Y39.4696 Z4.0000
 G03 X24.0000 Y39.2500 Z4.0000 I0.5303 J0.5303
 G01 X26.0000 Y39.2500 Z4.0000
 G03 X27.7500 Y41.0000 Z4.0000 I0.0000 J1.7500
 G01 X27.7500 Y45.2500 Z4.0000
 G01 X32.2500 Y45.2500 Z4.0000
 G01 X32.2500 Y41.0000 Z4.0000
 G03 X34.0000 Y39.2500 Z4.0000 I1.7500 J0.0000
 G01 X36.0000 Y39.2500 Z4.0000
 G03 X36.5303 Y39.4696 Z4.0000 I0.0000 J0.7500
 G01 X38.5303 Y41.4696 Z4.0000
 G03 X38.7500 Y42.0000 Z4.0000 I-0.5303 J0.5303
 G01 X38.7500 Y47.0000 Z4.0000
 G01 Z3.0000
 G01 X38.7500 Y48.7887 Z3.0000
 G01 X38.7500 Y48.9651 Z2.0000
 G01 X38.7500 Y52.0000 Z2.0000
 G03 X38.5303 Y52.5303 Z2.0000 I-0.7500 J0.0000
 G01 X34.5303 Y56.5303 Z2.0000
 G03 X34.0000 Y56.7500 Z2.0000 I-0.5303 J-0.5303
 G01 X31.9389 Y56.7500 Z2.0000
 G01 X31.7626 Y56.7500 Z3.0000
 G01 X28.2626 Y56.7500 Z3.0000
 G01 X28.0863 Y56.7500 Z2.0000
 G01 X26.0000 Y56.7500 Z2.0000
 G03 X25.4696 Y56.5303 Z2.0000 I0.0000 J-0.7500
 G01 X21.4696 Y52.5303 Z2.0000
 G03 X21.2500 Y52.0000 Z2.0000 I0.5303 J-0.5303
 G01 X21.2500 Y48.9943 Z2.0000
 G01 X21.2500 Y48.8180 Z3.0000
 G01 X21.2500 Y45.3180 Z3.0000
 G01 X21.2500 Y45.1417 Z2.0000
 G01 X21.2500 Y42.0000 Z2.0000
 G03 X21.4696 Y41.4696 Z2.0000 I0.7500 J0.0000
 G01 X23.4696 Y39.4696 Z2.0000
 G03 X24.0000 Y39.2500 Z2.0000 I0.5303 J0.5303
 G01 X26.0000 Y39.2500 Z2.0000
 G03 X27.7500 Y41.0000 Z2.0000 I0.0000 J1.7500
 G01 X27.7500 Y45.2500 Z2.0000
 G01 X32.2500 Y45.2500 Z2.0000
 G01 X32.2500 Y41.0000 Z2.0000
 G03 X34.0000 Y39.2500 Z2.0000 I1.7500 J0.0000
 G01 X36.0000 Y39.2500 Z2.0000
 G03 X36.5303 Y39.4696 Z2.0000 I0.0000 J0.7500
 G01 X38.5303 Y41.4696 Z2.0000
 G03 X38.7500 Y42.0000 Z2.0000 I-0.5303 J0.5303
 G01 X38.7500 Y45.1124 Z2.0000
 G01 X38.7500 Y45.2887 Z3.0000
 G01 X38.7500 Y47.0000 Z3.0000
 G01 X38.7500 Y48.7887 Z3.0000
 G01 X38.7500 Y49.3177 Z0.0000
 G01 X38.7500 Y52.0000 Z0.0000
 G03 X38.5303 Y52.5303 Z0.0000 I-0.7500 J0.0000
 G01 X34.5303 Y56.5303 Z0.0000
 G03 X34.0000 Y56.7500 Z0.0000 I-0.5303 J-0.5303
 G01 X32.2916 Y56.7500 Z0.0000
 G01 X31.7626 Y56.7500 Z3.0000
 G01 X28.2626 Y56.7500 Z3.0000
 G01 X27.7336 Y56.7500 Z0.0000
 G01 X26.0000 Y56.7500 Z0.0000
 G03 X25.4696 Y56.5303 Z0.0000 I0.0000 J-0.7500
 G01 X21.4696 Y52.5303 Z0.0000
 G03 X21.2500 Y52.0000 Z0.0000 I0.5303 J-0.5303
 G01 X21.2500 Y49.3470 Z0.0000
 G01 X21.2500 Y48.8180 Z3.0000
 G01 X21.2500 Y45.3180 Z3.0000
 G01 X21.2500 Y44.7890 Z0.0000
 G01 X21.2500 Y42.0000 Z0.0000
 G03 X21.4696 Y41.4696 Z0.0000 I0.7500 J0.0000
 G01 X23.4696 Y39.4696 Z0.0000
 G03 X24.0000 Y39.2500 Z0.0000 I0.5303 J0.5303
 G01 X26.0000 Y39.2500 Z0.0000
 G03 X27.7500 Y41.0000 Z0.0000 I0.0000 J1.7500
 G01 X27.7500 Y45.2500 Z0.0000
 G01 X32.2500 Y45.2500 Z0.0000
 G01 X32.2500 Y41.0000 Z0.0000
 G03 X34.0000 Y39.2500 Z0.0000 I1.7500 J0.0000
 G01 X36.0000 Y39.2500 Z0.0000
 G03 X36.5303 Y39.4696 Z0.0000 I0.0000 J0.7500
 G01 X38.5303 Y41.4696 Z0.0000
 G03 X38.7500 Y42.0000 Z0.0000 I-0.5303 J0.5303
 G01 X38.7500 Y44.7597 Z0.0000
 G01 X38.7500 Y45.2887 Z3.0000
 G01 X38.7500 Y47.0000 Z3.0000
 G00 Z10.0000
(END_OF_FORM)
(Esquisse 27)
 G00 X58.7500 Y47.0000
 G00 Z14.0000
 G01 Z4.0000
 G01 X58.7500 Y52.0000 Z4.0000
 G03 X58.5303 Y52.5303 Z4.0000 I-0.7500 J0.0000
 G01 X54.5303 Y56.5303 Z4.0000
 G03 X54.0000 Y56.7500 Z4.0000 I-0.5303 J-0.5303
 G01 X46.0000 Y56.7500 Z4.0000
 G03 X45.4696 Y56.5303 Z4.0000 I0.0000 J-0.7500
 G01 X41.4696 Y52.5303 Z4.0000
 G03 X41.2500 Y52.0000 Z4.0000 I0.5303 J-0.5303
 G01 X41.2500 Y42.0000 Z4.0000
 G03 X41.4696 Y41.4696 Z4.0000 I0.7500 J0.0000
 G01 X43.4696 Y39.4696 Z4.0000
 G03 X44.0000 Y39.2500 Z4.0000 I0.5303 J0.5303
 G01 X46.0000 Y39.2500 Z4.0000
 G03 X47.7500 Y41.0000 Z4.0000 I0.0000 J1.7500
 G01 X47.7500 Y45.2500 Z4.0000
 G01 X52.2500 Y45.2500 Z4.0000
 G01 X52.2500 Y41.0000 Z4.0000
 G03 X54.0000 Y39.2500 Z4.0000 I1.7500 J0.0000
 G01 X56.0000 Y39.2500 Z4.0000
 G03 X56.5303 Y39.4696 Z4.0000 I0.0000 J0.7500
 G01 X58.5303 Y41.4696 Z4.0000
 G03 X58.7500 Y42.0000 Z4.0000 I-0.5303 J0.5303
 G01 X58.7500 Y47.0000 Z4.0000
 G01 Z3.0000
 G01 X58.7500 Y48.7887 Z3.0000
 G01 X58.7500 Y48.9651 Z2.0000
 G01 X58.7500 Y52.0000 Z2.0000
 G03 X58.5303 Y52.5303 Z2.0000 I-0.7500 J0.0000
 G01 X54.5303 Y56.5303 Z2.0000
 G03 X54.0000 Y56.7500 Z2.0000 I-0.5303 J-0.5303
 G01 X51.9389 Y56.7500 Z2.0000
 G01 X51.7626 Y56.7500 Z3.0000
 G01 X48.2626 Y56.7500 Z3.0000
 G01 X48.0863 Y56.7500 Z2.0000
 G01 X46.0000 Y56.7500 Z2.0000
 G03 X45.4696 Y56.5303 Z2.0000 I0.0000 J-0.7500
 G01 X41.4696 Y52.5303 Z2.0000
 G03 X41.2500 Y52.0000 Z2.0000 I0.5303 J-0.5303
 G01 X41.2500 Y48.9943 Z2.0000
 G01 X41.2500 Y48.8180 Z3.0000
 G01 X41.2500 Y45.3180 Z3.0000
 G01 X41.2500 Y45.1417 Z2.0000
 G01 X41.2500 Y42.0000 Z2.0000
 G03 X41.4696 Y41.4696 Z2.0000 I0.7500 J0.0000
 G01 X43.4696 Y39.4696 Z2.0000
 G03 X44.0000 Y39.2500 Z2.0000 I0.5303 J0.5303
 G01 X46.0000 Y39.2500 Z2.0000
 G03 X47.7500 Y41.0000 Z2.0000 I0.0000 J1.7500
 G01 X47.7500 Y45.2500 Z2.0000
 G01 X52.2500 Y45.2500 Z2.0000
 G01 X52.2500 Y41.0000 Z2.0000
 G03 X54.0000 Y39.2500 Z2.0000 I1.7500 J0.0000
 G01 X56.0000 Y39.2500 Z2.0000
 G03 X56.5303 Y39.4696 Z2.0000 I0.0000 J0.7500
 G01 X58.5303 Y41.4696 Z2.0000
 G03 X58.7500 Y42.0000 Z2.0000 I-0.5303 J0.5303
 G01 X58.7500 Y45.1124 Z2.0000
 G01 X58.7500 Y45.2887 Z3.0000
 G01 X58.7500 Y47.0000 Z3.0000
 G01 X58.7500 Y48.7887 Z3.0000
 G01 X58.7500 Y49.3177 Z0.0000
 G01 X58.7500 Y52.0000 Z0.0000
 G03 X58.5303 Y52.5303 Z0.0000 I-0.7500 J0.0000
 G01 X54.5303 Y56.5303 Z0.0000
 G03 X54.0000 Y56.7500 Z0.0000 I-0.5303 J-0.5303
 G01 X52.2916 Y56.7500 Z0.0000
 G01 X51.7626 Y56.7500 Z3.0000
 G01 X48.2626 Y56.7500 Z3.0000
 G01 X47.7336 Y56.7500 Z0.0000
 G01 X46.0000 Y56.7500 Z0.0000
 G03 X45.4696 Y56.5303 Z0.0000 I0.0000 J-0.7500
 G01 X41.4696 Y52.5303 Z0.0000
 G03 X41.2500 Y52.0000 Z0.0000 I0.5303 J-0.5303
 G01 X41.2500 Y49.3470 Z0.0000
 G01 X41.2500 Y48.8180 Z3.0000
 G01 X41.2500 Y45.3180 Z3.0000
 G01 X41.2500 Y44.7890 Z0.0000
 G01 X41.2500 Y42.0000 Z0.0000
 G03 X41.4696 Y41.4696 Z0.0000 I0.7500 J0.0000
 G01 X43.4696 Y39.4696 Z0.0000
 G03 X44.0000 Y39.2500 Z0.0000 I0.5303 J0.5303
 G01 X46.0000 Y39.2500 Z0.0000
 G03 X47.7500 Y41.0000 Z0.0000 I0.0000 J1.7500
 G01 X47.7500 Y45.2500 Z0.0000
 G01 X52.2500 Y45.2500 Z0.0000
 G01 X52.2500 Y41.0000 Z0.0000
 G03 X54.0000 Y39.2500 Z0.0000 I1.7500 J0.0000
 G01 X56.0000 Y39.2500 Z0.0000
 G03 X56.5303 Y39.4696 Z0.0000 I0.0000 J0.7500
 G01 X58.5303 Y41.4696 Z0.0000
 G03 X58.7500 Y42.0000 Z0.0000 I-0.5303 J0.5303
 G01 X58.7500 Y44.7597 Z0.0000
 G01 X58.7500 Y45.2887 Z3.0000
 G01 X58.7500 Y47.0000 Z3.0000
 G00 Z10.0000
(END_OF_FORM)
(Esquisse 27)
 G00 X78.7500 Y47.0000
 G00 Z14.0000
 G01 Z4.0000
 G01 X78.7500 Y52.0000 Z4.0000
 G03 X78.5303 Y52.5303 Z4.0000 I-0.7500 J0.0000
 G01 X74.5303 Y56.5303 Z4.0000
 G03 X74.0000 Y56.7500 Z4.0000 I-0.5303 J-0.5303
 G01 X66.0000 Y56.7500 Z4.0000
 G03 X65.4696 Y56.5303 Z4.0000 I0.0000 J-0.7500
 G01 X61.4696 Y52.5303 Z4.0000
 G03 X61.2500 Y52.0000 Z4.0000 I0.5303 J-0.5303
 G01 X61.2500 Y42.0000 Z4.0000
 G03 X61.4696 Y41.4696 Z4.0000 I0.7500 J0.0000
 G01 X63.4696 Y39.4696 Z4.0000
 G03 X64.0000 Y39.2500 Z4.0000 I0.5303 J0.5303
 G01 X66.0000 Y39.2500 Z4.0000
 G03 X67.7500 Y41.0000 Z4.0000 I0.0000 J1.7500
 G01 X67.7500 Y45.2500 Z4.0000
 G01 X72.2500 Y45.2500 Z4.0000
 G01 X72.2500 Y41.0000 Z4.0000
 G03 X74.0000 Y39.2500 Z4.0000 I1.7500 J0.0000
 G01 X76.0000 Y39.2500 Z4.0000
 G03 X76.5303 Y39.4696 Z4.0000 I0.0000 J0.7500
 G01 X78.5303 Y41.4696 Z4.0000
 G03 X78.7500 Y42.0000 Z4.0000 I-0.5303 J0.5303
 G01 X78.7500 Y47.0000 Z4.0000
 G01 Z3.0000
 G01 X78.7500 Y48.7887 Z3.0000
 G01 X78.7500 Y48.9651 Z2.0000
 G01 X78.7500 Y52.0000 Z2.0000
 G03 X78.5303 Y52.5303 Z2.0000 I-0.7500 J0.0000
 G01 X74.5303 Y56.5303 Z2.0000
 G03 X74.0000 Y56.7500 Z2.0000 I-0.5303 J-0.5303
 G01 X71.9389 Y56.7500 Z2.0000
 G01 X71.7626 Y56.7500 Z3.0000
 G01 X68.2626 Y56.7500 Z3.0000
 G01 X68.0863 Y56.7500 Z2.0000
 G01 X66.0000 Y56.7500 Z2.0000
 G03 X65.4696 Y56.5303 Z2.0000 I0.0000 J-0.7500
 G01 X61.4696 Y52.5303 Z2.0000
 G03 X61.2500 Y52.0000 Z2.0000 I0.5303 J-0.5303
 G01 X61.2500 Y48.9943 Z2.0000
 G01 X61.2500 Y48.8180 Z3.0000
 G01 X61.2500 Y45.3180 Z3.0000
 G01 X61.2500 Y45.1417 Z2.0000
 G01 X61.2500 Y42.0000 Z2.0000
 G03 X61.4696 Y41.4696 Z2.0000 I0.7500 J0.0000
 G01 X63.4696 Y39.4696 Z2.0000
 G03 X64.0000 Y39.2500 Z2.0000 I0.5303 J0.5303
 G01 X66.0000 Y39.2500 Z2.0000
 G03 X67.7500 Y41.0000 Z2.0000 I0.0000 J1.7500
 G01 X67.7500 Y45.2500 Z2.0000
 G01 X72.2500 Y45.2500 Z2.0000
 G01 X72.2500 Y41.0000 Z2.0000
 G03 X74.0000 Y39.2500 Z2.0000 I1.7500 J0.0000
 G01 X76.0000 Y39.2500 Z2.0000
 G03 X76.5303 Y39.4696 Z2.0000 I0.0000 J0.7500
 G01 X78.5303 Y41.4696 Z2.0000
 G03 X78.7500 Y42.0000 Z2.0000 I-0.5303 J0.5303
 G01 X78.7500 Y45.1124 Z2.0000
 G01 X78.7500 Y45.2887 Z3.0000
 G01 X78.7500 Y47.0000 Z3.0000
 G01 X78.7500 Y48.7887 Z3.0000
 G01 X78.7500 Y49.3177 Z0.0000
 G01 X78.7500 Y52.0000 Z0.0000
 G03 X78.5303 Y52.5303 Z0.0000 I-0.7500 J0.0000
 G01 X74.5303 Y56.5303 Z0.0000
 G03 X74.0000 Y56.7500 Z0.0000 I-0.5303 J-0.5303
 G01 X72.2916 Y56.7500 Z0.0000
 G01 X71.7626 Y56.7500 Z3.0000
 G01 X68.2626 Y56.7500 Z3.0000
 G01 X67.7336 Y56.7500 Z0.0000
 G01 X66.0000 Y56.7500 Z0.0000
 G03 X65.4696 Y56.5303 Z0.0000 I0.0000 J-0.7500
 G01 X61.4696 Y52.5303 Z0.0000
 G03 X61.2500 Y52.0000 Z0.0000 I0.5303 J-0.5303
 G01 X61.2500 Y49.3470 Z0.0000
 G01 X61.2500 Y48.8180 Z3.0000
 G01 X61.2500 Y45.3180 Z3.0000
 G01 X61.2500 Y44.7890 Z0.0000
 G01 X61.2500 Y42.0000 Z0.0000
 G03 X61.4696 Y41.4696 Z0.0000 I0.7500 J0.0000
 G01 X63.4696 Y39.4696 Z0.0000
 G03 X64.0000 Y39.2500 Z0.0000 I0.5303 J0.5303
 G01 X66.0000 Y39.2500 Z0.0000
 G03 X67.7500 Y41.0000 Z0.0000 I0.0000 J1.7500
 G01 X67.7500 Y45.2500 Z0.0000
 G01 X72.2500 Y45.2500 Z0.0000
 G01 X72.2500 Y41.0000 Z0.0000
 G03 X74.0000 Y39.2500 Z0.0000 I1.7500 J0.0000
 G01 X76.0000 Y39.2500 Z0.0000
 G03 X76.5303 Y39.4696 Z0.0000 I0.0000 J0.7500
 G01 X78.5303 Y41.4696 Z0.0000
 G03 X78.7500 Y42.0000 Z0.0000 I-0.5303 J0.5303
 G01 X78.7500 Y44.7597 Z0.0000
 G01 X78.7500 Y45.2887 Z3.0000
 G01 X78.7500 Y47.0000 Z3.0000
 G00 Z10.0000
(END_OF_FORM)
(Esquisse 27)
 G00 X98.7500 Y47.0000
 G00 Z14.0000
 G01 Z4.0000
 G01 X98.7500 Y52.0000 Z4.0000
 G03 X98.5303 Y52.5303 Z4.0000 I-0.7500 J0.0000
 G01 X94.5303 Y56.5303 Z4.0000
 G03 X94.0000 Y56.7500 Z4.0000 I-0.5303 J-0.5303
 G01 X86.0000 Y56.7500 Z4.0000
 G03 X85.4696 Y56.5303 Z4.0000 I0.0000 J-0.7500
 G01 X81.4696 Y52.5303 Z4.0000
 G03 X81.2500 Y52.0000 Z4.0000 I0.5303 J-0.5303
 G01 X81.2500 Y42.0000 Z4.0000
 G03 X81.4696 Y41.4696 Z4.0000 I0.7500 J0.0000
 G01 X83.4696 Y39.4696 Z4.0000
 G03 X84.0000 Y39.2500 Z4.0000 I0.5303 J0.5303
 G01 X86.0000 Y39.2500 Z4.0000
 G03 X87.7500 Y41.0000 Z4.0000 I0.0000 J1.7500
 G01 X87.7500 Y45.2500 Z4.0000
 G01 X92.2500 Y45.2500 Z4.0000
 G01 X92.2500 Y41.0000 Z4.0000
 G03 X94.0000 Y39.2500 Z4.0000 I1.7500 J0.0000
 G01 X96.0000 Y39.2500 Z4.0000
 G03 X96.5303 Y39.4696 Z4.0000 I0.0000 J0.7500
 G01 X98.5303 Y41.4696 Z4.0000
 G03 X98.7500 Y42.0000 Z4.0000 I-0.5303 J0.5303
 G01 X98.7500 Y47.0000 Z4.0000
 G01 Z3.0000
 G01 X98.7500 Y48.7887 Z3.0000
 G01 X98.7500 Y48.9651 Z2.0000
 G01 X98.7500 Y52.0000 Z2.0000
 G03 X98.5303 Y52.5303 Z2.0000 I-0.7500 J0.0000
 G01 X94.5303 Y56.5303 Z2.0000
 G03 X94.0000 Y56.7500 Z2.0000 I-0.5303 J-0.5303
 G01 X91.9389 Y56.7500 Z2.0000
 G01 X91.7626 Y56.7500 Z3.0000
 G01 X88.2626 Y56.7500 Z3.0000
 G01 X88.0863 Y56.7500 Z2.0000
 G01 X86.0000 Y56.7500 Z2.0000
 G03 X85.4696 Y56.5303 Z2.0000 I0.0000 J-0.7500
 G01 X81.4696 Y52.5303 Z2.0000
 G03 X81.2500 Y52.0000 Z2.0000 I0.5303 J-0.5303
 G01 X81.2500 Y48.9943 Z2.0000
 G01 X81.2500 Y48.8180 Z3.0000
 G01 X81.2500 Y45.3180 Z3.0000
 G01 X81.2500 Y45.1417 Z2.0000
 G01 X81.2500 Y42.0000 Z2.0000
 G03 X81.4696 Y41.4696 Z2.0000 I0.7500 J0.0000
 G01 X83.4696 Y39.4696 Z2.0000
 G03 X84.0000 Y39.2500 Z2.0000 I0.5303 J0.5303
 G01 X86.0000 Y39.2500 Z2.0000
 G03 X87.7500 Y41.0000 Z2.0000 I0.0000 J1.7500
 G01 X87.7500 Y45.2500 Z2.0000
 G01 X92.2500 Y45.2500 Z2.0000
 G01 X92.2500 Y41.0000 Z2.0000
 G03 X94.0000 Y39.2500 Z2.0000 I1.7500 J0.0000
 G01 X96.0000 Y39.2500 Z2.0000
 G03 X96.5303 Y39.4696 Z2.0000 I0.0000 J0.7500
 G01 X98.5303 Y41.4696 Z2.0000
 G03 X98.7500 Y42.0000 Z2.0000 I-0.5303 J0.5303
 G01 X98.7500 Y45.1124 Z2.0000
 G01 X98.7500 Y45.2887 Z3.0000
 G01 X98.7500 Y47.0000 Z3.0000
 G01 X98.7500 Y48.7887 Z3.0000
 G01 X98.7500 Y49.3177 Z0.0000
 G01 X98.7500 Y52.0000 Z0.0000
 G03 X98.5303 Y52.5303 Z0.0000 I-0.7500 J0.0000
 G01 X94.5303 Y56.5303 Z0.0000
 G03 X94.0000 Y56.7500 Z0.0000 I-0.5303 J-0.5303
 G01 X92.2916 Y56.7500 Z0.0000
 G01 X91.7626 Y56.7500 Z3.0000
 G01 X88.2626 Y56.7500 Z3.0000
 G01 X87.7336 Y56.7500 Z0.0000
 G01 X86.0000 Y56.7500 Z0.0000
 G03 X85.4696 Y56.5303 Z0.0000 I0.0000 J-0.7500
 G01 X81.4696 Y52.5303 Z0.0000
 G03 X81.2500 Y52.0000 Z0.0000 I0.5303 J-0.5303
 G01 X81.2500 Y49.3470 Z0.0000
 G01 X81.2500 Y48.8180 Z3.0000
 G01 X81.2500 Y45.3180 Z3.0000
 G01 X81.2500 Y44.7890 Z0.0000
 G01 X81.2500 Y42.0000 Z0.0000
 G03 X81.4696 Y41.4696 Z0.0000 I0.7500 J0.0000
 G01 X83.4696 Y39.4696 Z0.0000
 G03 X84.0000 Y39.2500 Z0.0000 I0.5303 J0.5303
 G01 X86.0000 Y39.2500 Z0.0000
 G03 X87.7500 Y41.0000 Z0.0000 I0.0000 J1.7500
 G01 X87.7500 Y45.2500 Z0.0000
 G01 X92.2500 Y45.2500 Z0.0000
 G01 X92.2500 Y41.0000 Z0.0000
 G03 X94.0000 Y39.2500 Z0.0000 I1.7500 J0.0000
 G01 X96.0000 Y39.2500 Z0.0000
 G03 X96.5303 Y39.4696 Z0.0000 I0.0000 J0.7500
 G01 X98.5303 Y41.4696 Z0.0000
 G03 X98.7500 Y42.0000 Z0.0000 I-0.5303 J0.5303
 G01 X98.7500 Y44.7597 Z0.0000
 G01 X98.7500 Y45.2887 Z3.0000
 G01 X98.7500 Y47.0000 Z3.0000
 G00 Z10.0000
(END_OF_FORM)
(Esquisse 27)
 G00 X118.7500 Y47.0000
 G00 Z14.0000
 G01 Z4.0000
 G01 X118.7500 Y52.0000 Z4.0000
 G03 X118.5303 Y52.5303 Z4.0000 I-0.7500 J0.0000
 G01 X114.5303 Y56.5303 Z4.0000
 G03 X114.0000 Y56.7500 Z4.0000 I-0.5303 J-0.5303
 G01 X106.0000 Y56.7500 Z4.0000
 G03 X105.4696 Y56.5303 Z4.0000 I0.0000 J-0.7500
 G01 X101.4696 Y52.5303 Z4.0000
 G03 X101.2500 Y52.0000 Z4.0000 I0.5303 J-0.5303
 G01 X101.2500 Y42.0000 Z4.0000
 G03 X101.4696 Y41.4696 Z4.0000 I0.7500 J0.0000
 G01 X103.4696 Y39.4696 Z4.0000
 G03 X104.0000 Y39.2500 Z4.0000 I0.5303 J0.5303
 G01 X106.0000 Y39.2500 Z4.0000
 G03 X107.7500 Y41.0000 Z4.0000 I0.0000 J1.7500
 G01 X107.7500 Y45.2500 Z4.0000
 G01 X112.2500 Y45.2500 Z4.0000
 G01 X112.2500 Y41.0000 Z4.0000
 G03 X114.0000 Y39.2500 Z4.0000 I1.7500 J0.0000
 G01 X116.0000 Y39.2500 Z4.0000
 G03 X116.5303 Y39.4696 Z4.0000 I0.0000 J0.7500
 G01 X118.5303 Y41.4696 Z4.0000
 G03 X118.7500 Y42.0000 Z4.0000 I-0.5303 J0.5303
 G01 X118.7500 Y47.0000 Z4.0000
 G01 Z3.0000
 G01 X118.7500 Y48.7887 Z3.0000
 G01 X118.7500 Y48.9651 Z2.0000
 G01 X118.7500 Y52.0000 Z2.0000
 G03 X118.5303 Y52.5303 Z2.0000 I-0.7500 J0.0000
 G01 X114.5303 Y56.5303 Z2.0000
 G03 X114.0000 Y56.7500 Z2.0000 I-0.5303 J-0.5303
 G01 X111.9389 Y56.7500 Z2.0000
 G01 X111.7626 Y56.7500 Z3.0000
 G01 X108.2626 Y56.7500 Z3.0000
 G01 X108.0863 Y56.7500 Z2.0000
 G01 X106.0000 Y56.7500 Z2.0000
 G03 X105.4696 Y56.5303 Z2.0000 I0.0000 J-0.7500
 G01 X101.4696 Y52.5303 Z2.0000
 G03 X101.2500 Y52.0000 Z2.0000 I0.5303 J-0.5303
 G01 X101.2500 Y48.9943 Z2.0000
 G01 X101.2500 Y48.8180 Z3.0000
 G01 X101.2500 Y45.3180 Z3.0000
 G01 X101.2500 Y45.1417 Z2.0000
 G01 X101.2500 Y42.0000 Z2.0000
 G03 X101.4696 Y41.4696 Z2.0000 I0.7500 J0.0000
 G01 X103.4696 Y39.4696 Z2.0000
 G03 X104.0000 Y39.2500 Z2.0000 I0.5303 J0.5303
 G01 X106.0000 Y39.2500 Z2.0000
 G03 X107.7500 Y41.0000 Z2.0000 I0.0000 J1.7500
 G01 X107.7500 Y45.2500 Z2.0000
 G01 X112.2500 Y45.2500 Z2.0000
 G01 X112.2500 Y41.0000 Z2.0000
 G03 X114.0000 Y39.2500 Z2.0000 I1.7500 J0.0000
 G01 X116.0000 Y39.2500 Z2.0000
 G03 X116.5303 Y39.4696 Z2.0000 I0.0000 J0.7500
 G01 X118.5303 Y41.4696 Z2.0000
 G03 X118.7500 Y42.0000 Z2.0000 I-0.5303 J0.5303
 G01 X118.7500 Y45.1124 Z2.0000
 G01 X118.7500 Y45.2887 Z3.0000
 G01 X118.7500 Y47.0000 Z3.0000
 G01 X118.7500 Y48.7887 Z3.0000
 G01 X118.7500 Y49.3177 Z0.0000
 G01 X118.7500 Y52.0000 Z0.0000
 G03 X118.5303 Y52.5303 Z0.0000 I-0.7500 J0.0000
 G01 X114.5303 Y56.5303 Z0.0000
 G03 X114.0000 Y56.7500 Z0.0000 I-0.5303 J-0.5303
 G01 X112.2916 Y56.7500 Z0.0000
 G01 X111.7626 Y56.7500 Z3.0000
 G01 X108.2626 Y56.7500 Z3.0000
 G01 X107.7336 Y56.7500 Z0.0000
 G01 X106.0000 Y56.7500 Z0.0000
 G03 X105.4696 Y56.5303 Z0.0000 I0.0000 J-0.7500
 G01 X101.4696 Y52.5303 Z0.0000
 G03 X101.2500 Y52.0000 Z0.0000 I0.5303 J-0.5303
 G01 X101.2500 Y49.3470 Z0.0000
 G01 X101.2500 Y48.8180 Z3.0000
 G01 X101.2500 Y45.3180 Z3.0000
 G01 X101.2500 Y44.7890 Z0.0000
 G01 X101.2500 Y42.0000 Z0.0000
 G03 X101.4696 Y41.4696 Z0.0000 I0.7500 J0.0000
 G01 X103.4696 Y39.4696 Z0.0000
 G03 X104.0000 Y39.2500 Z0.0000 I0.5303 J0.5303
 G01 X106.0000 Y39.2500 Z0.0000
 G03 X107.7500 Y41.0000 Z0.0000 I0.0000 J1.7500
 G01 X107.7500 Y45.2500 Z0.0000
 G01 X112.2500 Y45.2500 Z0.0000
 G01 X112.2500 Y41.0000 Z0.0000
 G03 X114.0000 Y39.2500 Z0.0000 I1.7500 J0.0000
 G01 X116.0000 Y39.2500 Z0.0000
 G03 X116.5303 Y39.4696 Z0.0000 I0.0000 J0.7500
 G01 X118.5303 Y41.4696 Z0.0000
 G03 X118.7500 Y42.0000 Z0.0000 I-0.5303 J0.5303
 G01 X118.7500 Y44.7597 Z0.0000
 G01 X118.7500 Y45.2887 Z3.0000
 G01 X118.7500 Y47.0000 Z3.0000
 G00 Z10.0000
(END_OF_FORM)
(Esquisse 27)
 G00 X18.7500 Y67.0000
 G00 Z14.0000
 G01 Z4.0000
 G01 X18.7500 Y72.0000 Z4.0000
 G03 X18.5303 Y72.5303 Z4.0000 I-0.7500 J0.0000
 G01 X14.5303 Y76.5303 Z4.0000
 G03 X14.0000 Y76.7500 Z4.0000 I-0.5303 J-0.5303
 G01 X6.0000 Y76.7500 Z4.0000
 G03 X5.4696 Y76.5303 Z4.0000 I0.0000 J-0.7500
 G01 X1.4696 Y72.5303 Z4.0000
 G03 X1.2500 Y72.0000 Z4.0000 I0.5303 J-0.5303
 G01 X1.2500 Y62.0000 Z4.0000
 G03 X1.4696 Y61.4696 Z4.0000 I0.7500 J0.0000
 G01 X3.4696 Y59.4696 Z4.0000
 G03 X4.0000 Y59.2500 Z4.0000 I0.5303 J0.5303
 G01 X6.0000 Y59.2500 Z4.0000
 G03 X7.7500 Y61.0000 Z4.0000 I0.0000 J1.7500
 G01 X7.7500 Y65.2500 Z4.0000
 G01 X12.2500 Y65.2500 Z4.0000
 G01 X12.2500 Y61.0000 Z4.0000
 G03 X14.0000 Y59.2500 Z4.0000 I1.7500 J0.0000
 G01 X16.0000 Y59.2500 Z4.0000
 G03 X16.5303 Y59.4696 Z4.0000 I0.0000 J0.7500
 G01 X18.5303 Y61.4696 Z4.0000
 G03 X18.7500 Y62.0000 Z4.0000 I-0.5303 J0.5303
 G01 X18.7500 Y67.0000 Z4.0000
 G01 Z3.0000
 G01 X18.7500 Y68.7887 Z3.0000
 G01 X18.7500 Y68.9651 Z2.0000
 G01 X18.7500 Y72.0000 Z2.0000
 G03 X18.5303 Y72.5303 Z2.0000 I-0.7500 J0.0000
 G01 X14.5303 Y76.5303 Z2.0000
 G03 X14.0000 Y76.7500 Z2.0000 I-0.5303 J-0.5303
 G01 X11.9389 Y76.7500 Z2.0000
 G01 X11.7626 Y76.7500 Z3.0000
 G01 X8.2626 Y76.7500 Z3.0000
 G01 X8.0863 Y76.7500 Z2.0000
 G01 X6.0000 Y76.7500 Z2.0000
 G03 X5.4696 Y76.5303 Z2.0000 I0.0000 J-0.7500
 G01 X1.4696 Y72.5303 Z2.0000
 G03 X1.2500 Y72.0000 Z2.0000 I0.5303 J-0.5303
 G01 X1.2500 Y68.9943 Z2.0000
 G01 X1.2500 Y68.8180 Z3.0000
 G01 X1.2500 Y65.3180 Z3.0000
 G01 X1.2500 Y65.1417 Z2.0000
 G01 X1.2500 Y62.0000 Z2.0000
 G03 X1.4696 Y61.4696 Z2.0000 I0.7500 J0.0000
 G01 X3.4696 Y59.4696 Z2.0000
 G03 X4.0000 Y59.2500 Z2.0000 I0.5303 J0.5303
 G01 X6.0000 Y59.2500 Z2.0000
 G03 X7.7500 Y61.0000 Z2.0000 I0.0000 J1.7500
 G01 X7.7500 Y65.2500 Z2.0000
 G01 X12.2500 Y65.2500 Z2.0000
 G01 X12.2500 Y61.0000 Z2.0000
 G03 X14.0000 Y59.2500 Z2.0000 I1.7500 J0.0000
 G01 X16.0000 Y59.2500 Z2.0000
 G03 X16.5303 Y59.4696 Z2.0000 I0.0000 J0.7500
 G01 X18.5303 Y61.4696 Z2.0000
 G03 X18.7500 Y62.0000 Z2.0000 I-0.5303 J0.5303
 G01 X18.7500 Y65.1124 Z2.0000
 G01 X18.7500 Y65.2887 Z3.0000
 G01 X18.7500 Y67.0000 Z3.0000
 G01 X18.7500 Y68.7887 Z3.0000
 G01 X18.7500 Y69.3177 Z0.0000
 G01 X18.7500 Y72.0000 Z0.0000
 G03 X18.5303 Y72.5303 Z0.0000 I-0.7500 J0.0000
 G01 X14.5303 Y76.5303 Z0.0000
 G03 X14.0000 Y76.7500 Z0.0000 I-0.5303 J-0.5303
 G01 X12.2916 Y76.7500 Z0.0000
 G01 X11.7626 Y76.7500 Z3.0000
 G01 X8.2626 Y76.7500 Z3.0000
 G01 X7.7336 Y76.7500 Z0.0000
 G01 X6.0000 Y76.7500 Z0.0000
 G03 X5.4696 Y76.5303 Z0.0000 I0.0000 J-0.7500
 G01 X1.4696 Y72.5303 Z0.0000
 G03 X1.2500 Y72.0000 Z0.0000 I0.5303 J-0.5303
 G01 X1.2500 Y69.3470 Z0.0000
 G01 X1.2500 Y68.8180 Z3.0000
 G01 X1.2500 Y65.3180 Z3.0000
 G01 X1.2500 Y64.7890 Z0.0000
 G01 X1.2500 Y62.0000 Z0.0000
 G03 X1.4696 Y61.4696 Z0.0000 I0.7500 J0.0000
 G01 X3.4696 Y59.4696 Z0.0000
 G03 X4.0000 Y59.2500 Z0.0000 I0.5303 J0.5303
 G01 X6.0000 Y59.2500 Z0.0000
 G03 X7.7500 Y61.0000 Z0.0000 I0.0000 J1.7500
 G01 X7.7500 Y65.2500 Z0.0000
 G01 X12.2500 Y65.2500 Z0.0000
 G01 X12.2500 Y61.0000 Z0.0000
 G03 X14.0000 Y59.2500 Z0.0000 I1.7500 J0.0000
 G01 X16.0000 Y59.2500 Z0.0000
 G03 X16.5303 Y59.4696 Z0.0000 I0.0000 J0.7500
 G01 X18.5303 Y61.4696 Z0.0000
 G03 X18.7500 Y62.0000 Z0.0000 I-0.5303 J0.5303
 G01 X18.7500 Y64.7597 Z0.0000
 G01 X18.7500 Y65.2887 Z3.0000
 G01 X18.7500 Y67.0000 Z3.0000
 G00 Z10.0000
(END_OF_FORM)
(Esquisse 27)
 G00 X38.7500 Y67.0000
 G00 Z14.0000
 G01 Z4.0000
 G01 X38.7500 Y72.0000 Z4.0000
 G03 X38.5303 Y72.5303 Z4.0000 I-0.7500 J0.0000
 G01 X34.5303 Y76.5303 Z4.0000
 G03 X34.0000 Y76.7500 Z4.0000 I-0.5303 J-0.5303
 G01 X26.0000 Y76.7500 Z4.0000
 G03 X25.4696 Y76.5303 Z4.0000 I0.0000 J-0.7500
 G01 X21.4696 Y72.5303 Z4.0000
 G03 X21.2500 Y72.0000 Z4.0000 I0.5303 J-0.5303
 G01 X21.2500 Y62.0000 Z4.0000
 G03 X21.4696 Y61.4696 Z4.0000 I0.7500 J0.0000
 G01 X23.4696 Y59.4696 Z4.0000
 G03 X24.0000 Y59.2500 Z4.0000 I0.5303 J0.5303
 G01 X26.0000 Y59.2500 Z4.0000
 G03 X27.7500 Y61.0000 Z4.0000 I0.0000 J1.7500
 G01 X27.7500 Y65.2500 Z4.0000
 G01 X32.2500 Y65.2500 Z4.0000
 G01 X32.2500 Y61.0000 Z4.0000
 G03 X34.0000 Y59.2500 Z4.0000 I1.7500 J0.0000
 G01 X36.0000 Y59.2500 Z4.0000
 G03 X36.5303 Y59.4696 Z4.0000 I0.0000 J0.7500
 G01 X38.5303 Y61.4696 Z4.0000
 G03 X38.7500 Y62.0000 Z4.0000 I-0.5303 J0.5303
 G01 X38.7500 Y67.0000 Z4.0000
 G01 Z3.0000
 G01 X38.7500 Y68.7887 Z3.0000
 G01 X38.7500 Y68.9651 Z2.0000
 G01 X38.7500 Y72.0000 Z2.0000
 G03 X38.5303 Y72.5303 Z2.0000 I-0.7500 J0.0000
 G01 X34.5303 Y76.5303 Z2.0000
 G03 X34.0000 Y76.7500 Z2.0000 I-0.5303 J-0.5303
 G01 X31.9389 Y76.7500 Z2.0000
 G01 X31.7626 Y76.7500 Z3.0000
 G01 X28.2626 Y76.7500 Z3.0000
 G01 X28.0863 Y76.7500 Z2.0000
 G01 X26.0000 Y76.7500 Z2.0000
 G03 X25.4696 Y76.5303 Z2.0000 I0.0000 J-0.7500
 G01 X21.4696 Y72.5303 Z2.0000
 G03 X21.2500 Y72.0000 Z2.0000 I0.5303 J-0.5303
 G01 X21.2500 Y68.9943 Z2.0000
 G01 X21.2500 Y68.8180 Z3.0000
 G01 X21.2500 Y65.3180 Z3.0000
 G01 X21.2500 Y65.1417 Z2.0000
 G01 X21.2500 Y62.0000 Z2.0000
 G03 X21.4696 Y61.4696 Z2.0000 I0.7500 J0.0000
 G01 X23.4696 Y59.4696 Z2.0000
 G03 X24.0000 Y59.2500 Z2.0000 I0.5303 J0.5303
 G01 X26.0000 Y59.2500 Z2.0000
 G03 X27.7500 Y61.0000 Z2.0000 I0.0000 J1.7500
 G01 X27.7500 Y65.2500 Z2.0000
 G01 X32.2500 Y65.2500 Z2.0000
 G01 X32.2500 Y61.0000 Z2.0000
 G03 X34.0000 Y59.2500 Z2.0000 I1.7500 J0.0000
 G01 X36.0000 Y59.2500 Z2.0000
 G03 X36.5303 Y59.4696 Z2.0000 I0.0000 J0.7500
 G01 X38.5303 Y61.4696 Z2.0000
 G03 X38.7500 Y62.0000 Z2.0000 I-0.5303 J0.5303
 G01 X38.7500 Y65.1124 Z2.0000
 G01 X38.7500 Y65.2887 Z3.0000
 G01 X38.7500 Y67.0000 Z3.0000
 G01 X38.7500 Y68.7887 Z3.0000
 G01 X38.7500 Y69.3177 Z0.0000
 G01 X38.7500 Y72.0000 Z0.0000
 G03 X38.5303 Y72.5303 Z0.0000 I-0.7500 J0.0000
 G01 X34.5303 Y76.5303 Z0.0000
 G03 X34.0000 Y76.7500 Z0.0000 I-0.5303 J-0.5303
 G01 X32.2916 Y76.7500 Z0.0000
 G01 X31.7626 Y76.7500 Z3.0000
 G01 X28.2626 Y76.7500 Z3.0000
 G01 X27.7336 Y76.7500 Z0.0000
 G01 X26.0000 Y76.7500 Z0.0000
 G03 X25.4696 Y76.5303 Z0.0000 I0.0000 J-0.7500
 G01 X21.4696 Y72.5303 Z0.0000
 G03 X21.2500 Y72.0000 Z0.0000 I0.5303 J-0.5303
 G01 X21.2500 Y69.3470 Z0.0000
 G01 X21.2500 Y68.8180 Z3.0000
 G01 X21.2500 Y65.3180 Z3.0000
 G01 X21.2500 Y64.7890 Z0.0000
 G01 X21.2500 Y62.0000 Z0.0000
 G03 X21.4696 Y61.4696 Z0.0000 I0.7500 J0.0000
 G01 X23.4696 Y59.4696 Z0.0000
 G03 X24.0000 Y59.2500 Z0.0000 I0.5303 J0.5303
 G01 X26.0000 Y59.2500 Z0.0000
 G03 X27.7500 Y61.0000 Z0.0000 I0.0000 J1.7500
 G01 X27.7500 Y65.2500 Z0.0000
 G01 X32.2500 Y65.2500 Z0.0000
 G01 X32.2500 Y61.0000 Z0.0000
 G03 X34.0000 Y59.2500 Z0.0000 I1.7500 J0.0000
 G01 X36.0000 Y59.2500 Z0.0000
 G03 X36.5303 Y59.4696 Z0.0000 I0.0000 J0.7500
 G01 X38.5303 Y61.4696 Z0.0000
 G03 X38.7500 Y62.0000 Z0.0000 I-0.5303 J0.5303
 G01 X38.7500 Y64.7597 Z0.0000
 G01 X38.7500 Y65.2887 Z3.0000
 G01 X38.7500 Y67.0000 Z3.0000
 G00 Z10.0000
(END_OF_FORM)
(Esquisse 27)
 G00 X58.7500 Y67.0000
 G00 Z14.0000
 G01 Z4.0000
 G01 X58.7500 Y72.0000 Z4.0000
 G03 X58.5303 Y72.5303 Z4.0000 I-0.7500 J0.0000
 G01 X54.5303 Y76.5303 Z4.0000
 G03 X54.0000 Y76.7500 Z4.0000 I-0.5303 J-0.5303
 G01 X46.0000 Y76.7500 Z4.0000
 G03 X45.4696 Y76.5303 Z4.0000 I0.0000 J-0.7500
 G01 X41.4696 Y72.5303 Z4.0000
 G03 X41.2500 Y72.0000 Z4.0000 I0.5303 J-0.5303
 G01 X41.2500 Y62.0000 Z4.0000
 G03 X41.4696 Y61.4696 Z4.0000 I0.7500 J0.0000
 G01 X43.4696 Y59.4696 Z4.0000
 G03 X44.0000 Y59.2500 Z4.0000 I0.5303 J0.5303
 G01 X46.0000 Y59.2500 Z4.0000
 G03 X47.7500 Y61.0000 Z4.0000 I0.0000 J1.7500
 G01 X47.7500 Y65.2500 Z4.0000
 G01 X52.2500 Y65.2500 Z4.0000
 G01 X52.2500 Y61.0000 Z4.0000
 G03 X54.0000 Y59.2500 Z4.0000 I1.7500 J0.0000
 G01 X56.0000 Y59.2500 Z4.0000
 G03 X56.5303 Y59.4696 Z4.0000 I0.0000 J0.7500
 G01 X58.5303 Y61.4696 Z4.0000
 G03 X58.7500 Y62.0000 Z4.0000 I-0.5303 J0.5303
 G01 X58.7500 Y67.0000 Z4.0000
 G01 Z3.0000
 G01 X58.7500 Y68.7887 Z3.0000
 G01 X58.7500 Y68.9651 Z2.0000
 G01 X58.7500 Y72.0000 Z2.0000
 G03 X58.5303 Y72.5303 Z2.0000 I-0.7500 J0.0000
 G01 X54.5303 Y76.5303 Z2.0000
 G03 X54.0000 Y76.7500 Z2.0000 I-0.5303 J-0.5303
 G01 X51.9389 Y76.7500 Z2.0000
 G01 X51.7626 Y76.7500 Z3.0000
 G01 X48.2626 Y76.7500 Z3.0000
 G01 X48.0863 Y76.7500 Z2.0000
 G01 X46.0000 Y76.7500 Z2.0000
 G03 X45.4696 Y76.5303 Z2.0000 I0.0000 J-0.7500
 G01 X41.4696 Y72.5303 Z2.0000
 G03 X41.2500 Y72.0000 Z2.0000 I0.5303 J-0.5303
 G01 X41.2500 Y68.9943 Z2.0000
 G01 X41.2500 Y68.8180 Z3.0000
 G01 X41.2500 Y65.3180 Z3.0000
 G01 X41.2500 Y65.1417 Z2.0000
 G01 X41.2500 Y62.0000 Z2.0000
 G03 X41.4696 Y61.4696 Z2.0000 I0.7500 J0.0000
 G01 X43.4696 Y59.4696 Z2.0000
 G03 X44.0000 Y59.2500 Z2.0000 I0.5303 J0.5303
 G01 X46.0000 Y59.2500 Z2.0000
 G03 X47.7500 Y61.0000 Z2.0000 I0.0000 J1.7500
 G01 X47.7500 Y65.2500 Z2.0000
 G01 X52.2500 Y65.2500 Z2.0000
 G01 X52.2500 Y61.0000 Z2.0000
 G03 X54.0000 Y59.2500 Z2.0000 I1.7500 J0.0000
 G01 X56.0000 Y59.2500 Z2.0000
 G03 X56.5303 Y59.4696 Z2.0000 I0.0000 J0.7500
 G01 X58.5303 Y61.4696 Z2.0000
 G03 X58.7500 Y62.0000 Z2.0000 I-0.5303 J0.5303
 G01 X58.7500 Y65.1124 Z2.0000
 G01 X58.7500 Y65.2887 Z3.0000
 G01 X58.7500 Y67.0000 Z3.0000
 G01 X58.7500 Y68.7887 Z3.0000
 G01 X58.7500 Y69.3177 Z0.0000
 G01 X58.7500 Y72.0000 Z0.0000
