(GCode created using a custom HeeksCNC post processor)
(post processor for OMIOCNC X6)
(Reset all )
G17 G21 G40 G49 G80 G90 G94
(Set Exact path mode )
G61
(---- END OF CUSTOM HEADER ----)
(tool change to 1.5 mm Fraise de Finition)
 ( should be T4 M06 )
( Starting spindle at 17000 )
M03 S17000
( Wait 10s )
G04 P10.0000
 G17
G90
G21
(Esquisse 0)
 G00 X151.5909 Y41.5909
 S17000 M03
 G00 Z14.0000
 G01 Z4.0000 F1600
 G02 X152.2500 Y40.0000 I-1.5909 J-1.5909 F2200
 G02 X150.0000 Y37.7500 I-2.2500 J0.0000
 G02 X147.7500 Y40.0000 I0.0000 J2.2500
 G02 X150.0000 Y42.2500 I2.2500 J0.0000
 G02 X151.5909 Y41.5909 I0.0000 J-2.2500
 G01 Z2.0000 F1600
 G02 X152.2500 Y40.0000 I-1.5909 J-1.5909 F2200
 G02 X150.0000 Y37.7500 I-2.2500 J0.0000
 G02 X147.7500 Y40.0000 I0.0000 J2.2500
 G02 X150.0000 Y42.2500 I2.2500 J0.0000
 G02 X151.5909 Y41.5909 I0.0000 J-2.2500
 G01 Z0.0000 F1600
 G02 X152.2500 Y40.0000 I-1.5909 J-1.5909 F2200
 G02 X150.0000 Y37.7500 I-2.2500 J0.0000
 G02 X147.7500 Y40.0000 I0.0000 J2.2500
 G02 X150.0000 Y42.2500 I2.2500 J0.0000
 G02 X151.5909 Y41.5909 I0.0000 J-2.2500
 G00 Z20.0000
(END_OF_FORM)
G90
(Esquisse 0)
 G00 X153.0052 Y28.0052
 S17000 M03
 G00 Z14.0000
 G01 Z4.0000 F1600
 G02 X154.2500 Y25.0000 I-3.0052 J-3.0052 F2200
 G02 X150.0000 Y20.7500 I-4.2500 J0.0000
 G02 X145.7500 Y25.0000 I0.0000 J4.2500
 G02 X150.0000 Y29.2500 I4.2500 J0.0000
 G02 X153.0052 Y28.0052 I0.0000 J-4.2500
 G01 Z2.0000 F1600
 G02 X154.2500 Y25.0000 I-3.0052 J-3.0052 F2200
 G02 X150.0000 Y20.7500 I-4.2500 J0.0000
 G02 X145.7500 Y25.0000 I0.0000 J4.2500
 G02 X150.0000 Y29.2500 I4.2500 J0.0000
 G02 X153.0052 Y28.0052 I0.0000 J-4.2500
 G01 Z0.0000 F1600
 G02 X154.2500 Y25.0000 I-3.0052 J-3.0052 F2200
 G02 X150.0000 Y20.7500 I-4.2500 J0.0000
 G02 X145.7500 Y25.0000 I0.0000 J4.2500
 G02 X150.0000 Y29.2500 I4.2500 J0.0000
 G02 X153.0052 Y28.0052 I0.0000 J-4.2500
 G00 Z20.0000
(END_OF_FORM)
G90
(Esquisse 0)
 G00 X151.5909 Y11.5909
 S17000 M03
 G00 Z14.0000
 G01 Z4.0000 F1600
 G02 X152.2500 Y10.0000 I-1.5909 J-1.5909 F2200
 G02 X150.0000 Y7.7500 I-2.2500 J0.0000
 G02 X147.7500 Y10.0000 I0.0000 J2.2500
 G02 X150.0000 Y12.2500 I2.2500 J0.0000
 G02 X151.5909 Y11.5909 I0.0000 J-2.2500
 G01 Z2.0000 F1600
 G02 X152.2500 Y10.0000 I-1.5909 J-1.5909 F2200
 G02 X150.0000 Y7.7500 I-2.2500 J0.0000
 G02 X147.7500 Y10.0000 I0.0000 J2.2500
 G02 X150.0000 Y12.2500 I2.2500 J0.0000
 G02 X151.5909 Y11.5909 I0.0000 J-2.2500
 G01 Z0.0000 F1600
 G02 X152.2500 Y10.0000 I-1.5909 J-1.5909 F2200
 G02 X150.0000 Y7.7500 I-2.2500 J0.0000
 G02 X147.7500 Y10.0000 I0.0000 J2.2500
 G02 X150.0000 Y12.2500 I2.2500 J0.0000
 G02 X151.5909 Y11.5909 I0.0000 J-2.2500
 G00 Z20.0000
(END_OF_FORM)
G90
(Esquisse 0)
 G00 X41.5909 Y11.5909
 S17000 M03
 G00 Z14.0000
 G01 Z4.0000 F1600
 G02 X42.2500 Y10.0000 I-1.5909 J-1.5909 F2200
 G02 X40.0000 Y7.7500 I-2.2500 J0.0000
 G02 X37.7500 Y10.0000 I0.0000 J2.2500
 G02 X40.0000 Y12.2500 I2.2500 J0.0000
 G02 X41.5909 Y11.5909 I0.0000 J-2.2500
 G01 Z2.0000 F1600
 G02 X42.2500 Y10.0000 I-1.5909 J-1.5909 F2200
 G02 X40.0000 Y7.7500 I-2.2500 J0.0000
 G02 X37.7500 Y10.0000 I0.0000 J2.2500
 G02 X40.0000 Y12.2500 I2.2500 J0.0000
 G02 X41.5909 Y11.5909 I0.0000 J-2.2500
 G01 Z0.0000 F1600
 G02 X42.2500 Y10.0000 I-1.5909 J-1.5909 F2200
 G02 X40.0000 Y7.7500 I-2.2500 J0.0000
 G02 X37.7500 Y10.0000 I0.0000 J2.2500
 G02 X40.0000 Y12.2500 I2.2500 J0.0000
 G02 X41.5909 Y11.5909 I0.0000 J-2.2500
 G00 Z20.0000
(END_OF_FORM)
G90
(Esquisse 0)
 G00 X28.0052 Y13.0052
 S17000 M03
 G00 Z14.0000
 G01 Z4.0000 F1600
 G02 X29.2500 Y10.0000 I-3.0052 J-3.0052 F2200
 G02 X25.0000 Y5.7500 I-4.2500 J0.0000
 G02 X20.7500 Y10.0000 I0.0000 J4.2500
 G02 X25.0000 Y14.2500 I4.2500 J0.0000
 G02 X28.0052 Y13.0052 I0.0000 J-4.2500
 G01 Z2.0000 F1600
 G02 X29.2500 Y10.0000 I-3.0052 J-3.0052 F2200
 G02 X25.0000 Y5.7500 I-4.2500 J0.0000
 G02 X20.7500 Y10.0000 I0.0000 J4.2500
 G02 X25.0000 Y14.2500 I4.2500 J0.0000
 G02 X28.0052 Y13.0052 I0.0000 J-4.2500
 G01 Z0.0000 F1600
 G02 X29.2500 Y10.0000 I-3.0052 J-3.0052 F2200
 G02 X25.0000 Y5.7500 I-4.2500 J0.0000
 G02 X20.7500 Y10.0000 I0.0000 J4.2500
 G02 X25.0000 Y14.2500 I4.2500 J0.0000
 G02 X28.0052 Y13.0052 I0.0000 J-4.2500
 G00 Z20.0000
(END_OF_FORM)
G90
(Esquisse 0)
 G00 X11.5909 Y11.5909
 S17000 M03
 G00 Z14.0000
 G01 Z4.0000 F1600
 G02 X12.2500 Y10.0000 I-1.5909 J-1.5909 F2200
 G02 X10.0000 Y7.7500 I-2.2500 J0.0000
 G02 X7.7500 Y10.0000 I0.0000 J2.2500
 G02 X10.0000 Y12.2500 I2.2500 J0.0000
 G02 X11.5909 Y11.5909 I0.0000 J-2.2500
 G01 Z2.0000 F1600
 G02 X12.2500 Y10.0000 I-1.5909 J-1.5909 F2200
 G02 X10.0000 Y7.7500 I-2.2500 J0.0000
 G02 X7.7500 Y10.0000 I0.0000 J2.2500
 G02 X10.0000 Y12.2500 I2.2500 J0.0000
 G02 X11.5909 Y11.5909 I0.0000 J-2.2500
 G01 Z0.0000 F1600
 G02 X12.2500 Y10.0000 I-1.5909 J-1.5909 F2200
 G02 X10.0000 Y7.7500 I-2.2500 J0.0000
 G02 X7.7500 Y10.0000 I0.0000 J2.2500
 G02 X10.0000 Y12.2500 I2.2500 J0.0000
 G02 X11.5909 Y11.5909 I0.0000 J-2.2500
 G00 Z20.0000
(END_OF_FORM)
G90
(Esquisse 0)
 G00 X13.5909 Y41.5909
 S17000 M03
 G00 Z14.0000
 G01 Z4.0000 F1600
 G02 X14.2500 Y40.0000 I-1.5909 J-1.5909 F2200
 G02 X12.0000 Y37.7500 I-2.2500 J0.0000
 G02 X9.7500 Y40.0000 I0.0000 J2.2500
 G02 X12.0000 Y42.2500 I2.2500 J0.0000
 G02 X13.5909 Y41.5909 I0.0000 J-2.2500
 G01 Z2.0000 F1600
 G02 X14.2500 Y40.0000 I-1.5909 J-1.5909 F2200
 G02 X12.0000 Y37.7500 I-2.2500 J0.0000
 G02 X9.7500 Y40.0000 I0.0000 J2.2500
 G02 X12.0000 Y42.2500 I2.2500 J0.0000
 G02 X13.5909 Y41.5909 I0.0000 J-2.2500
 G01 Z0.0000 F1600
 G02 X14.2500 Y40.0000 I-1.5909 J-1.5909 F2200
 G02 X12.0000 Y37.7500 I-2.2500 J0.0000
 G02 X9.7500 Y40.0000 I0.0000 J2.2500
 G02 X12.0000 Y42.2500 I2.2500 J0.0000
 G02 X13.5909 Y41.5909 I0.0000 J-2.2500
 G00 Z20.0000
(END_OF_FORM)
G90
(Esquisse 0)
 G00 X37.9466 Y79.0020
 S17000 M03
 G00 Z14.0000
 G01 Z4.0000 F1600
 G02 X29.2845 Y75.4141 I-8.6620 J8.6620 F2200
 G02 X17.0345 Y87.6641 I0.0000 J12.2500
 G02 X29.2845 Y99.9141 I12.2500 J0.0000
 G02 X41.5345 Y87.6641 I0.0000 J-12.2499
 G02 X37.9466 Y79.0020 I-12.2500 J0.0000
 G01 Z2.0000 F1600
 G02 X29.2845 Y75.4141 I-8.6620 J8.6620 F2200
 G02 X17.0345 Y87.6641 I0.0000 J12.2500
 G02 X29.2845 Y99.9141 I12.2500 J0.0000
 G02 X41.5345 Y87.6641 I0.0000 J-12.2499
 G02 X37.9466 Y79.0020 I-12.2500 J0.0000
 G01 Z0.0000 F1600
 G02 X29.2845 Y75.4141 I-8.6620 J8.6620 F2200
 G02 X17.0345 Y87.6641 I0.0000 J12.2500
 G02 X29.2845 Y99.9141 I12.2500 J0.0000
 G02 X41.5345 Y87.6641 I0.0000 J-12.2499
 G02 X37.9466 Y79.0020 I-12.2500 J0.0000
 G00 Z20.0000
(END_OF_FORM)
G90
(Esquisse 35)
 G00 X9.3087 Y107.6398
 S17000 M03
 G00 Z14.0000
 G01 Z4.0000 F1600
 G03 X1.2031 Y90.7459 Z4.0000 I19.9757 J-19.9757 F2200
 G03 X1.9486 Y89.9141 Z4.0000 I0.7455 J-0.0818
 G01 X6.0345 Y89.9141 Z4.0000
 G01 X6.0345 Y85.4141 Z4.0000
 G01 X1.9486 Y85.4141 Z4.0000
 G03 X1.2031 Y84.5823 Z4.0000 I0.0000 J-0.7500
 G03 X26.2027 Y59.5827 Z4.0000 I28.0813 J3.0818
 G03 X27.0345 Y60.3282 Z4.0000 I0.0818 J0.7455
 G01 X27.0345 Y64.4141 Z4.0000
 G01 X31.5345 Y64.4141 Z4.0000
 G01 X31.5345 Y60.3282 Z4.0000
 G03 X32.3663 Y59.5827 Z4.0000 I0.7500 J0.0000
 G03 X57.3659 Y84.5823 Z4.0000 I-3.0818 J28.0813
 G03 X56.6204 Y85.4141 Z4.0000 I-0.7455 J0.0818
 G01 X52.5345 Y85.4141 Z4.0000
 G01 X52.5345 Y89.9141 Z4.0000
 G01 X56.6204 Y89.9141 Z4.0000
 G03 X57.3659 Y90.7459 Z4.0000 I0.0000 J0.7500
 G03 X32.3663 Y115.7455 Z4.0000 I-28.0813 J-3.0818
 G03 X31.5345 Y115.0000 Z4.0000 I-0.0818 J-0.7455
 G01 X31.5345 Y110.9141 Z4.0000
 G01 X27.0345 Y110.9141 Z4.0000
 G01 X27.0345 Y115.0000 Z4.0000
 G03 X26.2027 Y115.7455 Z4.0000 I-0.7500 J0.0000
 G03 X9.3087 Y107.6398 Z4.0000 I3.0818 J-28.0813
 G01 Z2.0000 F1600
 G03 X1.2031 Y90.7459 Z2.0000 I19.9757 J-19.9757 F2200
 G03 X1.9486 Y89.9141 Z2.0000 I0.7455 J-0.0818
 G01 X6.0345 Y89.9141 Z2.0000
 G01 X6.0345 Y85.4141 Z2.0000
 G01 X1.9486 Y85.4141 Z2.0000
 G03 X1.2031 Y84.5823 Z2.0000 I0.0000 J-0.7500
 G03 X7.4063 Y69.7921 Z2.0000 I28.0813 J3.0818
 G03 X7.5183 Y69.6559 Z3.0000 I21.8782 J17.8719
 G03 X9.5497 Y67.4503 Z3.0000 I21.7662 J18.0081
 G03 X9.6762 Y67.3275 Z2.0000 I19.7348 J20.2138
 G03 X26.2027 Y59.5827 Z2.0000 I19.6082 J20.3365
 G03 X27.0345 Y60.3282 Z2.0000 I0.0818 J0.7455
 G01 X27.0345 Y64.4141 Z2.0000
 G01 X31.5345 Y64.4141 Z2.0000
 G01 X31.5345 Y60.3282 Z2.0000
 G03 X32.3663 Y59.5827 Z2.0000 I0.7500 J0.0000
 G03 X48.5438 Y66.9966 Z2.0000 I-3.0818 J28.0813
 G03 X48.6724 Y67.1172 Z3.0000 I-19.2592 J20.6674
 G03 X50.7411 Y69.2880 Z3.0000 I-19.3878 J20.5468
 G03 X50.8553 Y69.4223 Z2.0000 I-21.4565 J18.3760
 G03 X57.3659 Y84.5823 Z2.0000 I-21.5708 J18.2417
 G03 X56.6204 Y85.4141 Z2.0000 I-0.7455 J0.0818
 G01 X52.5345 Y85.4141 Z2.0000
 G01 X52.5345 Y89.9141 Z2.0000
 G01 X56.6204 Y89.9141 Z2.0000
 G03 X57.3659 Y90.7459 Z2.0000 I0.0000 J0.7500
 G03 X51.0636 Y105.6567 Z2.0000 I-28.0813 J-3.0818
 G03 X50.9509 Y105.7923 Z3.0000 I-21.7790 J-17.9926
 G03 X48.9073 Y107.9867 Z3.0000 I-21.6663 J-18.1281
 G03 X48.7801 Y108.1088 Z2.0000 I-19.6227 J-20.3226
 G03 X32.3663 Y115.7455 Z2.0000 I-19.4955 J-20.4446
 G03 X31.5345 Y115.0000 Z2.0000 I-0.0818 J-0.7455
 G01 X31.5345 Y110.9141 Z2.0000
 G01 X27.0345 Y110.9141 Z2.0000
 G01 X27.0345 Y115.0000 Z2.0000
 G03 X26.2027 Y115.7455 Z2.0000 I-0.7500 J0.0000
 G03 X13.0222 Y110.7639 Z2.0000 I3.0818 J-28.0813
 G03 X12.8784 Y110.6619 Z3.0000 I16.2622 J-23.0997
 G03 X10.5331 Y108.7934 Z3.0000 I16.4061 J-22.9978
 G03 X10.4016 Y108.6759 Z2.0000 I18.7513 J-21.1293
 G03 X9.3087 Y107.6398 Z2.0000 I18.8829 J-21.0118
 G01 Z0.0000 F1600
 G03 X1.2031 Y90.7459 Z0.0000 I19.9757 J-19.9757 F2200
 G03 X1.9486 Y89.9141 Z0.0000 I0.7455 J-0.0818
 G01 X6.0345 Y89.9141 Z0.0000
 G01 X6.0345 Y85.4141 Z0.0000
 G01 X1.9486 Y85.4141 Z0.0000
 G03 X1.2031 Y84.5823 Z0.0000 I0.0000 J-0.7500
 G03 X7.1849 Y70.0666 Z0.0000 I28.0813 J3.0818
 G03 X7.5183 Y69.6559 Z3.0000 I22.0996 J17.5974
 G03 X9.5497 Y67.4503 Z3.0000 I21.7662 J18.0081
 G03 X9.9316 Y67.0843 Z0.0000 I19.7348 J20.2138
 G03 X26.2027 Y59.5827 Z0.0000 I19.3529 J20.5797
 G03 X27.0345 Y60.3282 Z0.0000 I0.0818 J0.7455
 G01 X27.0345 Y64.4141 Z0.0000
 G01 X31.5345 Y64.4141 Z0.0000
 G01 X31.5345 Y60.3282 Z0.0000
 G03 X32.3663 Y59.5827 Z0.0000 I0.7500 J0.0000
 G03 X48.2843 Y66.7578 Z0.0000 I-3.0818 J28.0813
 G03 X48.6724 Y67.1172 Z3.0000 I-18.9997 J20.9062
 G03 X50.7411 Y69.2880 Z3.0000 I-19.3878 J20.5468
 G03 X51.0814 Y69.6930 Z0.0000 I-21.4565 J18.3760
 G03 X57.3659 Y84.5823 Z0.0000 I-21.7968 J17.9710
 G03 X56.6204 Y85.4141 Z0.0000 I-0.7455 J0.0818
 G01 X52.5345 Y85.4141 Z0.0000
 G01 X52.5345 Y89.9141 Z0.0000
 G01 X56.6204 Y89.9141 Z0.0000
 G03 X57.3659 Y90.7459 Z0.0000 I0.0000 J0.7500
 G03 X51.2865 Y105.3834 Z0.0000 I-28.0813 J-3.0818
 G03 X50.9509 Y105.7923 Z3.0000 I-22.0019 J-17.7193
 G03 X48.9073 Y107.9867 Z3.0000 I-21.6663 J-18.1281
 G03 X48.5234 Y108.3505 Z0.0000 I-19.6227 J-20.3226
 G03 X32.3663 Y115.7455 Z0.0000 I-19.2388 J-20.6864
 G03 X31.5345 Y115.0000 Z0.0000 I-0.0818 J-0.7455
 G01 X31.5345 Y110.9141 Z0.0000
 G01 X27.0345 Y110.9141 Z0.0000
 G01 X27.0345 Y115.0000 Z0.0000
 G03 X26.2027 Y115.7455 Z0.0000 I-0.7500 J0.0000
 G03 X13.3118 Y110.9651 Z0.0000 I3.0818 J-28.0813
 G03 X12.8784 Y110.6619 Z3.0000 I15.9726 J-23.3009
 G03 X10.5331 Y108.7934 Z3.0000 I16.4061 J-22.9978
 G03 X10.1408 Y108.4386 Z0.0000 I18.7513 J-21.1293
 G03 X9.3087 Y107.6398 Z0.0000 I19.1437 J-20.7745
 G00 Z20.0000
(END_OF_FORM)
G90
(Esquisse 34)
 G00 X65.4190 Y12.9469
 S17000 M03
 G00 Z14.0000
 G01 Z4.0000 F1600
 G01 X90.1625 Y1.0700 Z4.0000 F2200
 G03 X91.5689 Y0.7500 Z4.0000 I1.4063 J2.9299
 G01 X111.8290 Y0.7500 Z4.0000
 G03 X114.3257 Y1.9194 Z4.0000 I0.0000 J3.2500
 G01 X117.7634 Y6.0446 Z4.0000
 G03 X118.4197 Y8.9134 Z4.0000 I-2.4967 J2.0805
 G01 X117.5283 Y12.4788 Z4.0000
 G03 X115.6556 Y14.6778 Z4.0000 I-3.1529 J-0.7882
 G01 X113.2954 Y15.6893 Z4.0000
 G03 X112.2500 Y15.0000 Z4.0000 I-0.2954 J-0.6893
 G01 X112.2500 Y13.5000 Z4.0000
 G02 X112.0000 Y13.2500 Z4.0000 I-0.2500 J0.0000
 G01 X109.0000 Y13.2500 Z4.0000
 G02 X108.7500 Y13.5000 Z4.0000 I0.0000 J0.2500
 G01 X108.7500 Y17.5000 Z4.0000
 G03 X107.4696 Y18.0303 Z4.0000 I-0.7500 J0.0000
 G01 X106.0049 Y16.5655 Z4.0000
 G02 X105.1106 Y16.0869 Z4.0000 I-1.2374 J1.2374
 G01 X101.3315 Y15.3311 Z4.0000
 G02 X100.6608 Y15.3280 Z4.0000 I-0.3432 J1.7160
 G01 X96.7366 Y16.0755 Z4.0000
 G02 X95.7471 Y16.6422 Z4.0000 I0.3274 J1.7190
 G01 X94.5644 Y17.9938 Z4.0000
 G03 X94.0000 Y18.2500 Z4.0000 I-0.5644 J-0.4938
 G01 X88.7500 Y18.2500 Z4.0000
 G01 X88.7500 Y19.5000 Z4.0000
 G03 X88.1882 Y20.2259 Z4.0000 I-0.7500 J0.0000
 G01 X78.8041 Y22.6589 Z4.0000
 G02 X72.4884 Y26.1955 Z4.0000 I3.5762 J13.7939
 G01 X70.0727 Y28.5251 Z4.0000
 G03 X67.0914 Y29.8455 Z4.0000 I-3.2973 J-3.4190
 G01 X61.7500 Y30.2016 Z4.0000
 G01 X61.7500 Y37.0000 Z4.0000
 G03 X61.0000 Y37.7500 Z4.0000 I-0.7500 J0.0000
 G01 X35.0000 Y37.7500 Z4.0000
 G01 X31.7500 Y37.7500 Z4.0000
 G01 X31.7500 Y42.2500 Z4.0000
 G01 X35.0000 Y42.2500 Z4.0000
 G01 X61.0000 Y42.2500 Z4.0000
 G03 X61.7500 Y43.0000 Z4.0000 I0.0000 J0.7500
 G01 X61.7500 Y49.7983 Z4.0000
 G01 X67.0914 Y50.1544 Z4.0000
 G03 X70.0727 Y51.4748 Z4.0000 I-0.3159 J4.7394
 G01 X72.4884 Y53.8044 Z4.0000
 G02 X78.8041 Y57.3410 Z4.0000 I9.8919 J-10.2572
 G01 X88.1882 Y59.7740 Z4.0000
 G03 X88.7500 Y60.5000 Z4.0000 I-0.1882 J0.7259
 G01 X88.7500 Y61.7500 Z4.0000
 G01 X94.0000 Y61.7500 Z4.0000
 G03 X94.5644 Y62.0061 Z4.0000 I0.0000 J0.7500
 G01 X95.7471 Y63.3577 Z4.0000
 G02 X96.7366 Y63.9244 Z4.0000 I1.3170 J-1.1523
 G01 X100.6608 Y64.6719 Z4.0000
 G02 X101.3315 Y64.6688 Z4.0000 I0.3274 J-1.7190
 G01 X105.1106 Y63.9130 Z4.0000
 G02 X106.0049 Y63.4344 Z4.0000 I-0.3432 J-1.7160
 G01 X107.4696 Y61.9696 Z4.0000
 G03 X108.7500 Y62.5000 Z4.0000 I0.5303 J0.5303
 G01 X108.7500 Y66.5000 Z4.0000
 G02 X109.0000 Y66.7500 Z4.0000 I0.2500 J0.0000
 G01 X112.0000 Y66.7500 Z4.0000
 G02 X112.2500 Y66.5000 Z4.0000 I0.0000 J-0.2500
 G01 X112.2500 Y65.0000 Z4.0000
 G03 X113.2954 Y64.3106 Z4.0000 I0.7500 J0.0000
 G01 X115.6556 Y65.3221 Z4.0000
 G03 X117.5283 Y67.5211 Z4.0000 I-1.2802 J2.9872
 G01 X118.4197 Y71.0865 Z4.0000
 G03 X117.7634 Y73.9553 Z4.0000 I-3.1529 J0.7882
 G01 X114.3257 Y78.0805 Z4.0000
 G03 X111.8290 Y79.2500 Z4.0000 I-2.4967 J-2.0805
 G01 X91.5689 Y79.2500 Z4.0000
 G03 X90.1625 Y78.9299 Z4.0000 I0.0000 J-3.2500
 G01 X40.8293 Y55.2500 Z4.0000
 G01 X12.0000 Y55.2500 Z4.0000
 G03 X3.2500 Y46.5000 Z4.0000 I0.0000 J-8.7500
 G01 X3.2500 Y33.5000 Z4.0000
 G03 X12.0000 Y24.7500 Z4.0000 I8.7500 J0.0000
 G01 X40.8293 Y24.7500 Z4.0000
 G01 X65.4190 Y12.9469 Z4.0000
 G01 Z2.0000 F1600
 G01 X90.1625 Y1.0700 Z2.0000 F2200
 G03 X91.5689 Y0.7500 Z2.0000 I1.4063 J2.9299
 G01 X103.2315 Y0.7500 Z2.0000
 G01 X103.4078 Y0.7500 Z3.0000 F1600
 G01 X106.4078 Y0.7500 Z3.0000 F2200
 G01 X106.5841 Y0.7500 Z2.0000 F1600
 G01 X111.8290 Y0.7500 Z2.0000 F2200
 G03 X114.3257 Y1.9194 Z2.0000 I0.0000 J3.2500
 G01 X117.7634 Y6.0446 Z2.0000
 G03 X118.4197 Y8.9134 Z2.0000 I-2.4967 J2.0805
 G01 X117.5283 Y12.4788 Z2.0000
 G03 X115.6556 Y14.6778 Z2.0000 I-3.1529 J-0.7882
 G01 X113.2954 Y15.6893 Z2.0000
 G03 X112.2500 Y15.0000 Z2.0000 I-0.2954 J-0.6893
 G01 X112.2500 Y13.5000 Z2.0000
 G02 X112.0000 Y13.2500 Z2.0000 I-0.2500 J0.0000
 G01 X109.0000 Y13.2500 Z2.0000
 G02 X108.7500 Y13.5000 Z2.0000 I0.0000 J0.2500
 G01 X108.7500 Y17.5000 Z2.0000
 G03 X107.4696 Y18.0303 Z2.0000 I-0.7500 J0.0000
 G01 X106.0049 Y16.5655 Z2.0000
 G02 X105.1106 Y16.0869 Z2.0000 I-1.2374 J1.2374
 G01 X101.3315 Y15.3311 Z2.0000
 G02 X100.6608 Y15.3280 Z2.0000 I-0.3432 J1.7160
 G01 X96.7366 Y16.0755 Z2.0000
 G02 X95.7471 Y16.6422 Z2.0000 I0.3274 J1.7190
 G01 X94.5644 Y17.9938 Z2.0000
 G03 X94.0000 Y18.2500 Z2.0000 I-0.5644 J-0.4938
 G01 X88.7500 Y18.2500 Z2.0000
 G01 X88.7500 Y19.5000 Z2.0000
 G03 X88.1882 Y20.2259 Z2.0000 I-0.7500 J0.0000
 G01 X78.8041 Y22.6589 Z2.0000
 G02 X72.4884 Y26.1955 Z2.0000 I3.5762 J13.7939
 G01 X70.0727 Y28.5251 Z2.0000
 G03 X67.0914 Y29.8455 Z2.0000 I-3.2973 J-3.4190
 G01 X61.7500 Y30.2016 Z2.0000
 G01 X61.7500 Y37.0000 Z2.0000
 G03 X61.0000 Y37.7500 Z2.0000 I-0.7500 J0.0000
 G01 X35.0000 Y37.7500 Z2.0000
 G01 X31.7500 Y37.7500 Z2.0000
 G01 X31.7500 Y42.2500 Z2.0000
 G01 X35.0000 Y42.2500 Z2.0000
 G01 X61.0000 Y42.2500 Z2.0000
 G03 X61.7500 Y43.0000 Z2.0000 I0.0000 J0.7500
 G01 X61.7500 Y49.7983 Z2.0000
 G01 X67.0914 Y50.1544 Z2.0000
 G03 X70.0727 Y51.4748 Z2.0000 I-0.3159 J4.7394
 G01 X72.4884 Y53.8044 Z2.0000
 G02 X78.8041 Y57.3410 Z2.0000 I9.8919 J-10.2572
 G01 X88.1882 Y59.7740 Z2.0000
 G03 X88.7500 Y60.5000 Z2.0000 I-0.1882 J0.7259
 G01 X88.7500 Y61.7500 Z2.0000
 G01 X94.0000 Y61.7500 Z2.0000
 G03 X94.5644 Y62.0061 Z2.0000 I0.0000 J0.7500
 G01 X95.7471 Y63.3577 Z2.0000
 G02 X96.7366 Y63.9244 Z2.0000 I1.3170 J-1.1523
 G01 X100.6608 Y64.6719 Z2.0000
 G02 X101.3315 Y64.6688 Z2.0000 I0.3274 J-1.7190
 G01 X105.1106 Y63.9130 Z2.0000
 G02 X106.0049 Y63.4344 Z2.0000 I-0.3432 J-1.7160
 G01 X107.4696 Y61.9696 Z2.0000
 G03 X108.7500 Y62.5000 Z2.0000 I0.5303 J0.5303
 G01 X108.7500 Y66.5000 Z2.0000
 G02 X109.0000 Y66.7500 Z2.0000 I0.2500 J0.0000
 G01 X112.0000 Y66.7500 Z2.0000
 G02 X112.2500 Y66.5000 Z2.0000 I0.0000 J-0.2500
 G01 X112.2500 Y65.0000 Z2.0000
 G03 X113.2954 Y64.3106 Z2.0000 I0.7500 J0.0000
 G01 X115.6556 Y65.3221 Z2.0000
 G03 X117.5283 Y67.5211 Z2.0000 I-1.2802 J2.9872
 G01 X118.4197 Y71.0865 Z2.0000
 G03 X117.7634 Y73.9553 Z2.0000 I-3.1529 J0.7882
 G01 X114.3257 Y78.0805 Z2.0000
 G03 X111.8290 Y79.2500 Z2.0000 I-2.4967 J-2.0805
 G01 X101.8611 Y79.2500 Z2.0000
 G01 X101.6848 Y79.2500 Z3.0000 F1600
 G01 X98.6848 Y79.2500 Z3.0000 F2200
 G01 X98.5084 Y79.2500 Z2.0000 F1600
 G01 X91.5689 Y79.2500 Z2.0000 F2200
 G03 X90.1625 Y78.9299 Z2.0000 I0.0000 J-3.2500
 G01 X40.8293 Y55.2500 Z2.0000
 G01 X12.0000 Y55.2500 Z2.0000
 G03 X3.2500 Y46.5000 Z2.0000 I0.0000 J-8.7500
 G01 X3.2500 Y41.6375 Z2.0000
 G01 X3.2500 Y41.4612 Z3.0000 F1600
 G01 X3.2500 Y38.4612 Z3.0000 F2200
 G01 X3.2500 Y38.2848 Z2.0000 F1600
 G01 X3.2500 Y33.5000 Z2.0000 F2200
 G03 X12.0000 Y24.7500 Z2.0000 I8.7500 J0.0000
 G01 X40.8293 Y24.7500 Z2.0000
 G01 X56.4026 Y17.2748 Z2.0000
 G01 X56.5615 Y17.1985 Z3.0000 F1600
 G01 X59.2661 Y15.9003 Z3.0000 F2200
 G01 X59.4251 Y15.8240 Z2.0000 F1600
 G01 X65.4190 Y12.9469 Z2.0000 F2200
 G01 Z0.0000 F1600
 G01 X90.1625 Y1.0700 Z0.0000 F2200
 G03 X91.5689 Y0.7500 Z0.0000 I1.4063 J2.9299
 G01 X102.8788 Y0.7500 Z0.0000
 G01 X103.4078 Y0.7500 Z3.0000 F1600
 G01 X106.4078 Y0.7500 Z3.0000 F2200
 G01 X106.9368 Y0.7500 Z0.0000 F1600
 G01 X111.8290 Y0.7500 Z0.0000 F2200
 G03 X114.3257 Y1.9194 Z0.0000 I0.0000 J3.2500
 G01 X117.7634 Y6.0446 Z0.0000
 G03 X118.4197 Y8.9134 Z0.0000 I-2.4967 J2.0805
 G01 X117.5283 Y12.4788 Z0.0000
 G03 X115.6556 Y14.6778 Z0.0000 I-3.1529 J-0.7882
 G01 X113.2954 Y15.6893 Z0.0000
 G03 X112.2500 Y15.0000 Z0.0000 I-0.2954 J-0.6893
 G01 X112.2500 Y13.5000 Z0.0000
 G02 X112.0000 Y13.2500 Z0.0000 I-0.2500 J0.0000
 G01 X109.0000 Y13.2500 Z0.0000
 G02 X108.7500 Y13.5000 Z0.0000 I0.0000 J0.2500
 G01 X108.7500 Y17.5000 Z0.0000
 G03 X107.4696 Y18.0303 Z0.0000 I-0.7500 J0.0000
 G01 X106.0049 Y16.5655 Z0.0000
 G02 X105.1106 Y16.0869 Z0.0000 I-1.2374 J1.2374
 G01 X101.3315 Y15.3311 Z0.0000
 G02 X100.6608 Y15.3280 Z0.0000 I-0.3432 J1.7160
 G01 X96.7366 Y16.0755 Z0.0000
 G02 X95.7471 Y16.6422 Z0.0000 I0.3274 J1.7190
 G01 X94.5644 Y17.9938 Z0.0000
 G03 X94.0000 Y18.2500 Z0.0000 I-0.5644 J-0.4938
 G01 X88.7500 Y18.2500 Z0.0000
 G01 X88.7500 Y19.5000 Z0.0000
 G03 X88.1882 Y20.2259 Z0.0000 I-0.7500 J0.0000
 G01 X78.8041 Y22.6589 Z0.0000
 G02 X72.4884 Y26.1955 Z0.0000 I3.5762 J13.7939
 G01 X70.0727 Y28.5251 Z0.0000
 G03 X67.0914 Y29.8455 Z0.0000 I-3.2973 J-3.4190
 G01 X61.7500 Y30.2016 Z0.0000
 G01 X61.7500 Y37.0000 Z0.0000
 G03 X61.0000 Y37.7500 Z0.0000 I-0.7500 J0.0000
 G01 X35.0000 Y37.7500 Z0.0000
 G01 X31.7500 Y37.7500 Z0.0000
 G01 X31.7500 Y42.2500 Z0.0000
 G01 X35.0000 Y42.2500 Z0.0000
 G01 X61.0000 Y42.2500 Z0.0000
 G03 X61.7500 Y43.0000 Z0.0000 I0.0000 J0.7500
 G01 X61.7500 Y49.7983 Z0.0000
 G01 X67.0914 Y50.1544 Z0.0000
 G03 X70.0727 Y51.4748 Z0.0000 I-0.3159 J4.7394
 G01 X72.4884 Y53.8044 Z0.0000
 G02 X78.8041 Y57.3410 Z0.0000 I9.8919 J-10.2572
 G01 X88.1882 Y59.7740 Z0.0000
 G03 X88.7500 Y60.5000 Z0.0000 I-0.1882 J0.7259
 G01 X88.7500 Y61.7500 Z0.0000
 G01 X94.0000 Y61.7500 Z0.0000
 G03 X94.5644 Y62.0061 Z0.0000 I0.0000 J0.7500
 G01 X95.7471 Y63.3577 Z0.0000
 G02 X96.7366 Y63.9244 Z0.0000 I1.3170 J-1.1523
 G01 X100.6608 Y64.6719 Z0.0000
 G02 X101.3315 Y64.6688 Z0.0000 I0.3274 J-1.7190
 G01 X105.1106 Y63.9130 Z0.0000
 G02 X106.0049 Y63.4344 Z0.0000 I-0.3432 J-1.7160
 G01 X107.4696 Y61.9696 Z0.0000
 G03 X108.7500 Y62.5000 Z0.0000 I0.5303 J0.5303
 G01 X108.7500 Y66.5000 Z0.0000
 G02 X109.0000 Y66.7500 Z0.0000 I0.2500 J0.0000
 G01 X112.0000 Y66.7500 Z0.0000
 G02 X112.2500 Y66.5000 Z0.0000 I0.0000 J-0.2500
 G01 X112.2500 Y65.0000 Z0.0000
 G03 X113.2954 Y64.3106 Z0.0000 I0.7500 J0.0000
 G01 X115.6556 Y65.3221 Z0.0000
 G03 X117.5283 Y67.5211 Z0.0000 I-1.2802 J2.9872
 G01 X118.4197 Y71.0865 Z0.0000
 G03 X117.7634 Y73.9553 Z0.0000 I-3.1529 J0.7882
 G01 X114.3257 Y78.0805 Z0.0000
 G03 X111.8290 Y79.2500 Z0.0000 I-2.4967 J-2.0805
 G01 X102.2137 Y79.2500 Z0.0000
 G01 X101.6848 Y79.2500 Z3.0000 F1600
 G01 X98.6848 Y79.2500 Z3.0000 F2200
 G01 X98.1558 Y79.2500 Z0.0000 F1600
 G01 X91.5689 Y79.2500 Z0.0000 F2200
 G03 X90.1625 Y78.9299 Z0.0000 I0.0000 J-3.2500
 G01 X40.8293 Y55.2500 Z0.0000
 G01 X12.0000 Y55.2500 Z0.0000
 G03 X3.2500 Y46.5000 Z0.0000 I0.0000 J-8.7500
 G01 X3.2500 Y41.9902 Z0.0000
 G01 X3.2500 Y41.4612 Z3.0000 F1600
 G01 X3.2500 Y38.4612 Z3.0000 F2200
 G01 X3.2500 Y37.9322 Z0.0000 F1600
 G01 X3.2500 Y33.5000 Z0.0000 F2200
 G03 X12.0000 Y24.7500 Z0.0000 I8.7500 J0.0000
 G01 X40.8293 Y24.7500 Z0.0000
 G01 X56.0846 Y17.4274 Z0.0000
 G01 X56.5615 Y17.1985 Z3.0000 F1600
 G01 X59.2661 Y15.9003 Z3.0000 F2200
 G01 X59.7430 Y15.6714 Z0.0000 F1600
 G01 X65.4190 Y12.9469 Z0.0000 F2200
 G00 Z20.0000
(END_OF_FORM)
G90
(Esquisse 37)
 G00 X25.0000 Y-0.7500
 S17000 M03
 G00 Z14.0000
 G01 Z4.0000 F1600
 G01 X42.0000 Y-0.7500 Z4.0000 F2200
 G03 X50.7500 Y8.0000 Z4.0000 I0.0000 J8.7500
 G01 X50.7500 Y12.0000 Z4.0000
 G03 X42.0000 Y20.7500 Z4.0000 I-8.7500 J0.0000
 G01 X8.0000 Y20.7500 Z4.0000
 G03 X-0.7500 Y12.0000 Z4.0000 I0.0000 J-8.7500
 G01 X-0.7500 Y8.0000 Z4.0000
 G03 X8.0000 Y-0.7500 Z4.0000 I8.7500 J0.0000
 G01 X25.0000 Y-0.7500 Z4.0000
 G01 Z3.0000 F1600
 G01 X26.4271 Y-0.7500 Z3.0000 F2200
 G01 X26.6034 Y-0.7500 Z2.0000 F1600
 G01 X42.0000 Y-0.7500 Z2.0000 F2200
 G03 X50.7500 Y8.0000 Z2.0000 I0.0000 J8.7500
 G01 X50.7500 Y8.3570 Z2.0000
 G01 X50.7500 Y8.5333 Z3.0000 F1600
 G01 X50.7500 Y11.5333 Z3.0000 F2200
 G01 X50.7500 Y11.7096 Z2.0000 F1600
 G01 X50.7500 Y12.0000 Z2.0000 F2200
 G03 X42.0000 Y20.7500 Z2.0000 I-8.7500 J0.0000
 G01 X26.5800 Y20.7500 Z2.0000
 G01 X26.4037 Y20.7500 Z3.0000 F1600
 G01 X23.4037 Y20.7500 Z3.0000 F2200
 G01 X23.2274 Y20.7500 Z2.0000 F1600
 G01 X8.0000 Y20.7500 Z2.0000 F2200
 G03 X-0.7500 Y12.0000 Z2.0000 I0.0000 J-8.7500
 G01 X-0.7500 Y11.8658 Z2.0000
 G01 X-0.7500 Y11.6895 Z3.0000 F1600
 G01 X-0.7500 Y8.6895 Z3.0000 F2200
 G01 X-0.7500 Y8.5132 Z2.0000 F1600
 G01 X-0.7500 Y8.0000 Z2.0000 F2200
 G03 X8.0000 Y-0.7500 Z2.0000 I8.7500 J0.0000
 G01 X23.2508 Y-0.7500 Z2.0000
 G01 X23.4271 Y-0.7500 Z3.0000 F1600
 G01 X25.0000 Y-0.7500 Z3.0000 F2200
 G01 X26.4271 Y-0.7500 Z3.0000
 G01 X26.9561 Y-0.7500 Z0.0000 F1600
 G01 X42.0000 Y-0.7500 Z0.0000 F2200
 G03 X50.7500 Y8.0000 Z0.0000 I0.0000 J8.7500
 G01 X50.7500 Y8.0043 Z0.0000
 G01 X50.7500 Y8.5333 Z3.0000 F1600
 G01 X50.7500 Y11.5333 Z3.0000 F2200
 G01 X50.7500 Y12.0000 Z0.3534 F1600
 G03 X50.7497 Y12.0623 Z0.0000 I-8.7500 J0.0000 F2200
 G03 X42.0000 Y20.7500 Z0.0000 I-8.7497 J-0.0623
 G01 X26.9327 Y20.7500 Z0.0000
 G01 X26.4037 Y20.7500 Z3.0000 F1600
 G01 X23.4037 Y20.7500 Z3.0000 F2200
 G01 X22.8747 Y20.7500 Z0.0000 F1600
 G01 X8.0000 Y20.7500 Z0.0000 F2200
 G03 X-0.7472 Y12.2185 Z0.0000 I0.0000 J-8.7500
 G03 X-0.7500 Y12.0000 Z1.2394 I8.7472 J-0.2185
 G01 X-0.7500 Y11.6895 Z3.0000 F1600
 G01 X-0.7500 Y8.6895 Z3.0000 F2200
 G01 X-0.7500 Y8.1605 Z0.0000 F1600
 G01 X-0.7500 Y8.0000 Z0.0000 F2200
 G03 X8.0000 Y-0.7500 Z0.0000 I8.7500 J0.0000
 G01 X22.8981 Y-0.7500 Z0.0000
 G01 X23.4271 Y-0.7500 Z3.0000 F1600
 G01 X25.0000 Y-0.7500 Z3.0000 F2200
 G00 Z20.0000
(END_OF_FORM)
G90
(Esquisse 33)
 G00 X119.5809 Y42.9469
 S17000 M03
 G00 Z14.0000
 G01 Z4.0000 F1600
 G01 X144.1706 Y54.7500 Z4.0000 F2200
 G01 X150.0000 Y54.7500 Z4.0000
 G01 X152.0000 Y54.7500 Z4.0000
 G03 X160.7500 Y63.5000 Z4.0000 I0.0000 J8.7500
 G01 X160.7500 Y67.0000 Z4.0000
 G03 X160.0000 Y67.7500 Z4.0000 I-0.7500 J0.0000
 G01 X154.7500 Y67.7500 Z4.0000
 G01 X154.7500 Y72.2500 Z4.0000
 G01 X160.0000 Y72.2500 Z4.0000
 G03 X160.7500 Y73.0000 Z4.0000 I0.0000 J0.7500
 G01 X160.7500 Y76.5000 Z4.0000
 G03 X152.0000 Y85.2500 Z4.0000 I-8.7500 J0.0000
 G01 X150.0000 Y85.2500 Z4.0000
 G01 X144.1706 Y85.2500 Z4.0000
 G01 X94.8374 Y108.9299 Z4.0000
 G03 X93.4310 Y109.2500 Z4.0000 I-1.4063 J-2.9299
 G01 X73.1709 Y109.2500 Z4.0000
 G03 X70.6742 Y108.0805 Z4.0000 I0.0000 J-3.2500
 G01 X67.2365 Y103.9553 Z4.0000
 G03 X66.5802 Y101.0865 Z4.0000 I2.4967 J-2.0805
 G01 X67.4716 Y97.5211 Z4.0000
 G03 X69.3443 Y95.3221 Z4.0000 I3.1529 J0.7882
 G01 X71.7045 Y94.3106 Z4.0000
 G03 X72.7500 Y95.0000 Z4.0000 I0.2954 J0.6893
 G01 X72.7500 Y96.5000 Z4.0000
 G02 X73.0000 Y96.7500 Z4.0000 I0.2500 J0.0000
 G01 X76.0000 Y96.7500 Z4.0000
 G02 X76.2500 Y96.5000 Z4.0000 I0.0000 J-0.2500
 G01 X76.2500 Y92.5000 Z4.0000
 G03 X77.5303 Y91.9696 Z4.0000 I0.7500 J0.0000
 G01 X78.9950 Y93.4344 Z4.0000
 G02 X79.8893 Y93.9130 Z4.0000 I1.2374 J-1.2374
 G01 X83.6684 Y94.6688 Z4.0000
 G02 X84.3391 Y94.6719 Z4.0000 I0.3432 J-1.7160
 G01 X88.2633 Y93.9244 Z4.0000
 G02 X89.2528 Y93.3577 Z4.0000 I-0.3274 J-1.7190
 G01 X90.4355 Y92.0061 Z4.0000
 G03 X91.0000 Y91.7500 Z4.0000 I0.5644 J0.4938
 G01 X96.2500 Y91.7500 Z4.0000
 G01 X96.2500 Y90.5000 Z4.0000
 G03 X96.8117 Y89.7740 Z4.0000 I0.7500 J0.0000
 G01 X106.1958 Y87.3410 Z4.0000
 G02 X112.5115 Y83.8044 Z4.0000 I-3.5762 J-13.7939
 G01 X114.9272 Y81.4748 Z4.0000
 G03 X117.9085 Y80.1544 Z4.0000 I3.2973 J3.4190
 G01 X123.2500 Y79.7983 Z4.0000
 G01 X123.2500 Y73.0000 Z4.0000
 G03 X124.0000 Y72.2500 Z4.0000 I0.7500 J0.0000
 G01 X140.2500 Y72.2500 Z4.0000
 G01 X140.2500 Y67.7500 Z4.0000
 G01 X124.0000 Y67.7500 Z4.0000
 G03 X123.2500 Y67.0000 Z4.0000 I0.0000 J-0.7500
 G01 X123.2500 Y60.2016 Z4.0000
 G01 X117.9085 Y59.8455 Z4.0000
 G03 X114.9272 Y58.5251 Z4.0000 I0.3159 J-4.7394
 G01 X112.5115 Y56.1955 Z4.0000
 G02 X106.1958 Y52.6589 Z4.0000 I-9.8919 J10.2572
 G01 X96.8117 Y50.2259 Z4.0000
 G03 X96.2500 Y49.5000 Z4.0000 I0.1882 J-0.7259
 G01 X96.2500 Y48.2500 Z4.0000
 G01 X91.0000 Y48.2500 Z4.0000
 G03 X90.4355 Y47.9938 Z4.0000 I0.0000 J-0.7500
 G01 X89.2528 Y46.6422 Z4.0000
 G02 X88.2633 Y46.0755 Z4.0000 I-1.3170 J1.1523
 G01 X84.3391 Y45.3280 Z4.0000
 G02 X83.6684 Y45.3311 Z4.0000 I-0.3274 J1.7190
 G01 X79.8893 Y46.0869 Z4.0000
 G02 X78.9950 Y46.5655 Z4.0000 I0.3432 J1.7160
 G01 X77.5303 Y48.0303 Z4.0000
 G03 X76.2500 Y47.5000 Z4.0000 I-0.5303 J-0.5303
 G01 X76.2500 Y43.5000 Z4.0000
 G02 X76.0000 Y43.2500 Z4.0000 I-0.2500 J0.0000
 G01 X73.0000 Y43.2500 Z4.0000
 G02 X72.7500 Y43.5000 Z4.0000 I0.0000 J0.2500
 G01 X72.7500 Y45.0000 Z4.0000
 G03 X71.7045 Y45.6893 Z4.0000 I-0.7500 J0.0000
 G01 X69.3443 Y44.6778 Z4.0000
 G03 X67.4716 Y42.4788 Z4.0000 I1.2802 J-2.9872
 G01 X66.5802 Y38.9134 Z4.0000
 G03 X67.2365 Y36.0446 Z4.0000 I3.1529 J-0.7882
 G01 X70.6742 Y31.9194 Z4.0000
 G03 X73.1709 Y30.7500 Z4.0000 I2.4967 J2.0805
 G01 X93.4310 Y30.7500 Z4.0000
 G03 X94.8374 Y31.0700 Z4.0000 I0.0000 J3.2500
 G01 X119.5809 Y42.9469 Z4.0000
 G01 Z2.0000 F1600
 G01 X144.1706 Y54.7500 Z2.0000 F2200
 G01 X150.0000 Y54.7500 Z2.0000
 G01 X152.0000 Y54.7500 Z2.0000
 G03 X160.7491 Y63.3795 Z2.0000 I0.0000 J8.7500
 G03 X160.7500 Y63.5000 Z2.6833 I-8.7491 J0.1204
 G01 X160.7500 Y63.5558 Z3.0000 F1600
 G01 X160.7500 Y66.5558 Z3.0000 F2200
 G01 X160.7500 Y66.7321 Z2.0000 F1600
 G01 X160.7500 Y67.0000 Z2.0000 F2200
 G03 X160.0000 Y67.7500 Z2.0000 I-0.7500 J0.0000
 G01 X154.7500 Y67.7500 Z2.0000
 G01 X154.7500 Y72.2500 Z2.0000
 G01 X160.0000 Y72.2500 Z2.0000
 G03 X160.7500 Y73.0000 Z2.0000 I0.0000 J0.7500
 G01 X160.7500 Y76.5000 Z2.0000
 G03 X152.0000 Y85.2500 Z2.0000 I-8.7500 J0.0000
 G01 X150.0000 Y85.2500 Z2.0000
 G01 X144.1706 Y85.2500 Z2.0000
 G01 X126.1611 Y93.8945 Z2.0000
 G01 X126.0021 Y93.9708 Z3.0000 F1600
 G01 X123.2976 Y95.2690 Z3.0000 F2200
 G01 X123.1386 Y95.3453 Z2.0000 F1600
 G01 X94.8374 Y108.9299 Z2.0000 F2200
 G03 X93.4310 Y109.2500 Z2.0000 I-1.4063 J-2.9299
 G01 X90.1981 Y109.2500 Z2.0000
 G01 X90.0217 Y109.2500 Z3.0000 F1600
 G01 X87.0217 Y109.2500 Z3.0000 F2200
 G01 X86.8454 Y109.2500 Z2.0000 F1600
 G01 X73.1709 Y109.2500 Z2.0000 F2200
 G03 X70.6742 Y108.0805 Z2.0000 I0.0000 J-3.2500
 G01 X67.2365 Y103.9553 Z2.0000
 G03 X66.5802 Y101.0865 Z2.0000 I2.4967 J-2.0805
 G01 X67.4716 Y97.5211 Z2.0000
 G03 X69.3443 Y95.3221 Z2.0000 I3.1529 J0.7882
 G01 X71.7045 Y94.3106 Z2.0000
 G03 X72.7500 Y95.0000 Z2.0000 I0.2954 J0.6893
 G01 X72.7500 Y96.5000 Z2.0000
 G02 X73.0000 Y96.7500 Z2.0000 I0.2500 J0.0000
 G01 X76.0000 Y96.7500 Z2.0000
 G02 X76.2500 Y96.5000 Z2.0000 I0.0000 J-0.2500
 G01 X76.2500 Y92.5000 Z2.0000
 G03 X77.5303 Y91.9696 Z2.0000 I0.7500 J0.0000
 G01 X78.9950 Y93.4344 Z2.0000
 G02 X79.8893 Y93.9130 Z2.0000 I1.2374 J-1.2374
 G01 X83.6684 Y94.6688 Z2.0000
 G02 X84.3391 Y94.6719 Z2.0000 I0.3432 J-1.7160
 G01 X88.2633 Y93.9244 Z2.0000
 G02 X89.2528 Y93.3577 Z2.0000 I-0.3274 J-1.7190
 G01 X90.4355 Y92.0061 Z2.0000
 G03 X91.0000 Y91.7500 Z2.0000 I0.5644 J0.4938
 G01 X96.2500 Y91.7500 Z2.0000
 G01 X96.2500 Y90.5000 Z2.0000
 G03 X96.8117 Y89.7740 Z2.0000 I0.7500 J0.0000
 G01 X106.1958 Y87.3410 Z2.0000
 G02 X112.5115 Y83.8044 Z2.0000 I-3.5762 J-13.7939
 G01 X114.9272 Y81.4748 Z2.0000
 G03 X117.9085 Y80.1544 Z2.0000 I3.2973 J3.4190
 G01 X123.2500 Y79.7983 Z2.0000
 G01 X123.2500 Y73.0000 Z2.0000
 G03 X124.0000 Y72.2500 Z2.0000 I0.7500 J0.0000
 G01 X140.2500 Y72.2500 Z2.0000
 G01 X140.2500 Y67.7500 Z2.0000
 G01 X124.0000 Y67.7500 Z2.0000
 G03 X123.2500 Y67.0000 Z2.0000 I0.0000 J-0.7500
 G01 X123.2500 Y60.2016 Z2.0000
 G01 X117.9085 Y59.8455 Z2.0000
 G03 X114.9272 Y58.5251 Z2.0000 I0.3159 J-4.7394
 G01 X112.5115 Y56.1955 Z2.0000
 G02 X106.1958 Y52.6589 Z2.0000 I-9.8919 J10.2572
 G01 X96.8117 Y50.2259 Z2.0000
 G03 X96.2500 Y49.5000 Z2.0000 I0.1882 J-0.7259
 G01 X96.2500 Y48.2500 Z2.0000
 G01 X91.0000 Y48.2500 Z2.0000
 G03 X90.4355 Y47.9938 Z2.0000 I0.0000 J-0.7500
 G01 X89.2528 Y46.6422 Z2.0000
 G02 X88.2633 Y46.0755 Z2.0000 I-1.3170 J1.1523
 G01 X84.3391 Y45.3280 Z2.0000
 G02 X83.6684 Y45.3311 Z2.0000 I-0.3274 J1.7190
 G01 X79.8893 Y46.0869 Z2.0000
 G02 X78.9950 Y46.5655 Z2.0000 I0.3432 J1.7160
 G01 X77.5303 Y48.0303 Z2.0000
 G03 X76.2500 Y47.5000 Z2.0000 I-0.5303 J-0.5303
 G01 X76.2500 Y43.5000 Z2.0000
 G02 X76.0000 Y43.2500 Z2.0000 I-0.2500 J0.0000
 G01 X73.0000 Y43.2500 Z2.0000
 G02 X72.7500 Y43.5000 Z2.0000 I0.0000 J0.2500
 G01 X72.7500 Y45.0000 Z2.0000
 G03 X71.7045 Y45.6893 Z2.0000 I-0.7500 J0.0000
 G01 X69.3443 Y44.6778 Z2.0000
 G03 X67.4716 Y42.4788 Z2.0000 I1.2802 J-2.9872
 G01 X66.5802 Y38.9134 Z2.0000
 G03 X67.2365 Y36.0446 Z2.0000 I3.1529 J-0.7882
 G01 X70.6742 Y31.9194 Z2.0000
 G03 X73.1709 Y30.7500 Z2.0000 I2.4967 J2.0805
 G01 X85.5812 Y30.7500 Z2.0000
 G01 X85.7575 Y30.7500 Z3.0000 F1600
 G01 X88.7575 Y30.7500 Z3.0000 F2200
 G01 X88.9338 Y30.7500 Z2.0000 F1600
 G01 X93.4310 Y30.7500 Z2.0000 F2200
 G03 X94.8374 Y31.0700 Z2.0000 I0.0000 J3.2500
 G01 X119.5809 Y42.9469 Z2.0000
 G01 Z0.0000 F1600
 G01 X144.1706 Y54.7500 Z0.0000 F2200
 G01 X150.0000 Y54.7500 Z0.0000
 G01 X152.0000 Y54.7500 Z0.0000
 G03 X160.7372 Y63.0270 Z0.0000 I0.0000 J8.7500
 G03 X160.7500 Y63.5000 Z2.6833 I-8.7372 J0.4729
 G01 X160.7500 Y63.5558 Z3.0000 F1600
 G01 X160.7500 Y66.5558 Z3.0000 F2200
 G01 X160.7500 Y67.0000 Z0.4809 F1600
 G03 X160.7452 Y67.0846 Z0.0000 I-0.7500 J0.0000 F2200
 G03 X160.0000 Y67.7500 Z0.0000 I-0.7452 J-0.0846
 G01 X154.7500 Y67.7500 Z0.0000
 G01 X154.7500 Y72.2500 Z0.0000
 G01 X160.0000 Y72.2500 Z0.0000
 G03 X160.7500 Y73.0000 Z0.0000 I0.0000 J0.7500
 G01 X160.7500 Y76.5000 Z0.0000
 G03 X152.0000 Y85.2500 Z0.0000 I-8.7500 J0.0000
 G01 X150.0000 Y85.2500 Z0.0000
 G01 X144.1706 Y85.2500 Z0.0000
 G01 X126.4790 Y93.7419 Z0.0000
 G01 X126.0021 Y93.9708 Z3.0000 F1600
 G01 X123.2976 Y95.2690 Z3.0000 F2200
 G01 X122.8207 Y95.4979 Z0.0000 F1600
 G01 X94.8374 Y108.9299 Z0.0000 F2200
 G03 X93.4310 Y109.2500 Z0.0000 I-1.4063 J-2.9299
 G01 X90.5507 Y109.2500 Z0.0000
 G01 X90.0217 Y109.2500 Z3.0000 F1600
 G01 X87.0217 Y109.2500 Z3.0000 F2200
 G01 X86.4928 Y109.2500 Z0.0000 F1600
 G01 X73.1709 Y109.2500 Z0.0000 F2200
 G03 X70.6742 Y108.0805 Z0.0000 I0.0000 J-3.2500
 G01 X67.2365 Y103.9553 Z0.0000
 G03 X66.5802 Y101.0865 Z0.0000 I2.4967 J-2.0805
 G01 X67.4716 Y97.5211 Z0.0000
 G03 X69.3443 Y95.3221 Z0.0000 I3.1529 J0.7882
 G01 X71.7045 Y94.3106 Z0.0000
 G03 X72.7500 Y95.0000 Z0.0000 I0.2954 J0.6893
 G01 X72.7500 Y96.5000 Z0.0000
 G02 X73.0000 Y96.7500 Z0.0000 I0.2500 J0.0000
 G01 X76.0000 Y96.7500 Z0.0000
 G02 X76.2500 Y96.5000 Z0.0000 I0.0000 J-0.2500
 G01 X76.2500 Y92.5000 Z0.0000
 G03 X77.5303 Y91.9696 Z0.0000 I0.7500 J0.0000
 G01 X78.9950 Y93.4344 Z0.0000
 G02 X79.8893 Y93.9130 Z0.0000 I1.2374 J-1.2374
 G01 X83.6684 Y94.6688 Z0.0000
 G02 X84.3391 Y94.6719 Z0.0000 I0.3432 J-1.7160
 G01 X88.2633 Y93.9244 Z0.0000
 G02 X89.2528 Y93.3577 Z0.0000 I-0.3274 J-1.7190
 G01 X90.4355 Y92.0061 Z0.0000
 G03 X91.0000 Y91.7500 Z0.0000 I0.5644 J0.4938
 G01 X96.2500 Y91.7500 Z0.0000
 G01 X96.2500 Y90.5000 Z0.0000
 G03 X96.8117 Y89.7740 Z0.0000 I0.7500 J0.0000
 G01 X106.1958 Y87.3410 Z0.0000
 G02 X112.5115 Y83.8044 Z0.0000 I-3.5762 J-13.7939
 G01 X114.9272 Y81.4748 Z0.0000
 G03 X117.9085 Y80.1544 Z0.0000 I3.2973 J3.4190
 G01 X123.2500 Y79.7983 Z0.0000
 G01 X123.2500 Y73.0000 Z0.0000
 G03 X124.0000 Y72.2500 Z0.0000 I0.7500 J0.0000
 G01 X140.2500 Y72.2500 Z0.0000
 G01 X140.2500 Y67.7500 Z0.0000
 G01 X124.0000 Y67.7500 Z0.0000
 G03 X123.2500 Y67.0000 Z0.0000 I0.0000 J-0.7500
 G01 X123.2500 Y60.2016 Z0.0000
 G01 X117.9085 Y59.8455 Z0.0000
 G03 X114.9272 Y58.5251 Z0.0000 I0.3159 J-4.7394
 G01 X112.5115 Y56.1955 Z0.0000
 G02 X106.1958 Y52.6589 Z0.0000 I-9.8919 J10.2572
 G01 X96.8117 Y50.2259 Z0.0000
 G03 X96.2500 Y49.5000 Z0.0000 I0.1882 J-0.7259
 G01 X96.2500 Y48.2500 Z0.0000
 G01 X91.0000 Y48.2500 Z0.0000
 G03 X90.4355 Y47.9938 Z0.0000 I0.0000 J-0.7500
 G01 X89.2528 Y46.6422 Z0.0000
 G02 X88.2633 Y46.0755 Z0.0000 I-1.3170 J1.1523
 G01 X84.3391 Y45.3280 Z0.0000
 G02 X83.6684 Y45.3311 Z0.0000 I-0.3274 J1.7190
 G01 X79.8893 Y46.0869 Z0.0000
 G02 X78.9950 Y46.5655 Z0.0000 I0.3432 J1.7160
 G01 X77.5303 Y48.0303 Z0.0000
 G03 X76.2500 Y47.5000 Z0.0000 I-0.5303 J-0.5303
 G01 X76.2500 Y43.5000 Z0.0000
 G02 X76.0000 Y43.2500 Z0.0000 I-0.2500 J0.0000
 G01 X73.0000 Y43.2500 Z0.0000
 G02 X72.7500 Y43.5000 Z0.0000 I0.0000 J0.2500
 G01 X72.7500 Y45.0000 Z0.0000
 G03 X71.7045 Y45.6893 Z0.0000 I-0.7500 J0.0000
 G01 X69.3443 Y44.6778 Z0.0000
 G03 X67.4716 Y42.4788 Z0.0000 I1.2802 J-2.9872
 G01 X66.5802 Y38.9134 Z0.0000
 G03 X67.2365 Y36.0446 Z0.0000 I3.1529 J-0.7882
 G01 X70.6742 Y31.9194 Z0.0000
 G03 X73.1709 Y30.7500 Z0.0000 I2.4967 J2.0805
 G01 X85.2285 Y30.7500 Z0.0000
 G01 X85.7575 Y30.7500 Z3.0000 F1600
 G01 X88.7575 Y30.7500 Z3.0000 F2200
 G01 X89.2865 Y30.7500 Z0.0000 F1600
 G01 X93.4310 Y30.7500 Z0.0000 F2200
 G03 X94.8374 Y31.0700 Z0.0000 I0.0000 J3.2500
 G01 X119.5809 Y42.9469 Z0.0000
 G00 Z20.0000
(END_OF_FORM)
G90
(Esquisse 36)
 G00 X139.2500 Y25.0000
 S17000 M03
 G00 Z14.0000
 G01 Z4.0000 F1600
 G01 X139.2500 Y8.0000 Z4.0000 F2200
 G03 X148.0000 Y-0.7500 Z4.0000 I8.7500 J0.0000
 G01 X152.0000 Y-0.7500 Z4.0000
 G03 X160.7500 Y8.0000 Z4.0000 I0.0000 J8.7500
 G01 X160.7500 Y42.0000 Z4.0000
 G03 X152.0000 Y50.7500 Z4.0000 I-8.7500 J0.0000
 G01 X148.0000 Y50.7500 Z4.0000
 G03 X139.2500 Y42.0000 Z4.0000 I0.0000 J-8.7500
 G01 X139.2500 Y25.0000 Z4.0000
 G01 Z3.0000 F1600
 G01 X139.2500 Y23.5312 Z3.0000 F2200
 G01 X139.2500 Y23.3548 Z2.0000 F1600
 G01 X139.2500 Y8.0000 Z2.0000 F2200
 G03 X148.0000 Y-0.7500 Z2.0000 I8.7500 J0.0000
 G01 X148.2630 Y-0.7500 Z2.0000
 G01 X148.4393 Y-0.7500 Z3.0000 F1600
 G01 X151.4393 Y-0.7500 Z3.0000 F2200
 G01 X151.6156 Y-0.7500 Z2.0000 F1600
 G01 X152.0000 Y-0.7500 Z2.0000 F2200
 G03 X160.7500 Y8.0000 Z2.0000 I0.0000 J8.7500
 G01 X160.7500 Y23.2192 Z2.0000
 G01 X160.7500 Y23.3956 Z3.0000 F1600
 G01 X160.7500 Y26.3956 Z3.0000 F2200
 G01 X160.7500 Y26.5719 Z2.0000 F1600
 G01 X160.7500 Y42.0000 Z2.0000 F2200
 G03 X152.0958 Y50.7494 Z2.0000 I-8.7500 J0.0000
 G03 X152.0000 Y50.7500 Z2.5437 I-0.0958 J-8.7494
 G01 X151.9195 Y50.7500 Z3.0000 F1600
 G01 X148.9195 Y50.7500 Z3.0000 F2200
 G01 X148.7432 Y50.7500 Z2.0000 F1600
 G01 X148.0000 Y50.7500 Z2.0000 F2200
 G03 X139.2500 Y42.0000 Z2.0000 I0.0000 J-8.7500
 G01 X139.2500 Y26.7075 Z2.0000
 G01 X139.2500 Y26.5312 Z3.0000 F1600
 G01 X139.2500 Y25.0000 Z3.0000 F2200
 G01 X139.2500 Y23.5312 Z3.0000
 G01 X139.2500 Y23.0022 Z0.0000 F1600
 G01 X139.2500 Y8.0000 Z0.0000 F2200
 G03 X147.9103 Y-0.7495 Z0.0000 I8.7500 J0.0000
 G03 X148.0000 Y-0.7500 Z0.5083 I0.0896 J8.7495
 G01 X148.4393 Y-0.7500 Z3.0000 F1600
 G01 X151.4393 Y-0.7500 Z3.0000 F2200
 G01 X151.9683 Y-0.7500 Z0.0000 F1600
 G01 X152.0000 Y-0.7500 Z0.0000 F2200
 G03 X160.7500 Y8.0000 Z0.0000 I0.0000 J8.7500
 G01 X160.7500 Y22.8666 Z0.0000
 G01 X160.7500 Y23.3956 Z3.0000 F1600
 G01 X160.7500 Y26.3956 Z3.0000 F2200
 G01 X160.7500 Y26.9245 Z0.0000 F1600
 G01 X160.7500 Y42.0000 Z0.0000 F2200
 G03 X152.4483 Y50.7385 Z0.0000 I-8.7500 J0.0000
 G03 X152.0000 Y50.7500 Z2.5437 I-0.4483 J-8.7385
 G01 X151.9195 Y50.7500 Z3.0000 F1600
 G01 X148.9195 Y50.7500 Z3.0000 F2200
 G01 X148.3905 Y50.7500 Z0.0000 F1600
 G01 X148.0000 Y50.7500 Z0.0000 F2200
 G03 X139.2500 Y42.0000 Z0.0000 I0.0000 J-8.7500
 G01 X139.2500 Y27.0602 Z0.0000
 G01 X139.2500 Y26.5312 Z3.0000 F1600
 G01 X139.2500 Y25.0000 Z3.0000 F2200
 G00 Z20.0000
(END_OF_FORM)
 M02

